DieofAo/pink_ethanqjiang/xiyiye/batch_damp20.txt
# ts arm pink_status x y z qx qy qz qw base_x base_y base_yaw j1 j2 j3 j4 j5 j6 j7 pos_err ori_err iters
1776409341.019133 jaka_arm_left success 0.186093 0.298311 -0.410390 0.590932 0.342347 0.364701 0.632922 +0.000595 -0.002734 -0.006198 -1.024693 +1.320794 +1.036277 -1.097933 +0.717408 -1.476560 +0.757768 2.969011e-04 1.246092e-04 4
1776409341.027394 jaka_arm_left success 0.186114 0.298316 -0.410396 0.590842 0.342360 0.364545 0.633089 +0.000595 -0.002734 -0.006198 -1.024693 +1.320794 +1.036277 -1.097933 +0.717408 -1.476560 +0.757768 3.030032e-04 5.860339e-04 1
1776409341.035721 jaka_arm_left success 0.186143 0.298324 -0.410412 0.590815 0.342278 0.364421 0.633230 +0.000595 -0.002734 -0.006198 -1.024693 +1.320794 +1.036277 -1.097933 +0.717408 -1.476560 +0.757768 3.212892e-04 9.745514e-04 1
1776409341.044033 jaka_arm_left success 0.186164 0.298406 -0.410424 0.591150 0.342173 0.364422 0.632973 +0.000595 -0.002734 -0.006198 -1.024693 +1.320794 +1.036277 -1.097933 +0.717408 -1.476560 +0.757768 3.753227e-04 8.142696e-04 1
1776409341.052383 jaka_arm_left success 0.186192 0.298421 -0.410442 0.591357 0.342078 0.364257 0.632927 +0.000595 -0.002734 -0.006198 -1.024693 +1.320794 +1.036277 -1.097933 +0.717408 -1.476560 +0.757768 4.023594e-04 1.338018e-03 1
1776409341.060760 jaka_arm_left success 0.186263 0.298387 -0.410460 0.591398 0.341951 0.364159 0.633013 +0.000595 -0.002734 -0.006198 -1.024693 +1.320794 +1.036277 -1.097933 +0.717408 -1.476560 +0.757768 4.166845e-04 1.657602e-03 1
1776409341.069067 jaka_arm_left success 0.186281 0.298327 -0.410529 0.591490 0.341871 0.363762 0.633199 +0.000595 -0.002734 -0.006198 -1.024693 +1.320794 +1.036277 -1.097933 +0.717408 -1.476560 +0.757768 4.580756e-04 2.471218e-03 1
1776409341.077378 jaka_arm_left success 0.186338 0.298309 -0.410557 0.591813 0.341789 0.363679 0.632989 +0.000595 -0.002734 -0.006198 -1.024693 +1.320794 +1.036277 -1.097933 +0.717408 -1.476560 +0.757768 4.998021e-04 2.921031e-03 1
1776409341.085648 jaka_arm_left success 0.186434 0.298324 -0.410575 0.592134 0.341529 0.364011 0.632638 +0.000595 -0.002734 -0.006198 -1.024693 +1.320794 +1.036277 -1.097933 +0.717408 -1.476560 +0.757768 5.656783e-04 3.241765e-03 1
1776409341.094162 jaka_arm_left success 0.186521 0.298180 -0.410623 0.592020 0.341654 0.363917 0.632731 +0.000595 -0.002734 -0.006198 -1.024693 +1.320794 +1.036277 -1.097933 +0.717408 -1.476560 +0.757768 6.390249e-04 3.020561e-03 1
1776409341.102440 jaka_arm_left success 0.186565 0.298002 -0.410693 0.591899 0.342064 0.363817 0.632682 +0.000595 -0.002734 -0.006198 -1.024693 +1.320794 +1.036277 -1.097933 +0.717408 -1.476560 +0.757768 7.444167e-04 2.683651e-03 1
1776409341.110734 jaka_arm_left success 0.186620 0.297848 -0.410759 0.591818 0.342359 0.363571 0.632738 +0.000595 -0.002734 -0.006198 -1.024693 +1.320794 +1.036277 -1.097933 +0.717408 -1.476560 +0.757768 8.751383e-04 2.854901e-03 1
1776409341.119176 jaka_arm_left success 0.186577 0.297900 -0.410784 0.592937 0.342470 0.363742 0.631531 +0.000595 -0.002734 -0.006198 -1.024693 +1.320794 +1.036277 -1.097933 +0.717408 -1.476560 +0.757768 8.514896e-04 5.155209e-03 1
1776409341.127403 jaka_arm_left success 0.186626 0.297892 -0.410815 0.593405 0.342271 0.363890 0.631114 +0.000595 -0.002734 -0.006198 -1.024693 +1.320794 +1.036277 -1.097933 +0.717408 -1.476560 +0.757768 9.046901e-04 6.243533e-03 1
1776409341.135756 jaka_arm_left success 0.186634 0.297837 -0.410867 0.593643 0.342455 0.363864 0.630806 +0.000595 -0.002734 -0.006198 -1.024693 +1.320794 +1.036277 -1.097933 +0.717408 -1.476560 +0.757768 9.678346e-04 6.980941e-03 1
1776409341.144072 jaka_arm_left success 0.186714 0.297876 -0.410917 0.594064 0.342178 0.364127 0.630408 +0.000595 -0.002734 -0.006198 -1.022699 +1.320233 +1.036770 -1.105568 +0.722230 -1.467919 +0.756651 8.030468e-06 4.098246e-05 2
1776409341.152484 jaka_arm_left success 0.186775 0.297857 -0.410953 0.594097 0.342233 0.364097 0.630364 +0.000595 -0.002734 -0.006198 -1.022699 +1.320233 +1.036770 -1.105568 +0.722230 -1.467919 +0.756651 7.852859e-05 1.854030e-04 1
1776409341.160834 jaka_arm_left success 0.186837 0.297848 -0.411002 0.594164 0.342100 0.363842 0.630520 +0.000595 -0.002734 -0.006198 -1.022699 +1.320233 +1.036770 -1.105568 +0.722230 -1.467919 +0.756651 1.572312e-04 6.987953e-04 1
1776409341.169182 jaka_arm_left success 0.186875 0.297846 -0.411037 0.594337 0.342031 0.363548 0.630563 +0.000595 -0.002734 -0.006198 -1.022699 +1.320233 +1.036770 -1.105568 +0.722230 -1.467919 +0.756651 2.081377e-04 1.384604e-03 1
1776409341.177397 jaka_arm_left success 0.186934 0.297872 -0.411060 0.594436 0.341824 0.363543 0.630586 +0.000595 -0.002734 -0.006198 -1.022699 +1.320233 +1.036770 -1.105568 +0.722230 -1.467919 +0.756651 2.666202e-04 1.623883e-03 1
1776409341.185744 jaka_arm_left success 0.186901 0.297848 -0.411100 0.594220 0.342393 0.363267 0.630640 +0.000595 -0.002734 -0.006198 -1.022699 +1.320233 +1.036770 -1.105568 +0.722230 -1.467919 +0.756651 2.686293e-04 1.899832e-03 1
1776409341.194162 jaka_arm_left success 0.186912 0.297857 -0.411139 0.594263 0.342371 0.363163 0.630671 +0.000595 -0.002734 -0.006198 -1.022699 +1.320233 +1.036770 -1.105568 +0.722230 -1.467919 +0.756651 3.036350e-04 2.114655e-03 1
1776409341.202411 jaka_arm_left success 0.186965 0.297866 -0.411167 0.594255 0.342155 0.362857 0.630972 +0.000595 -0.002734 -0.006198 -1.022699 +1.320233 +1.036770 -1.105568 +0.722230 -1.467919 +0.756651 3.595655e-04 2.845263e-03 1
1776409341.210680 jaka_arm_left success 0.186983 0.297866 -0.411182 0.594233 0.342170 0.362739 0.631052 +0.000595 -0.002734 -0.006198 -1.022699 +1.320233 +1.036770 -1.105568 +0.722230 -1.467919 +0.756651 3.828678e-04 3.118513e-03 1
1776409341.219249 jaka_arm_left success 0.186991 0.297868 -0.411202 0.594223 0.342165 0.362743 0.631062 +0.000595 -0.002734 -0.006198 -1.022699 +1.320233 +1.036770 -1.105568 +0.722230 -1.467919 +0.756651 4.026989e-04 3.117619e-03 1
1776409341.227478 jaka_arm_left success 0.186994 0.297897 -0.411203 0.594351 0.342143 0.362533 0.631074 +0.000595 -0.002734 -0.006198 -1.022699 +1.320233 +1.036770 -1.105568 +0.722230 -1.467919 +0.756651 4.056132e-04 3.542662e-03 1
1776409341.235870 jaka_arm_left success 0.187018 0.297926 -0.411213 0.594433 0.342032 0.362301 0.631191 +0.000595 -0.002734 -0.006198 -1.022699 +1.320233 +1.036770 -1.105568 +0.722230 -1.467919 +0.756651 4.316210e-04 4.090946e-03 1
1776409341.244147 jaka_arm_left success 0.187069 0.297961 -0.411224 0.594443 0.341887 0.361959 0.631456 +0.000595 -0.002734 -0.006198 -1.022699 +1.320233 +1.036770 -1.105568 +0.722230 -1.467919 +0.756651 4.807642e-04 4.948073e-03 1
1776409341.252497 jaka_arm_left success 0.187087 0.297945 -0.411245 0.594300 0.342073 0.362039 0.631444 +0.000595 -0.002734 -0.006198 -1.022699 +1.320233 +1.036770 -1.105568 +0.722230 -1.467919 +0.756651 5.055252e-04 4.729389e-03 1
1776409341.260761 jaka_arm_left success 0.187090 0.297992 -0.411270 0.594379 0.341959 0.361820 0.631556 +0.000595 -0.002734 -0.006198 -1.022699 +1.320233 +1.036770 -1.105568 +0.722230 -1.467919 +0.756651 5.323458e-04 5.249099e-03 1
1776409341.269143 jaka_arm_left success 0.187099 0.298015 -0.411296 0.594317 0.342013 0.361794 0.631601 +0.000595 -0.002734 -0.006198 -1.022699 +1.320233 +1.036770 -1.105568 +0.722230 -1.467919 +0.756651 5.614800e-04 5.314168e-03 1
1776409341.277372 jaka_arm_left success 0.187123 0.298015 -0.411341 0.594136 0.342026 0.361866 0.631723 +0.000595 -0.002734 -0.006198 -1.022699 +1.320233 +1.036770 -1.105568 +0.722230 -1.467919 +0.756651 6.091447e-04 5.280371e-03 1
1776409341.285783 jaka_arm_left success 0.187149 0.298038 -0.411372 0.594035 0.342029 0.361698 0.631912 +0.000595 -0.002734 -0.006198 -1.022699 +1.320233 +1.036770 -1.105568 +0.722230 -1.467919 +0.756651 6.537444e-04 5.759992e-03 1
1776409341.294159 jaka_arm_left success 0.187166 0.298063 -0.411409 0.593974 0.341989 0.361551 0.632076 +0.000595 -0.002734 -0.006198 -1.022699 +1.320233 +1.036770 -1.105568 +0.722230 -1.467919 +0.756651 6.974801e-04 6.189692e-03 1
1776409341.302485 jaka_arm_left success 0.187186 0.298101 -0.411431 0.594044 0.341959 0.361089 0.632290 +0.000595 -0.002734 -0.006198 -1.022699 +1.320233 +1.036770 -1.105568 +0.722230 -1.467919 +0.756651 7.366733e-04 7.198909e-03 1
1776409341.310693 jaka_arm_left success 0.187259 0.298051 -0.411466 0.593693 0.341988 0.360790 0.632774 +0.000595 -0.002734 -0.006198 -1.022699 +1.320233 +1.036770 -1.105568 +0.722230 -1.467919 +0.756651 7.969704e-04 8.260711e-03 1
1776409341.319099 jaka_arm_left success 0.187273 0.298179 -0.411477 0.593997 0.342067 0.360896 0.632386 +0.000595 -0.002734 -0.006198 -1.022699 +1.320233 +1.036770 -1.105568 +0.722230 -1.467919 +0.756651 8.502490e-04 7.619527e-03 1
1776409341.327475 jaka_arm_left success 0.187288 0.298238 -0.411493 0.594144 0.342073 0.360862 0.632264 +0.000595 -0.002734 -0.006198 -1.022699 +1.320233 +1.036770 -1.105568 +0.722230 -1.467919 +0.756651 8.927396e-04 7.554712e-03 1
1776409341.335733 jaka_arm_left success 0.187296 0.298224 -0.411514 0.594078 0.342315 0.360611 0.632338 +0.000595 -0.002734 -0.006198 -1.022699 +1.320233 +1.036770 -1.105568 +0.722230 -1.467919 +0.756651 9.062778e-04 8.065866e-03 1
1776409341.344037 jaka_arm_left success 0.187313 0.298218 -0.411548 0.593981 0.342456 0.360483 0.632426 +0.000595 -0.002734 -0.006198 -1.022699 +1.320233 +1.036770 -1.105568 +0.722230 -1.467919 +0.756651 9.378400e-04 8.390595e-03 1
1776409341.352571 jaka_arm_left success 0.187334 0.298237 -0.411572 0.594007 0.342490 0.360447 0.632403 +0.000595 -0.002734 -0.006198 -1.022699 +1.320233 +1.036770 -1.105568 +0.722230 -1.467919 +0.756651 9.744306e-04 8.435592e-03 1
1776409341.360857 jaka_arm_left success 0.187359 0.298239 -0.411609 0.593992 0.342565 0.360405 0.632401 +0.000595 -0.002734 -0.006198 -1.027248 +1.314446 +1.040476 -1.097863 +0.722417 -1.471547 +0.750984 1.567396e-05 4.328997e-05 2
1776409341.369198 jaka_arm_left success 0.187409 0.298226 -0.411646 0.593920 0.342551 0.360389 0.632485 +0.000595 -0.002734 -0.006198 -1.027248 +1.314446 +1.040476 -1.097863 +0.722417 -1.471547 +0.750984 7.358478e-05 2.670864e-04 1
1776409341.377368 jaka_arm_left success 0.187433 0.298222 -0.411677 0.593892 0.342669 0.360425 0.632427 +0.000595 -0.002734 -0.006198 -1.027248 +1.314446 +1.040476 -1.097863 +0.722417 -1.471547 +0.750984 1.114953e-04 3.076587e-04 1
1776409341.385826 jaka_arm_left success 0.187466 0.298238 -0.411697 0.593987 0.342750 0.360370 0.632326 +0.000595 -0.002734 -0.006198 -1.027248 +1.314446 +1.040476 -1.097863 +0.722417 -1.471547 +0.750984 1.457480e-04 3.810202e-04 1
1776409341.394038 jaka_arm_left success 0.187469 0.298314 -0.411713 0.594342 0.342861 0.360520 0.631846 +0.000595 -0.002734 -0.006198 -1.027248 +1.314446 +1.040476 -1.097863 +0.722417 -1.471547 +0.750984 1.694974e-04 1.414752e-03 1
1776409341.402458 jaka_arm_left success 0.187509 0.298282 -0.411744 0.594252 0.343003 0.360475 0.631879 +0.000595 -0.002734 -0.006198 -1.027248 +1.314446 +1.040476 -1.097863 +0.722417 -1.471547 +0.750984 2.104355e-04 1.423768e-03 1
1776409341.410674 jaka_arm_left success 0.187521 0.298438 -0.411736 0.595140 0.342846 0.360587 0.631065 +0.000595 -0.002734 -0.006198 -1.027248 +1.314446 +1.040476 -1.097863 +0.722417 -1.471547 +0.750984 2.816490e-04 3.544169e-03 1
1776409341.419151 jaka_arm_left success 0.187526 0.298579 -0.411740 0.595764 0.342820 0.360689 0.630431 +0.000595 -0.002734 -0.006198 -1.027248 +1.314446 +1.040476 -1.097863 +0.722417 -1.471547 +0.750984 3.926712e-04 5.313055e-03 1
1776409341.427455 jaka_arm_left success 0.187558 0.298575 -0.411755 0.595836 0.342952 0.360552 0.630370 +0.000595 -0.002734 -0.006198 -1.027248 +1.314446 +1.040476 -1.097863 +0.722417 -1.471547 +0.750984 4.096796e-04 5.507079e-03 1
1776409341.435823 jaka_arm_left success 0.187584 0.298566 -0.411777 0.595825 0.343059 0.360414 0.630400 +0.000595 -0.002734 -0.006198 -1.027248 +1.314446 +1.040476 -1.097863 +0.722417 -1.471547 +0.750984 4.248421e-04 5.474787e-03 1
1776409341.444108 jaka_arm_left success 0.187537 0.298551 -0.411831 0.595519 0.343820 0.360267 0.630359 +0.000595 -0.002734 -0.006198 -1.027248 +1.314446 +1.040476 -1.097863 +0.722417 -1.471547 +0.750984 4.170730e-04 5.647796e-03 1
1776409341.452517 jaka_arm_left success 0.187549 0.298580 -0.411845 0.595612 0.343884 0.360025 0.630374 +0.000595 -0.002734 -0.006198 -1.027248 +1.314446 +1.040476 -1.097863 +0.722417 -1.471547 +0.750984 4.507448e-04 5.829041e-03 1
1776409341.460775 jaka_arm_left success 0.187569 0.298609 -0.411859 0.595647 0.343908 0.359846 0.630431 +0.000595 -0.002734 -0.006198 -1.027248 +1.314446 +1.040476 -1.097863 +0.722417 -1.471547 +0.750984 4.879456e-04 5.870123e-03 1
1776409341.469118 jaka_arm_left success 0.187587 0.298633 -0.411868 0.595620 0.343932 0.359611 0.630578 +0.000595 -0.002734 -0.006198 -1.027248 +1.314446 +1.040476 -1.097863 +0.722417 -1.471547 +0.750984 5.181187e-04 5.781810e-03 1
1776409341.477383 jaka_arm_left success 0.187693 0.298568 -0.411925 0.594983 0.343791 0.359081 0.631557 +0.000595 -0.002734 -0.006198 -1.027248 +1.314446 +1.040476 -1.097863 +0.722417 -1.471547 +0.750984 5.629670e-04 4.420802e-03 1
1776409341.485802 jaka_arm_left success 0.187723 0.298644 -0.411937 0.595143 0.343610 0.358758 0.631688 +0.000595 -0.002734 -0.006198 -1.027248 +1.314446 +1.040476 -1.097863 +0.722417 -1.471547 +0.750984 6.321446e-04 4.723637e-03 1
1776409341.494102 jaka_arm_left success 0.187710 0.298637 -0.411961 0.594975 0.343706 0.358560 0.631907 +0.000595 -0.002734 -0.006198 -1.027248 +1.314446 +1.040476 -1.097863 +0.722417 -1.471547 +0.750984 6.336179e-04 4.844286e-03 1
1776409341.502437 jaka_arm_left success 0.187732 0.298555 -0.411971 0.594387 0.343904 0.358166 0.632575 +0.000595 -0.002734 -0.006198 -1.027248 +1.314446 +1.040476 -1.097863 +0.722417 -1.471547 +0.750984 6.070488e-04 5.282552e-03 1
1776409341.510686 jaka_arm_left success 0.187713 0.298564 -0.411968 0.594424 0.343788 0.357874 0.632769 +0.000595 -0.002734 -0.006198 -1.027248 +1.314446 +1.040476 -1.097863 +0.722417 -1.471547 +0.750984 5.982587e-04 5.732834e-03 1
1776409341.519135 jaka_arm_left success 0.187704 0.298593 -0.411961 0.594428 0.343755 0.357821 0.632813 +0.000595 -0.002734 -0.006198 -1.027248 +1.314446 +1.040476 -1.097863 +0.722417 -1.471547 +0.750984 6.044767e-04 5.812991e-03 1
1776409341.527503 jaka_arm_left success 0.187673 0.298589 -0.411951 0.594329 0.343854 0.357943 0.632783 +0.000595 -0.002734 -0.006198 -1.027248 +1.314446 +1.040476 -1.097863 +0.722417 -1.471547 +0.750984 5.788082e-04 5.648469e-03 1
1776409341.535741 jaka_arm_left success 0.187669 0.298583 -0.411951 0.594171 0.343753 0.357997 0.632956 +0.000595 -0.002734 -0.006198 -1.027248 +1.314446 +1.040476 -1.097863 +0.722417 -1.471547 +0.750984 5.731528e-04 5.497056e-03 1
1776409341.544076 jaka_arm_left success 0.187631 0.298464 -0.411944 0.593458 0.344109 0.357953 0.633456 +0.000595 -0.002734 -0.006198 -1.027248 +1.314446 +1.040476 -1.097863 +0.722417 -1.471547 +0.750984 4.867557e-04 6.269194e-03 1
1776409341.552496 jaka_arm_left success 0.187609 0.298371 -0.411932 0.593058 0.344112 0.357842 0.633891 +0.000595 -0.002734 -0.006198 -1.027248 +1.314446 +1.040476 -1.097863 +0.722417 -1.471547 +0.750984 4.320158e-04 6.959768e-03 1
1776409341.560868 jaka_arm_left success 0.187582 0.298350 -0.411915 0.592891 0.344156 0.357902 0.633990 +0.000595 -0.002734 -0.006198 -1.027248 +1.314446 +1.040476 -1.097863 +0.722417 -1.471547 +0.750984 3.978378e-04 7.097721e-03 1
1776409341.569121 jaka_arm_left success 0.187556 0.298348 -0.411900 0.592803 0.344175 0.357891 0.634068 +0.000595 -0.002734 -0.006198 -1.027248 +1.314446 +1.040476 -1.097863 +0.722417 -1.471547 +0.750984 3.710427e-04 7.258148e-03 1
1776409341.577364 jaka_arm_left success 0.187529 0.298351 -0.411892 0.592730 0.344176 0.357875 0.634145 +0.000595 -0.002734 -0.006198 -1.027248 +1.314446 +1.040476 -1.097863 +0.722417 -1.471547 +0.750984 3.514281e-04 7.402672e-03 1
1776409341.585815 jaka_arm_left success 0.187506 0.298354 -0.411876 0.592674 0.344223 0.357940 0.634135 +0.000595 -0.002734 -0.006198 -1.027248 +1.314446 +1.040476 -1.097863 +0.722417 -1.471547 +0.750984 3.281278e-04 7.386056e-03 1
1776409341.594195 jaka_arm_left success 0.187484 0.298359 -0.411861 0.592655 0.344265 0.357895 0.634155 +0.000595 -0.002734 -0.006198 -1.027248 +1.314446 +1.040476 -1.097863 +0.722417 -1.471547 +0.750984 3.075937e-04 7.516420e-03 1
1776409341.602469 jaka_arm_left success 0.187449 0.298412 -0.411827 0.592862 0.344275 0.357670 0.634084 +0.000595 -0.002734 -0.006198 -1.027248 +1.314446 +1.040476 -1.097863 +0.722417 -1.471547 +0.750984 2.907253e-04 7.636072e-03 1
1776409341.610692 jaka_arm_left success 0.187432 0.298420 -0.411821 0.592835 0.344302 0.357680 0.634088 +0.000595 -0.002734 -0.006198 -1.027248 +1.314446 +1.040476 -1.097863 +0.722417 -1.471547 +0.750984 2.856754e-04 7.665862e-03 1
1776409341.619077 jaka_arm_left success 0.187430 0.298435 -0.411830 0.592831 0.344186 0.357600 0.634200 +0.000595 -0.002734 -0.006198 -1.027248 +1.314446 +1.040476 -1.097863 +0.722417 -1.471547 +0.750984 3.009575e-04 7.784584e-03 1
1776409341.627479 jaka_arm_left success 0.187420 0.298422 -0.411839 0.592718 0.344221 0.357591 0.634291 +0.000595 -0.002734 -0.006198 -1.027248 +1.314446 +1.040476 -1.097863 +0.722417 -1.471547 +0.750984 2.980275e-04 7.982745e-03 1
1776409341.635794 jaka_arm_left success 0.187408 0.298407 -0.411848 0.592680 0.344242 0.357416 0.634414 +0.000595 -0.002734 -0.006198 -1.027248 +1.314446 +1.040476 -1.097863 +0.722417 -1.471547 +0.750984 2.948462e-04 8.390507e-03 1
1776409341.644008 jaka_arm_left success 0.187398 0.298397 -0.411855 0.592688 0.344320 0.357377 0.634386 +0.000595 -0.002734 -0.006198 -1.027248 +1.314446 +1.040476 -1.097863 +0.722417 -1.471547 +0.750984 2.941284e-04 8.477595e-03 1
1776409341.652412 jaka_arm_left success 0.187427 0.298376 -0.411881 0.592704 0.344162 0.357045 0.634644 +0.000595 -0.002734 -0.006198 -1.027248 +1.314446 +1.040476 -1.097863 +0.722417 -1.471547 +0.750984 3.130153e-04 9.081851e-03 1
1776409341.660757 jaka_arm_left success 0.187449 0.298362 -0.411899 0.592803 0.344088 0.356792 0.634734 +0.000595 -0.002734 -0.006198 -1.027248 +1.314446 +1.040476 -1.097863 +0.722417 -1.471547 +0.750984 3.296679e-04 9.449417e-03 1
1776409341.669136 jaka_arm_left success 0.187457 0.298309 -0.411914 0.592861 0.344191 0.356535 0.634769 +0.000595 -0.002734 -0.006198 -1.027248 +1.314446 +1.040476 -1.097863 +0.722417 -1.471547 +0.750984 3.325573e-04 9.919572e-03 1
1776409341.677442 jaka_arm_left success 0.187487 0.298264 -0.411927 0.593030 0.344132 0.356296 0.634778 +0.000595 -0.002734 -0.006198 -1.027248 +1.314446 +1.040476 -1.097863 +0.722417 -1.471547 +0.750984 3.503943e-04 1.019911e-02 1
1776409341.685816 jaka_arm_left success 0.187538 0.298179 -0.411956 0.592995 0.344133 0.356397 0.634752 +0.000595 -0.002734 -0.006198 -1.027248 +1.314446 +1.040476 -1.097863 +0.722417 -1.471547 +0.750984 4.046061e-04 1.002676e-02 1
1776409341.694074 jaka_arm_left success 0.187492 0.298185 -0.411974 0.593817 0.343935 0.356065 0.634277 +0.000595 -0.002734 -0.006198 -1.027248 +1.314446 +1.040476 -1.097863 +0.722417 -1.471547 +0.750984 4.016651e-04 9.863683e-03 1
1776409341.702411 jaka_arm_left success 0.187461 0.298265 -0.411980 0.594706 0.343676 0.356375 0.633410 +0.000595 -0.002734 -0.006198 -1.027248 +1.314446 +1.040476 -1.097863 +0.722417 -1.471547 +0.750984 3.923531e-04 8.721978e-03 1
1776409341.710648 jaka_arm_left success 0.187531 0.298339 -0.411969 0.595597 0.342817 0.356658 0.632879 +0.000595 -0.002734 -0.006198 -1.027248 +1.314446 +1.040476 -1.097863 +0.722417 -1.471547 +0.750984 4.154116e-04 8.221620e-03 1
1776409341.719086 jaka_arm_left success 0.187509 0.298267 -0.411962 0.595804 0.342903 0.356900 0.632501 +0.000595 -0.002734 -0.006198 -1.027248 +1.314446 +1.040476 -1.097863 +0.722417 -1.471547 +0.750984 3.912202e-04 7.915528e-03 1
1776409341.727465 jaka_arm_left success 0.187487 0.298131 -0.411964 0.595770 0.342953 0.356764 0.632583 +0.000595 -0.002734 -0.006198 -1.027248 +1.314446 +1.040476 -1.097863 +0.722417 -1.471547 +0.750984 4.036129e-04 8.142796e-03 1
1776409341.735755 jaka_arm_left success 0.187453 0.298051 -0.411990 0.595779 0.342819 0.356848 0.632599 +0.000595 -0.002734 -0.006198 -1.027248 +1.314446 +1.040476 -1.097863 +0.722417 -1.471547 +0.750984 4.478481e-04 7.981479e-03 1
1776409341.744058 jaka_arm_left success 0.187429 0.298012 -0.411997 0.595977 0.342691 0.356849 0.632482 +0.000595 -0.002734 -0.006198 -1.027248 +1.314446 +1.040476 -1.097863 +0.722417 -1.471547 +0.750984 4.682426e-04 8.143285e-03 1
1776409341.752595 jaka_arm_left success 0.187422 0.297803 -0.412022 0.595429 0.342702 0.356480 0.633199 +0.000595 -0.002734 -0.006198 -1.027248 +1.314446 +1.040476 -1.097863 +0.722417 -1.471547 +0.750984 6.188668e-04 8.516762e-03 1
1776409341.760951 jaka_arm_left success 0.187414 0.297766 -0.412022 0.595524 0.342644 0.356376 0.633200 +0.000595 -0.002734 -0.006198 -1.027248 +1.314446 +1.040476 -1.097863 +0.722417 -1.471547 +0.750984 6.454966e-04 8.770727e-03 1
1776409341.769167 jaka_arm_left success 0.187425 0.297671 -0.412029 0.595447 0.342618 0.356254 0.633355 +0.000595 -0.002734 -0.006198 -1.027248 +1.314446 +1.040476 -1.097863 +0.722417 -1.471547 +0.750984 7.249143e-04 9.005642e-03 1
1776409341.777390 jaka_arm_left success 0.187401 0.297593 -0.412049 0.595429 0.342734 0.355999 0.633453 +0.000595 -0.002734 -0.006198 -1.027248 +1.314446 +1.040476 -1.097863 +0.722417 -1.471547 +0.750984 7.981922e-04 9.514291e-03 1
1776409341.785820 jaka_arm_left success 0.187375 0.297623 -0.412058 0.595757 0.342739 0.356255 0.632998 +0.000595 -0.002734 -0.006198 -1.027248 +1.314446 +1.040476 -1.097863 +0.722417 -1.471547 +0.750984 7.777575e-04 9.103482e-03 1
1776409341.794133 jaka_arm_left success 0.187373 0.297600 -0.412075 0.595843 0.342726 0.356364 0.632863 +0.000595 -0.002734 -0.006198 -1.027248 +1.314446 +1.040476 -1.097863 +0.722417 -1.471547 +0.750984 8.063054e-04 8.940379e-03 1
1776409341.802460 jaka_arm_left success 0.187378 0.297584 -0.412092 0.595927 0.342690 0.356370 0.632799 +0.000595 -0.002734 -0.006198 -1.027248 +1.314446 +1.040476 -1.097863 +0.722417 -1.471547 +0.750984 8.293582e-04 8.985192e-03 1
1776409341.810689 jaka_arm_left success 0.187368 0.297562 -0.412119 0.595966 0.342689 0.356340 0.632780 +0.000595 -0.002734 -0.006198 -1.027248 +1.314446 +1.040476 -1.097863 +0.722417 -1.471547 +0.750984 8.629036e-04 9.069176e-03 1
1776409341.819178 jaka_arm_left success 0.187340 0.297548 -0.412142 0.596016 0.342780 0.356330 0.632690 +0.000595 -0.002734 -0.006198 -1.027248 +1.314446 +1.040476 -1.097863 +0.722417 -1.471547 +0.750984 8.880243e-04 9.123368e-03 1
1776409341.827496 jaka_arm_left success 0.187325 0.297533 -0.412163 0.596003 0.342853 0.356392 0.632627 +0.000595 -0.002734 -0.006198 -1.027248 +1.314446 +1.040476 -1.097863 +0.722417 -1.471547 +0.750984 9.131231e-04 9.001356e-03 1
1776409341.835800 jaka_arm_left success 0.187286 0.297524 -0.412171 0.595917 0.343028 0.356513 0.632545 +0.000595 -0.002734 -0.006198 -1.027248 +1.314446 +1.040476 -1.097863 +0.722417 -1.471547 +0.750984 9.272774e-04 8.731105e-03 1
1776409341.844046 jaka_arm_left success 0.187227 0.297527 -0.412172 0.595782 0.343303 0.356538 0.632509 +0.000595 -0.002734 -0.006198 -1.027248 +1.314446 +1.040476 -1.097863 +0.722417 -1.471547 +0.750984 9.318853e-04 8.644294e-03 1
1776409341.852594 jaka_arm_left success 0.187169 0.297450 -0.412182 0.595293 0.343571 0.356386 0.632910 +0.000595 -0.002734 -0.006198 -1.025699 +1.311980 +1.043703 -1.101098 +0.724841 -1.468344 +0.743890 2.575975e-06 2.232657e-05 2
1776409341.860862 jaka_arm_left success 0.187122 0.297504 -0.412196 0.595116 0.343677 0.356367 0.633029 +0.000595 -0.002734 -0.006198 -1.025699 +1.311980 +1.043703 -1.101098 +0.724841 -1.468344 +0.743890 7.172130e-05 4.840168e-04 1
1776409341.869141 jaka_arm_left success 0.187030 0.297596 -0.412205 0.595033 0.343869 0.356404 0.632982 +0.000595 -0.002734 -0.006198 -1.025699 +1.311980 +1.043703 -1.101098 +0.724841 -1.468344 +0.743890 2.018091e-04 8.005786e-04 1
1776409341.877376 jaka_arm_left success 0.186978 0.297739 -0.412196 0.595102 0.343888 0.356313 0.632958 +0.000595 -0.002734 -0.006198 -1.025699 +1.311980 +1.043703 -1.101098 +0.724841 -1.468344 +0.743890 3.458597e-04 7.561162e-04 1
1776409341.885769 jaka_arm_left success 0.186940 0.297835 -0.412208 0.594847 0.343833 0.356136 0.633327 +0.000595 -0.002734 -0.006198 -1.025699 +1.311980 +1.043703 -1.101098 +0.724841 -1.468344 +0.743890 4.478581e-04 1.430097e-03 1
1776409341.894120 jaka_arm_left success 0.186917 0.297876 -0.412255 0.594309 0.343946 0.356018 0.633837 +0.000595 -0.002734 -0.006198 -1.025699 +1.311980 +1.043703 -1.101098 +0.724841 -1.468344 +0.743890 4.992508e-04 2.912437e-03 1
1776409341.902461 jaka_arm_left success 0.186860 0.297911 -0.412295 0.593602 0.344417 0.355713 0.634414 +0.000595 -0.002734 -0.006198 -1.025699 +1.311980 +1.043703 -1.101098 +0.724841 -1.468344 +0.743890 5.651550e-04 5.026198e-03 1
1776409341.910697 jaka_arm_left success 0.186719 0.298179 -0.412294 0.594162 0.344046 0.355826 0.634028 +0.000595 -0.002734 -0.006198 -1.025699 +1.311980 +1.043703 -1.101098 +0.724841 -1.468344 +0.743890 8.629604e-04 3.515299e-03 1
1776409341.919069 jaka_arm_left success 0.186667 0.298321 -0.412275 0.594287 0.343832 0.355998 0.633931 +0.000595 -0.002734 -0.006198 -1.027331 +1.309893 +1.043515 -1.093809 +0.722548 -1.474153 +0.744294 7.452666e-06 1.819322e-05 2
1776409341.927480 jaka_arm_left success 0.186556 0.298397 -0.412246 0.594230 0.344106 0.356309 0.633660 +0.000595 -0.002734 -0.006198 -1.027331 +1.309893 +1.043515 -1.093809 +0.722548 -1.474153 +0.744294 1.345977e-04 9.834260e-04 1
1776409341.935794 jaka_arm_left success 0.186510 0.298443 -0.412230 0.594068 0.344171 0.356379 0.633737 +0.000595 -0.002734 -0.006198 -1.027331 +1.309893 +1.043515 -1.093809 +0.722548 -1.474153 +0.744294 2.005583e-04 1.161874e-03 1
1776409341.943985 jaka_arm_left success 0.186441 0.298573 -0.412192 0.594315 0.343982 0.356466 0.633560 +0.000595 -0.002734 -0.006198 -1.027331 +1.309893 +1.043515 -1.093809 +0.722548 -1.474153 +0.744294 3.446351e-04 1.217236e-03 1
1776409341.952524 jaka_arm_left success 0.186411 0.298671 -0.412162 0.594520 0.343831 0.356258 0.633567 +0.000595 -0.002734 -0.006198 -1.027331 +1.309893 +1.043515 -1.093809 +0.722548 -1.474153 +0.744294 4.439169e-04 9.985127e-04 1
1776409341.960757 jaka_arm_left success 0.186440 0.298498 -0.412169 0.593544 0.343983 0.355624 0.634755 +0.000595 -0.002734 -0.006198 -1.027331 +1.309893 +1.043515 -1.093809 +0.722548 -1.474153 +0.744294 3.026379e-04 2.367323e-03 1
1776409341.969167 jaka_arm_left success 0.186414 0.298565 -0.412150 0.593588 0.343840 0.355445 0.634890 +0.000595 -0.002734 -0.006198 -1.027331 +1.309893 +1.043515 -1.093809 +0.722548 -1.474153 +0.744294 3.687421e-04 2.627062e-03 1
1776409341.977345 jaka_arm_left success 0.186462 0.298557 -0.412149 0.592944 0.343854 0.355609 0.635393 +0.000595 -0.002734 -0.006198 -1.027331 +1.309893 +1.043515 -1.093809 +0.722548 -1.474153 +0.744294 3.323119e-04 4.050208e-03 1
1776409341.985867 jaka_arm_left success 0.186438 0.298675 -0.412161 0.593097 0.343612 0.355768 0.635292 +0.000595 -0.002734 -0.006198 -1.027331 +1.309893 +1.043515 -1.093809 +0.722548 -1.474153 +0.744294 4.323967e-04 3.674377e-03 1
1776409341.994109 jaka_arm_left success 0.186430 0.298747 -0.412164 0.593152 0.343448 0.355889 0.635262 +0.000595 -0.002734 -0.006198 -1.027331 +1.309893 +1.043515 -1.093809 +0.722548 -1.474153 +0.744294 4.957246e-04 3.590349e-03 1
1776409342.002474 jaka_arm_left success 0.186467 0.298852 -0.412193 0.593240 0.343119 0.356143 0.635215 +0.000595 -0.002734 -0.006198 -1.027331 +1.309893 +1.043515 -1.093809 +0.722548 -1.474153 +0.744294 5.693387e-04 3.618581e-03 1
1776409342.019105 jaka_arm_left success 0.186545 0.298852 -0.412228 0.592634 0.343156 0.356814 0.635384 +0.000595 -0.002734 -0.006198 -1.027331 +1.309893 +1.043515 -1.093809 +0.722548 -1.474153 +0.744294 5.431135e-04 4.879581e-03 1
1776409342.027434 jaka_arm_left success 0.186489 0.299296 -0.412219 0.594126 0.342576 0.357029 0.634181 +0.000595 -0.002734 -0.006198 -1.027331 +1.309893 +1.043515 -1.093809 +0.722548 -1.474153 +0.744294 9.890913e-04 3.293447e-03 1
1776409342.035809 jaka_arm_left success 0.186542 0.299316 -0.412238 0.593883 0.342750 0.356902 0.634387 +0.000595 -0.002734 -0.006198 -1.027331 +1.309893 +1.043515 -1.093809 +0.722548 -1.474153 +0.744294 9.999946e-04 3.062058e-03 1
1776409342.044059 jaka_arm_left success 0.186556 0.299368 -0.412257 0.593693 0.343315 0.356593 0.634433 +0.000595 -0.002734 -0.006198 -1.029694 +1.307750 +1.042785 -1.086912 +0.720773 -1.479409 +0.746444 5.796045e-06 1.604352e-05 2
1776409342.052946 jaka_arm_left success 0.186647 0.299456 -0.412261 0.593689 0.343350 0.356376 0.634540 +0.000595 -0.002734 -0.006198 -1.029694 +1.307750 +1.042785 -1.086912 +0.720773 -1.479409 +0.746444 1.251368e-04 5.032990e-04 1
1776409342.060822 jaka_arm_left success 0.186738 0.299566 -0.412241 0.593867 0.343398 0.356086 0.634510 +0.000595 -0.002734 -0.006198 -1.029694 +1.307750 +1.042785 -1.086912 +0.720773 -1.479409 +0.746444 2.672728e-04 1.111457e-03 1
1776409342.069148 jaka_arm_left success 0.186821 0.299589 -0.412233 0.593679 0.343646 0.355903 0.634654 +0.000595 -0.002734 -0.006198 -1.029694 +1.307750 +1.042785 -1.086912 +0.720773 -1.479409 +0.746444 3.438533e-04 1.606679e-03 1
1776409342.077383 jaka_arm_left success 0.186887 0.299664 -0.412227 0.593659 0.343903 0.356003 0.634477 +0.000595 -0.002734 -0.006198 -1.029694 +1.307750 +1.042785 -1.086912 +0.720773 -1.479409 +0.746444 4.429733e-04 1.679682e-03 1
1776409342.085877 jaka_arm_left success 0.186942 0.299729 -0.412209 0.593666 0.344030 0.356157 0.634316 +0.000595 -0.002734 -0.006198 -1.029694 +1.307750 +1.042785 -1.086912 +0.720773 -1.479409 +0.746444 5.284396e-04 1.698643e-03 1
1776409342.094134 jaka_arm_left success 0.187007 0.299807 -0.412175 0.593727 0.344110 0.356332 0.634117 +0.000595 -0.002734 -0.006198 -1.029694 +1.307750 +1.042785 -1.086912 +0.720773 -1.479409 +0.746444 6.322311e-04 1.793182e-03 1
1776409342.102465 jaka_arm_left success 0.187054 0.299868 -0.412143 0.593704 0.344141 0.356531 0.634010 +0.000595 -0.002734 -0.006198 -1.029694 +1.307750 +1.042785 -1.086912 +0.720773 -1.479409 +0.746444 7.121961e-04 1.859553e-03 1
1776409342.110689 jaka_arm_left success 0.187138 0.299837 -0.412149 0.593193 0.344367 0.356587 0.634334 +0.000595 -0.002734 -0.006198 -1.029694 +1.307750 +1.042785 -1.086912 +0.720773 -1.479409 +0.746444 7.527923e-04 2.335013e-03 1
1776409342.119160 jaka_arm_left success 0.187184 0.299970 -0.412108 0.593445 0.344144 0.356678 0.634168 +0.000595 -0.002734 -0.006198 -1.029694 +1.307750 +1.042785 -1.086912 +0.720773 -1.479409 +0.746444 8.799341e-04 1.813715e-03 1
1776409342.127484 jaka_arm_left success 0.187287 0.299930 -0.412123 0.592956 0.344181 0.356838 0.634514 +0.000595 -0.002734 -0.006198 -1.029694 +1.307750 +1.042785 -1.086912 +0.720773 -1.479409 +0.746444 9.293538e-04 2.325405e-03 1
1776409342.135751 jaka_arm_left success 0.187319 0.300012 -0.412089 0.593195 0.344231 0.356524 0.634441 +0.000595 -0.002734 -0.006198 -1.030559 +1.307061 +1.042582 -1.087563 +0.720041 -1.477342 +0.743509 1.892960e-06 3.693438e-06 2
1776409342.144038 jaka_arm_left success 0.187366 0.300125 -0.412064 0.593488 0.344168 0.356290 0.634333 +0.000595 -0.002734 -0.006198 -1.030559 +1.307061 +1.042582 -1.087563 +0.720041 -1.477342 +0.743509 1.249292e-04 7.937961e-04 1
1776409342.152516 jaka_arm_left success 0.187464 0.300191 -0.412060 0.593621 0.343886 0.356284 0.634365 +0.000595 -0.002734 -0.006198 -1.030559 +1.307061 +1.042582 -1.087563 +0.720041 -1.477342 +0.743509 2.322641e-04 1.209106e-03 1
1776409342.160789 jaka_arm_left success 0.187533 0.300245 -0.412048 0.593747 0.343795 0.356596 0.634121 +0.000595 -0.002734 -0.006198 -1.030559 +1.307061 +1.042582 -1.087563 +0.720041 -1.477342 +0.743509 3.190658e-04 1.555102e-03 1
1776409342.169143 jaka_arm_left success 0.187594 0.300196 -0.412051 0.593417 0.344072 0.356445 0.634364 +0.000595 -0.002734 -0.006198 -1.030559 +1.307061 +1.042582 -1.087563 +0.720041 -1.477342 +0.743509 3.330583e-04 5.919859e-04 1
1776409342.177383 jaka_arm_left success 0.187618 0.300284 -0.412053 0.594013 0.343858 0.356482 0.633902 +0.000595 -0.002734 -0.006198 -1.030559 +1.307061 +1.042582 -1.087563 +0.720041 -1.477342 +0.743509 4.059118e-04 2.101500e-03 1
1776409342.185834 jaka_arm_left success 0.187632 0.300355 -0.412074 0.594472 0.343707 0.356521 0.633531 +0.000595 -0.002734 -0.006198 -1.030559 +1.307061 +1.042582 -1.087563 +0.720041 -1.477342 +0.743509 4.648260e-04 3.310000e-03 1
1776409342.194114 jaka_arm_left success 0.187678 0.300320 -0.412113 0.594417 0.343845 0.356679 0.633418 +0.000595 -0.002734 -0.006198 -1.030559 +1.307061 +1.042582 -1.087563 +0.720041 -1.477342 +0.743509 4.739754e-04 3.297505e-03 1
1776409342.202498 jaka_arm_left success 0.187758 0.300249 -0.412189 0.594239 0.343855 0.357005 0.633396 +0.000595 -0.002734 -0.006198 -1.030559 +1.307061 +1.042582 -1.087563 +0.720041 -1.477342 +0.743509 5.093496e-04 3.199677e-03 1
1776409342.210730 jaka_arm_left success 0.187766 0.300191 -0.412242 0.594296 0.344017 0.356799 0.633371 +0.000595 -0.002734 -0.006198 -1.030559 +1.307061 +1.042582 -1.087563 +0.720041 -1.477342 +0.743509 5.059169e-04 3.151961e-03 1
1776409342.219115 jaka_arm_left success 0.187804 0.300162 -0.412286 0.594426 0.344075 0.356809 0.633212 +0.000595 -0.002734 -0.006198 -1.030559 +1.307061 +1.042582 -1.087563 +0.720041 -1.477342 +0.743509 5.453095e-04 3.542462e-03 1
1776409342.227483 jaka_arm_left success 0.187832 0.300124 -0.412331 0.594596 0.344171 0.356694 0.633065 +0.000595 -0.002734 -0.006198 -1.030559 +1.307061 +1.042582 -1.087563 +0.720041 -1.477342 +0.743509 5.789970e-04 3.947395e-03 1
1776409342.235747 jaka_arm_left success 0.187844 0.300177 -0.412368 0.595197 0.344279 0.356663 0.632458 +0.000595 -0.002734 -0.006198 -1.030559 +1.307061 +1.042582 -1.087563 +0.720041 -1.477342 +0.743509 6.179259e-04 5.646868e-03 1
1776409342.244107 jaka_arm_left success 0.187888 0.300148 -0.412401 0.595422 0.344378 0.356525 0.632271 +0.000595 -0.002734 -0.006198 -1.030559 +1.307061 +1.042582 -1.087563 +0.720041 -1.477342 +0.743509 6.639557e-04 6.229309e-03 1
1776409342.252530 jaka_arm_left success 0.187994 0.299990 -0.412440 0.595140 0.344474 0.356316 0.632601 +0.000595 -0.002734 -0.006198 -1.030559 +1.307061 +1.042582 -1.087563 +0.720041 -1.477342 +0.743509 7.619383e-04 5.396536e-03 1
1776409342.261000 jaka_arm_left success 0.188081 0.299879 -0.412460 0.595078 0.344645 0.356198 0.632634 +0.000595 -0.002734 -0.006198 -1.030559 +1.307061 +1.042582 -1.087563 +0.720041 -1.477342 +0.743509 8.585971e-04 5.328481e-03 1
1776409342.269118 jaka_arm_left success 0.188132 0.299840 -0.412470 0.595330 0.344532 0.356160 0.632479 +0.000595 -0.002734 -0.006198 -1.030559 +1.307061 +1.042582 -1.087563 +0.720041 -1.477342 +0.743509 9.148388e-04 5.879261e-03 1
1776409342.277393 jaka_arm_left success 0.188162 0.299770 -0.412484 0.595434 0.344579 0.356152 0.632361 +0.000595 -0.002734 -0.006198 -1.030559 +1.307061 +1.042582 -1.087563 +0.720041 -1.477342 +0.743509 9.625202e-04 6.200073e-03 1
1776409342.285779 jaka_arm_left success 0.188188 0.299738 -0.412502 0.595650 0.344511 0.356193 0.632171 +0.000595 -0.002734 -0.006198 -1.028281 +1.307255 +1.042780 -1.097073 +0.724036 -1.467452 +0.740865 1.204412e-05 4.695739e-05 2
1776409342.294154 jaka_arm_left success 0.188217 0.299689 -0.412543 0.595738 0.344500 0.356164 0.632110 +0.000595 -0.002734 -0.006198 -1.028281 +1.307255 +1.042780 -1.097073 +0.724036 -1.467452 +0.740865 8.083764e-05 2.405602e-04 1
1776409342.302469 jaka_arm_left success 0.188235 0.299645 -0.412571 0.595877 0.344414 0.356024 0.632104 +0.000595 -0.002734 -0.006198 -1.028281 +1.307255 +1.042780 -1.097073 +0.724036 -1.467452 +0.740865 1.354777e-04 6.428350e-04 1
1776409342.310648 jaka_arm_left success 0.188227 0.299611 -0.412575 0.596157 0.344377 0.355856 0.631956 +0.000595 -0.002734 -0.006198 -1.028281 +1.307255 +1.042780 -1.097073 +0.724036 -1.467452 +0.740865 1.618307e-04 1.345687e-03 1
1776409342.319184 jaka_arm_left success 0.188268 0.299527 -0.412599 0.596091 0.344385 0.355850 0.632016 +0.000595 -0.002734 -0.006198 -1.028281 +1.307255 +1.042780 -1.097073 +0.724036 -1.467452 +0.740865 2.550943e-04 1.216911e-03 1
1776409342.327446 jaka_arm_left success 0.188278 0.299402 -0.412630 0.595979 0.344507 0.355632 0.632178 +0.000595 -0.002734 -0.006198 -1.028281 +1.307255 +1.042780 -1.097073 +0.724036 -1.467452 +0.740865 3.798057e-04 1.344513e-03 1
1776409342.335843 jaka_arm_left success 0.188294 0.299330 -0.412655 0.596038 0.344519 0.355515 0.632182 +0.000595 -0.002734 -0.006198 -1.028281 +1.307255 +1.042780 -1.097073 +0.724036 -1.467452 +0.740865 4.575681e-04 1.606489e-03 1
1776409342.344056 jaka_arm_left success 0.188305 0.299332 -0.412671 0.596561 0.344287 0.355463 0.631845 +0.000595 -0.002734 -0.006198 -1.028281 +1.307255 +1.042780 -1.097073 +0.724036 -1.467452 +0.740865 4.644025e-04 2.495815e-03 1
1776409342.352525 jaka_arm_left success 0.188393 0.299328 -0.412680 0.596871 0.343907 0.355538 0.631717 +0.000595 -0.002734 -0.006198 -1.028281 +1.307255 +1.042780 -1.097073 +0.724036 -1.467452 +0.740865 5.007194e-04 3.178645e-03 1
1776409342.360741 jaka_arm_left success 0.188497 0.299239 -0.412689 0.597090 0.343522 0.355131 0.631948 +0.000595 -0.002734 -0.006198 -1.028281 +1.307255 +1.042780 -1.097073 +0.724036 -1.467452 +0.740865 6.242627e-04 4.140506e-03 1
1776409342.369133 jaka_arm_left success 0.188556 0.299110 -0.412719 0.597048 0.343615 0.354775 0.632137 +0.000595 -0.002734 -0.006198 -1.028281 +1.307255 +1.042780 -1.097073 +0.724036 -1.467452 +0.740865 7.676955e-04 4.401595e-03 1
1776409342.377348 jaka_arm_left success 0.188526 0.299109 -0.412732 0.597942 0.343512 0.354493 0.631506 +0.000595 -0.002734 -0.006198 -1.028281 +1.307255 +1.042780 -1.097073 +0.724036 -1.467452 +0.740865 7.586165e-04 6.220090e-03 1
1776409342.385763 jaka_arm_left success 0.188540 0.299008 -0.412765 0.598125 0.343583 0.354499 0.631291 +0.000595 -0.002734 -0.006198 -1.028281 +1.307255 +1.042780 -1.097073 +0.724036 -1.467452 +0.740865 8.605704e-04 6.548053e-03 1
1776409342.394157 jaka_arm_left success 0.188586 0.298910 -0.412803 0.598343 0.343478 0.354661 0.631050 +0.000595 -0.002734 -0.006198 -1.028281 +1.307255 +1.042780 -1.097073 +0.724036 -1.467452 +0.740865 9.752924e-04 6.929206e-03 1
1776409342.402442 jaka_arm_left success 0.188667 0.298785 -0.412832 0.598405 0.343373 0.354845 0.630945 +0.000595 -0.002734 -0.006198 -1.026942 +1.306118 +1.044549 -1.104215 +0.728581 -1.461423 +0.739047 5.671211e-06 3.134309e-05 2
1776409342.410668 jaka_arm_left success 0.188715 0.298684 -0.412865 0.598664 0.343292 0.354852 0.630739 +0.000595 -0.002734 -0.006198 -1.026942 +1.306118 +1.044549 -1.104215 +0.728581 -1.461423 +0.739047 1.208122e-04 6.761743e-04 1
1776409342.419245 jaka_arm_left success 0.188761 0.298569 -0.412941 0.598788 0.343250 0.354695 0.630733 +0.000595 -0.002734 -0.006198 -1.026942 +1.306118 +1.044549 -1.104215 +0.728581 -1.461423 +0.739047 2.642676e-04 9.633911e-04 1
1776409342.427688 jaka_arm_left success 0.188812 0.298431 -0.413020 0.598941 0.343327 0.354547 0.630628 +0.000595 -0.002734 -0.006198 -1.026942 +1.306118 +1.044549 -1.104215 +0.728581 -1.461423 +0.739047 4.310228e-04 1.393569e-03 1
1776409342.435757 jaka_arm_left success 0.188927 0.298306 -0.413121 0.598906 0.343026 0.354222 0.631009 +0.000595 -0.002734 -0.006198 -1.026942 +1.306118 +1.044549 -1.104215 +0.728581 -1.461423 +0.739047 6.217071e-04 1.768677e-03 1
1776409342.444063 jaka_arm_left success 0.189036 0.298177 -0.413192 0.598819 0.343097 0.354210 0.631059 +0.000595 -0.002734 -0.006198 -1.026942 +1.306118 +1.044549 -1.104215 +0.728581 -1.461423 +0.739047 8.018535e-04 1.653151e-03 1
1776409342.452475 jaka_arm_left success 0.189090 0.298142 -0.413247 0.599331 0.343186 0.354260 0.630496 +0.000595 -0.002734 -0.006198 -1.026942 +1.306118 +1.044549 -1.104215 +0.728581 -1.461423 +0.739047 8.791806e-04 2.408579e-03 1
1776409342.460877 jaka_arm_left success 0.189166 0.298156 -0.413311 0.599996 0.342823 0.354429 0.629966 +0.000595 -0.002734 -0.006198 -1.026942 +1.306118 +1.044549 -1.104215 +0.728581 -1.461423 +0.739047 9.397274e-04 3.984359e-03 1
1776409342.469138 jaka_arm_left success 0.189276 0.298167 -0.413369 0.600499 0.342636 0.354533 0.629529 +0.000595 -0.002734 -0.006198 -1.026618 +1.305966 +1.045549 -1.108932 +0.732336 -1.456133 +0.739096 4.470694e-06 1.997694e-05 2
1776409342.477371 jaka_arm_left success 0.189379 0.298028 -0.413435 0.600554 0.342677 0.354173 0.629657 +0.000595 -0.002734 -0.006198 -1.026618 +1.305966 +1.045549 -1.108932 +0.732336 -1.456133 +0.739096 1.884193e-04 7.958613e-04 1
1776409342.485902 jaka_arm_left success 0.189525 0.297848 -0.413494 0.600315 0.342845 0.354196 0.629781 +0.000595 -0.002734 -0.006198 -1.026618 +1.305966 +1.045549 -1.108932 +0.732336 -1.456133 +0.739096 4.265623e-04 1.026421e-03 1
1776409342.494209 jaka_arm_left success 0.189569 0.297743 -0.413539 0.600467 0.343241 0.354042 0.629508 +0.000595 -0.002734 -0.006198 -1.026618 +1.305966 +1.045549 -1.108932 +0.732336 -1.456133 +0.739096 5.458445e-04 1.576163e-03 1
1776409342.502489 jaka_arm_left success 0.189639 0.297616 -0.413611 0.600468 0.343494 0.354061 0.629357 +0.000595 -0.002734 -0.006198 -1.026618 +1.305966 +1.045549 -1.108932 +0.732336 -1.456133 +0.739096 7.060645e-04 2.002305e-03 1
1776409342.510681 jaka_arm_left success 0.189667 0.297616 -0.413660 0.601307 0.343411 0.353693 0.628808 +0.000595 -0.002734 -0.006198 -1.026618 +1.305966 +1.045549 -1.108932 +0.732336 -1.456133 +0.739096 7.390127e-04 3.159389e-03 1
1776409342.519054 jaka_arm_left success 0.189737 0.297605 -0.413713 0.601932 0.343367 0.353688 0.628237 +0.000595 -0.002734 -0.006198 -1.026618 +1.305966 +1.045549 -1.108932 +0.732336 -1.456133 +0.739096 8.075648e-04 4.465282e-03 1
1776409342.527399 jaka_arm_left success 0.189885 0.297430 -0.413762 0.601763 0.343633 0.353559 0.628326 +0.000595 -0.002734 -0.006198 -1.024633 +1.307179 +1.046595 -1.116805 +0.735294 -1.448010 +0.735319 9.064620e-06 3.305790e-05 2
1776409342.535741 jaka_arm_left success 0.189993 0.297326 -0.413786 0.601955 0.343769 0.352973 0.628397 +0.000595 -0.002734 -0.006198 -1.024633 +1.307179 +1.046595 -1.116805 +0.735294 -1.448010 +0.735319 1.558845e-04 1.303180e-03 1
1776409342.544146 jaka_arm_left success 0.190095 0.297200 -0.413829 0.601988 0.343780 0.352662 0.628534 +0.000595 -0.002734 -0.006198 -1.024633 +1.307179 +1.046595 -1.116805 +0.735294 -1.448010 +0.735319 3.230683e-04 1.951083e-03 1
1776409342.552529 jaka_arm_left success 0.190232 0.297177 -0.413858 0.602326 0.343345 0.352496 0.628541 +0.000595 -0.002734 -0.006198 -1.024633 +1.307179 +1.046595 -1.116805 +0.735294 -1.448010 +0.735319 4.440243e-04 2.542533e-03 1
1776409342.560863 jaka_arm_left success 0.190332 0.297104 -0.413898 0.602494 0.343150 0.352307 0.628592 +0.000595 -0.002734 -0.006198 -1.024633 +1.307179 +1.046595 -1.116805 +0.735294 -1.448010 +0.735319 5.738475e-04 3.132864e-03 1
1776409342.569212 jaka_arm_left success 0.190411 0.297021 -0.413933 0.602690 0.343032 0.351927 0.628681 +0.000595 -0.002734 -0.006198 -1.024633 +1.307179 +1.046595 -1.116805 +0.735294 -1.448010 +0.735319 6.921764e-04 4.035842e-03 1
1776409342.577380 jaka_arm_left success 0.190548 0.296844 -0.413996 0.602409 0.342984 0.351808 0.629044 +0.000595 -0.002734 -0.006198 -1.024633 +1.307179 +1.046595 -1.116805 +0.735294 -1.448010 +0.735319 9.197712e-04 4.235664e-03 1
1776409342.585919 jaka_arm_left success 0.190667 0.296734 -0.414038 0.602511 0.342601 0.351584 0.629281 +0.000595 -0.002734 -0.006198 -1.027645 +1.304584 +1.049657 -1.115305 +0.737256 -1.448517 +0.733142 4.735139e-06 1.508930e-05 2
1776409342.594107 jaka_arm_left success 0.190724 0.296633 -0.414055 0.602732 0.342469 0.351375 0.629258 +0.000595 -0.002734 -0.006198 -1.027645 +1.304584 +1.049657 -1.115305 +0.737256 -1.448517 +0.733142 1.218442e-04 6.592313e-04 1
1776409342.602418 jaka_arm_left success 0.190771 0.296506 -0.414066 0.602810 0.342564 0.351295 0.629176 +0.000595 -0.002734 -0.006198 -1.027645 +1.304584 +1.049657 -1.115305 +0.737256 -1.448517 +0.733142 2.568582e-04 8.524452e-04 1
1776409342.610670 jaka_arm_left success 0.190787 0.296435 -0.414079 0.603176 0.342588 0.351158 0.628888 +0.000595 -0.002734 -0.006198 -1.027645 +1.304584 +1.049657 -1.115305 +0.737256 -1.448517 +0.733142 3.294982e-04 1.752658e-03 1
1776409342.619096 jaka_arm_left success 0.190758 0.296358 -0.414090 0.603692 0.342705 0.351311 0.628244 +0.000595 -0.002734 -0.006198 -1.027645 +1.304584 +1.049657 -1.115305 +0.737256 -1.448517 +0.733142 3.950538e-04 3.182712e-03 1
1776409342.627474 jaka_arm_left success 0.190767 0.296284 -0.414088 0.604181 0.342602 0.351276 0.627849 +0.000595 -0.002734 -0.006198 -1.027645 +1.304584 +1.049657 -1.115305 +0.737256 -1.448517 +0.733142 4.683977e-04 4.428275e-03 1
1776409342.635724 jaka_arm_left success 0.190798 0.296151 -0.414107 0.604319 0.342605 0.351490 0.627595 +0.000595 -0.002734 -0.006198 -1.027645 +1.304584 +1.049657 -1.115305 +0.737256 -1.448517 +0.733142 6.062244e-04 4.933114e-03 1
1776409342.644093 jaka_arm_left success 0.190872 0.295941 -0.414114 0.604255 0.342576 0.351373 0.627737 +0.000595 -0.002734 -0.006198 -1.027645 +1.304584 +1.049657 -1.115305 +0.737256 -1.448517 +0.733142 8.273166e-04 4.663312e-03 1
1776409342.652490 jaka_arm_left success 0.190957 0.295695 -0.414139 0.603791 0.342836 0.351349 0.628056 +0.000595 -0.002734 -0.006198 -1.024971 +1.306758 +1.050197 -1.123938 +0.740121 -1.441398 +0.731430 9.827226e-06 2.761111e-05 2
1776409342.660851 jaka_arm_left success 0.191078 0.295607 -0.414142 0.604142 0.342343 0.351537 0.627882 +0.000595 -0.002734 -0.006198 -1.024971 +1.306758 +1.050197 -1.123938 +0.740121 -1.441398 +0.731430 1.523970e-04 1.308969e-03 1
1776409342.669096 jaka_arm_left success 0.191105 0.295605 -0.414135 0.604820 0.341937 0.351380 0.627538 +0.000595 -0.002734 -0.006198 -1.024971 +1.306758 +1.050197 -1.123938 +0.740121 -1.441398 +0.731430 1.752940e-04 2.925462e-03 1
1776409342.677346 jaka_arm_left success 0.191179 0.295481 -0.414161 0.604985 0.341740 0.351338 0.627510 +0.000595 -0.002734 -0.006198 -1.024971 +1.306758 +1.050197 -1.123938 +0.740121 -1.441398 +0.731430 3.126494e-04 3.423637e-03 1
1776409342.685807 jaka_arm_left success 0.191236 0.295342 -0.414174 0.605192 0.341623 0.351303 0.627394 +0.000595 -0.002734 -0.006198 -1.024971 +1.306758 +1.050197 -1.123938 +0.740121 -1.441398 +0.731430 4.552443e-04 3.940274e-03 1
1776409342.694244 jaka_arm_left success 0.191247 0.295161 -0.414197 0.605270 0.341622 0.351183 0.627385 +0.000595 -0.002734 -0.006198 -1.024971 +1.306758 +1.050197 -1.123938 +0.740121 -1.441398 +0.731430 6.149339e-04 4.074107e-03 1
1776409342.702412 jaka_arm_left success 0.191279 0.295047 -0.414206 0.605704 0.341481 0.351100 0.627090 +0.000595 -0.002734 -0.006198 -1.024971 +1.306758 +1.050197 -1.123938 +0.740121 -1.441398 +0.731430 7.312441e-04 5.100927e-03 1
1776409342.710665 jaka_arm_left success 0.191283 0.294886 -0.414224 0.606016 0.341521 0.350518 0.627092 +0.000595 -0.002734 -0.006198 -1.024971 +1.306758 +1.050197 -1.123938 +0.740121 -1.441398 +0.731430 8.810900e-04 5.772797e-03 1
1776409342.719152 jaka_arm_left success 0.191316 0.294845 -0.414216 0.606862 0.340962 0.350562 0.626553 +0.000595 -0.002734 -0.006198 -1.024971 +1.306758 +1.050197 -1.123938 +0.740121 -1.441398 +0.731430 9.305052e-04 7.963529e-03 1
1776409342.727613 jaka_arm_left success 0.191317 0.294806 -0.414226 0.607470 0.340734 0.350683 0.626020 +0.000595 -0.002734 -0.006198 -1.024971 +1.306758 +1.050197 -1.123938 +0.740121 -1.441398 +0.731430 9.677462e-04 9.502332e-03 1
1776409342.735760 jaka_arm_left success 0.191337 0.294616 -0.414242 0.607437 0.341046 0.351071 0.625665 +0.000595 -0.002735 -0.006198 -1.023229 +1.307988 +1.047530 -1.133938 +0.749311 -1.435215 +0.729693 2.079360e-04 6.483273e-05 2
1776409342.744004 jaka_arm_left success 0.191372 0.294512 -0.414252 0.607768 0.340958 0.351100 0.625376 +0.000595 -0.002735 -0.006198 -1.023229 +1.307988 +1.047530 -1.133938 +0.749311 -1.435215 +0.729693 2.757059e-04 8.976659e-04 1
1776409342.752579 jaka_arm_left success 0.191377 0.294344 -0.414277 0.607682 0.341286 0.351668 0.624961 +0.000595 -0.002735 -0.006198 -1.023229 +1.307988 +1.047530 -1.133938 +0.749311 -1.435215 +0.729693 4.108667e-04 1.941484e-03 1
1776409342.760761 jaka_arm_left success 0.191392 0.294174 -0.414281 0.607735 0.341440 0.351716 0.624798 +0.000595 -0.002735 -0.006198 -1.023229 +1.307988 +1.047530 -1.133938 +0.749311 -1.435215 +0.729693 5.729459e-04 2.354267e-03 1
1776409342.769037 jaka_arm_left success 0.191386 0.294048 -0.414292 0.607736 0.341653 0.352077 0.624478 +0.000595 -0.002735 -0.006198 -1.023229 +1.307988 +1.047530 -1.133938 +0.749311 -1.435215 +0.729693 6.923202e-04 3.368125e-03 1
1776409342.777313 jaka_arm_left success 0.191369 0.294016 -0.414278 0.608263 0.341627 0.352135 0.623946 +0.000595 -0.002735 -0.006198 -1.023229 +1.307988 +1.047530 -1.133938 +0.749311 -1.435215 +0.729693 7.247934e-04 4.500707e-03 1
1776409342.785838 jaka_arm_left success 0.191341 0.294007 -0.414264 0.608683 0.341558 0.352106 0.623590 +0.000595 -0.002735 -0.006198 -1.023229 +1.307988 +1.047530 -1.133938 +0.749311 -1.435215 +0.729693 7.349396e-04 5.348674e-03 1
1776409342.794190 jaka_arm_left success 0.191356 0.293977 -0.414245 0.609020 0.341276 0.352074 0.623434 +0.000595 -0.002735 -0.006198 -1.023229 +1.307988 +1.047530 -1.133938 +0.749311 -1.435215 +0.729693 7.689541e-04 5.831137e-03 1
1776409342.802420 jaka_arm_left success 0.191365 0.293910 -0.414235 0.609101 0.341125 0.351633 0.623686 +0.000595 -0.002735 -0.006198 -1.023229 +1.307988 +1.047530 -1.133938 +0.749311 -1.435215 +0.729693 8.368935e-04 5.287506e-03 1
1776409342.810670 jaka_arm_left success 0.191334 0.293781 -0.414239 0.608824 0.341309 0.351410 0.623982 +0.000595 -0.002735 -0.006198 -1.023229 +1.307988 +1.047530 -1.133938 +0.749311 -1.435215 +0.729693 9.611915e-04 4.444347e-03 1
1776409342.819168 jaka_arm_left success 0.191297 0.293726 -0.414222 0.608790 0.341353 0.351243 0.624085 +0.000596 -0.002735 -0.006198 -1.019883 +1.311809 +1.044789 -1.143938 +0.754538 -1.429002 +0.726865 1.452734e-04 4.185497e-05 2
1776409342.827463 jaka_arm_left success 0.191262 0.293681 -0.414208 0.608730 0.341307 0.351185 0.624201 +0.000596 -0.002735 -0.006198 -1.019883 +1.311809 +1.044789 -1.143938 +0.754538 -1.429002 +0.726865 1.843420e-04 3.092200e-04 1
1776409342.835794 jaka_arm_left success 0.191231 0.293653 -0.414174 0.608701 0.341130 0.351308 0.624256 +0.000596 -0.002735 -0.006198 -1.019883 +1.311809 +1.044789 -1.143938 +0.754538 -1.429002 +0.726865 2.329402e-04 5.831597e-04 1
1776409342.844113 jaka_arm_left success 0.191192 0.293619 -0.414159 0.608539 0.341133 0.351329 0.624400 +0.000596 -0.002735 -0.006198 -1.019883 +1.311809 +1.044789 -1.143938 +0.754538 -1.429002 +0.726865 2.766687e-04 9.153225e-04 1
1776409342.852473 jaka_arm_left success 0.191135 0.293580 -0.414122 0.608468 0.341191 0.351228 0.624495 +0.000596 -0.002735 -0.006198 -1.019883 +1.311809 +1.044789 -1.143938 +0.754538 -1.429002 +0.726865 3.479783e-04 1.083682e-03 1
1776409342.860811 jaka_arm_left success 0.191106 0.293552 -0.414100 0.608365 0.341138 0.351091 0.624702 +0.000596 -0.002735 -0.006198 -1.019883 +1.311809 +1.044789 -1.143938 +0.754538 -1.429002 +0.726865 3.924945e-04 1.586655e-03 1
1776409342.869112 jaka_arm_left success 0.191088 0.293542 -0.414082 0.608398 0.340935 0.350738 0.624979 +0.000596 -0.002735 -0.006198 -1.019883 +1.311809 +1.044789 -1.143938 +0.754538 -1.429002 +0.726865 4.182793e-04 2.359934e-03 1
1776409342.877410 jaka_arm_left success 0.191055 0.293530 -0.414058 0.608432 0.340820 0.350444 0.625173 +0.000596 -0.002735 -0.006198 -1.019883 +1.311809 +1.044789 -1.143938 +0.754538 -1.429002 +0.726865 4.565474e-04 3.002675e-03 1
1776409342.885807 jaka_arm_left success 0.191033 0.293495 -0.414042 0.608412 0.340778 0.350164 0.625372 +0.000596 -0.002735 -0.006198 -1.019883 +1.311809 +1.044789 -1.143938 +0.754538 -1.429002 +0.726865 4.987450e-04 3.646146e-03 1
1776409342.894191 jaka_arm_left success 0.191004 0.293522 -0.414022 0.608588 0.340682 0.350103 0.625287 +0.000596 -0.002735 -0.006198 -1.019883 +1.311809 +1.044789 -1.143938 +0.754538 -1.429002 +0.726865 5.104112e-04 3.615392e-03 1
1776409342.902425 jaka_arm_left success 0.190990 0.293499 -0.414009 0.608631 0.340618 0.350028 0.625323 +0.000596 -0.002735 -0.006198 -1.019883 +1.311809 +1.044789 -1.143938 +0.754538 -1.429002 +0.726865 5.390318e-04 3.799529e-03 1
1776409342.910720 jaka_arm_left success 0.190946 0.293504 -0.413987 0.608934 0.340410 0.349896 0.625214 +0.000596 -0.002735 -0.006198 -1.019883 +1.311809 +1.044789 -1.143938 +0.754538 -1.429002 +0.726865 5.747873e-04 4.019495e-03 1
1776409342.919167 jaka_arm_left success 0.190916 0.293470 -0.413967 0.608969 0.340405 0.349835 0.625217 +0.000596 -0.002735 -0.006198 -1.019883 +1.311809 +1.044789 -1.143938 +0.754538 -1.429002 +0.726865 6.226567e-04 4.116944e-03 1
1776409342.927456 jaka_arm_left success 0.190881 0.293443 -0.413947 0.609006 0.340410 0.349919 0.625132 +0.000596 -0.002735 -0.006198 -1.019883 +1.311809 +1.044789 -1.143938 +0.754538 -1.429002 +0.726865 6.699347e-04 3.911535e-03 1
1776409342.935819 jaka_arm_left success 0.190848 0.293408 -0.413927 0.608952 0.340462 0.349984 0.625119 +0.000596 -0.002735 -0.006198 -1.019883 +1.311809 +1.044789 -1.143938 +0.754538 -1.429002 +0.726865 7.205346e-04 3.748056e-03 1
1776409342.944020 jaka_arm_left success 0.190792 0.293418 -0.413887 0.609110 0.340439 0.349985 0.624978 +0.000596 -0.002735 -0.006198 -1.019883 +1.311809 +1.044789 -1.143938 +0.754538 -1.429002 +0.726865 7.733228e-04 3.664280e-03 1
1776409342.952573 jaka_arm_left success 0.190784 0.293304 -0.413876 0.608698 0.340562 0.350019 0.625293 +0.000596 -0.002735 -0.006198 -1.019883 +1.311809 +1.044789 -1.143938 +0.754538 -1.429002 +0.726865 8.468820e-04 3.808718e-03 1
1776409342.960815 jaka_arm_left success 0.190746 0.293245 -0.413848 0.608553 0.340638 0.349809 0.625510 +0.000596 -0.002735 -0.006198 -1.019883 +1.311809 +1.044789 -1.143938 +0.754538 -1.429002 +0.726865 9.197922e-04 4.334466e-03 1
1776409342.969062 jaka_arm_left success 0.190739 0.293229 -0.413830 0.608502 0.340609 0.349682 0.625647 +0.000596 -0.002735 -0.006198 -1.019883 +1.311809 +1.044789 -1.143938 +0.754538 -1.429002 +0.726865 9.433406e-04 4.715700e-03 1
1776409342.977348 jaka_arm_left success 0.190775 0.293173 -0.413837 0.608178 0.340629 0.349590 0.626002 +0.000596 -0.002735 -0.006198 -1.019883 +1.311809 +1.044789 -1.143938 +0.754538 -1.429002 +0.726865 9.552595e-04 5.423205e-03 1
1776409342.985816 jaka_arm_left success 0.190787 0.293194 -0.413816 0.608273 0.340495 0.349212 0.626194 +0.000596 -0.002735 -0.006198 -1.019883 +1.311809 +1.044789 -1.143938 +0.754538 -1.429002 +0.726865 9.466351e-04 6.208569e-03 1
1776409342.994230 jaka_arm_left success 0.190819 0.293200 -0.413794 0.608291 0.340439 0.348725 0.626478 +0.000596 -0.002735 -0.006198 -1.019883 +1.311809 +1.044789 -1.143938 +0.754538 -1.429002 +0.726865 9.390647e-04 7.274450e-03 1
1776409343.002416 jaka_arm_left success 0.190841 0.293179 -0.413788 0.608213 0.340496 0.348406 0.626700 +0.000596 -0.002735 -0.006198 -1.019883 +1.311809 +1.044789 -1.143938 +0.754538 -1.429002 +0.726865 9.457268e-04 8.011125e-03 1
1776409343.019270 jaka_arm_left success 0.190933 0.293058 -0.413808 0.607547 0.340910 0.347561 0.627590 +0.000596 -0.002735 -0.006198 -1.019883 +1.311809 +1.044789 -1.143938 +0.754538 -1.429002 +0.726865 9.827805e-04 1.052706e-02 1
1776409343.027541 jaka_arm_left success 0.190949 0.293044 -0.413794 0.607584 0.340956 0.347255 0.627698 +0.000596 -0.002735 -0.006198 -1.019883 +1.311809 +1.044789 -1.143938 +0.754538 -1.429002 +0.726865 9.956005e-04 1.108223e-02 1
1776409343.035814 jaka_arm_left success 0.190976 0.293026 -0.413789 0.607566 0.340912 0.347209 0.627765 +0.000596 -0.002735 -0.006198 -1.022151 +1.307724 +1.048739 -1.139001 +0.752740 -1.436017 +0.720797 8.782454e-06 3.553120e-05 2
1776409343.044139 jaka_arm_left success 0.190984 0.293018 -0.413777 0.607645 0.340888 0.347252 0.627678 +0.000596 -0.002735 -0.006198 -1.022151 +1.307724 +1.048739 -1.139001 +0.752740 -1.436017 +0.720797 2.395172e-05 2.331212e-04 1
1776409343.052519 jaka_arm_left success 0.190992 0.292957 -0.413771 0.607473 0.340979 0.347373 0.627727 +0.000596 -0.002735 -0.006198 -1.022151 +1.307724 +1.048739 -1.139001 +0.752740 -1.436017 +0.720797 8.126601e-05 4.197272e-04 1
1776409343.060822 jaka_arm_left success 0.190981 0.292923 -0.413760 0.607492 0.341026 0.347597 0.627560 +0.000596 -0.002735 -0.006198 -1.022151 +1.307724 +1.048739 -1.139001 +0.752740 -1.436017 +0.720797 1.146247e-04 9.194579e-04 1
1776409343.069125 jaka_arm_left success 0.190936 0.292979 -0.413709 0.608158 0.340984 0.347805 0.626821 +0.000596 -0.002735 -0.006198 -1.022151 +1.307724 +1.048739 -1.139001 +0.752740 -1.436017 +0.720797 1.037204e-04 2.508876e-03 1
1776409343.077374 jaka_arm_left success 0.190929 0.292966 -0.413681 0.608315 0.341008 0.347768 0.626677 +0.000596 -0.002735 -0.006198 -1.022151 +1.307724 +1.048739 -1.139001 +0.752740 -1.436017 +0.720797 1.349379e-04 2.850000e-03 1
1776409343.085817 jaka_arm_left success 0.190900 0.292836 -0.413656 0.607794 0.341497 0.347547 0.627039 +0.000596 -0.002735 -0.006198 -1.022151 +1.307724 +1.048739 -1.139001 +0.752740 -1.436017 +0.720797 2.488357e-04 2.011290e-03 1
1776409343.094262 jaka_arm_left success 0.190968 0.292688 -0.413662 0.607030 0.341532 0.346961 0.628083 +0.000596 -0.002735 -0.006198 -1.022151 +1.307724 +1.048739 -1.139001 +0.752740 -1.436017 +0.720797 3.681822e-04 1.837134e-03 1
1776409343.102515 jaka_arm_left success 0.190958 0.292692 -0.413623 0.607105 0.341426 0.346450 0.628350 +0.000596 -0.002735 -0.006198 -1.022151 +1.307724 +1.048739 -1.139001 +0.752740 -1.436017 +0.720797 3.801320e-04 2.370140e-03 1
1776409343.110701 jaka_arm_left success 0.191007 0.292715 -0.413570 0.607380 0.340650 0.346088 0.628705 +0.000596 -0.002735 -0.006198 -1.022151 +1.307724 +1.048739 -1.139001 +0.752740 -1.436017 +0.720797 3.885975e-04 3.006506e-03 1
1776409343.119078 jaka_arm_left success 0.191029 0.292707 -0.413554 0.607229 0.340225 0.345582 0.629359 +0.000596 -0.002735 -0.006198 -1.022151 +1.307724 +1.048739 -1.139001 +0.752740 -1.436017 +0.720797 4.068603e-04 4.819648e-03 1
1776409343.127549 jaka_arm_left success 0.191002 0.292711 -0.413509 0.607160 0.340106 0.345288 0.629651 +0.000596 -0.002735 -0.006198 -1.022151 +1.307724 +1.048739 -1.139001 +0.752740 -1.436017 +0.720797 4.287536e-04 5.692702e-03 1
1776409343.135765 jaka_arm_left success 0.190994 0.292615 -0.413471 0.606725 0.339971 0.344858 0.630379 +0.000596 -0.002735 -0.006198 -1.022151 +1.307724 +1.048739 -1.139001 +0.752740 -1.436017 +0.720797 5.265725e-04 7.487558e-03 1
1776409343.144079 jaka_arm_left success 0.190982 0.292541 -0.413433 0.606241 0.339952 0.344587 0.631002 +0.000596 -0.002735 -0.006198 -1.022151 +1.307724 +1.048739 -1.139001 +0.752740 -1.436017 +0.720797 6.082232e-04 8.970010e-03 1
1776409343.152461 jaka_arm_left success 0.190964 0.292494 -0.413383 0.605956 0.339799 0.344355 0.631485 +0.000596 -0.002735 -0.006198 -1.022151 +1.307724 +1.048739 -1.139001 +0.752740 -1.436017 +0.720797 6.756916e-04 1.018156e-02 1
1776409343.160827 jaka_arm_left success 0.190954 0.292481 -0.413328 0.605818 0.339610 0.344208 0.631800 +0.000596 -0.002735 -0.006198 -1.022151 +1.307724 +1.048739 -1.139001 +0.752740 -1.436017 +0.720797 7.202860e-04 1.098183e-02 1
1776409343.169084 jaka_arm_left success 0.190967 0.292438 -0.413245 0.605509 0.339457 0.344448 0.632047 +0.000596 -0.002735 -0.006198 -1.022151 +1.307724 +1.048739 -1.139001 +0.752740 -1.436017 +0.720797 8.071546e-04 1.139053e-02 1
1776409343.177374 jaka_arm_left success 0.190910 0.292490 -0.413172 0.605664 0.339244 0.344273 0.632108 +0.000596 -0.002735 -0.006198 -1.022151 +1.307724 +1.048739 -1.139001 +0.752740 -1.436017 +0.720797 8.252013e-04 1.166348e-02 1
1776409343.185868 jaka_arm_left success 0.190827 0.292505 -0.413116 0.605706 0.339193 0.343964 0.632263 +0.000596 -0.002735 -0.006198 -1.022151 +1.307724 +1.048739 -1.139001 +0.752740 -1.436017 +0.720797 8.684975e-04 1.221539e-02 1
1776409343.194162 jaka_arm_left success 0.190788 0.292448 -0.413045 0.605451 0.339033 0.343533 0.632827 +0.000596 -0.002735 -0.006198 -1.022151 +1.307724 +1.048739 -1.139001 +0.752740 -1.436017 +0.720797 9.650319e-04 1.375262e-02 1
1776409343.202452 jaka_arm_left success 0.190733 0.292278 -0.412979 0.604774 0.339152 0.343131 0.633629 +0.000595 -0.002734 -0.006198 -1.026320 +1.300604 +1.058739 -1.129673 +0.743727 -1.446017 +0.718148 6.489328e-04 4.051916e-04 2
1776409343.210686 jaka_arm_left success 0.190666 0.292321 -0.412885 0.605127 0.338929 0.342996 0.633484 +0.000595 -0.002734 -0.006198 -1.026320 +1.300604 +1.058739 -1.129673 +0.743727 -1.446017 +0.718148 6.322192e-04 9.172575e-04 1
1776409343.219167 jaka_arm_left success 0.190637 0.292313 -0.412795 0.605234 0.338714 0.342677 0.633669 +0.000595 -0.002734 -0.006198 -1.026320 +1.300604 +1.058739 -1.129673 +0.743727 -1.446017 +0.718148 5.900149e-04 1.674818e-03 1
1776409343.227525 jaka_arm_left success 0.190580 0.292228 -0.412704 0.605040 0.338851 0.342519 0.633867 +0.000595 -0.002734 -0.006198 -1.026320 +1.300604 +1.058739 -1.129673 +0.743727 -1.446017 +0.718148 5.483284e-04 1.724139e-03 1
1776409343.235783 jaka_arm_left success 0.190563 0.292051 -0.412628 0.604522 0.338545 0.341990 0.634809 +0.000595 -0.002734 -0.006198 -1.026320 +1.300604 +1.058739 -1.129673 +0.743727 -1.446017 +0.718148 4.932325e-04 3.855518e-03 1
1776409343.244075 jaka_arm_left success 0.190497 0.292008 -0.412514 0.604587 0.338530 0.341987 0.634757 +0.000595 -0.002734 -0.006198 -1.026320 +1.300604 +1.058739 -1.129673 +0.743727 -1.446017 +0.718148 5.315808e-04 3.779405e-03 1
1776409343.252427 jaka_arm_left success 0.190499 0.292016 -0.412383 0.604943 0.337746 0.342194 0.634724 +0.000595 -0.002734 -0.006198 -1.026320 +1.300604 +1.058739 -1.129673 +0.743727 -1.446017 +0.718148 5.320403e-04 4.363617e-03 1
1776409343.260776 jaka_arm_left success 0.190455 0.291968 -0.412281 0.605014 0.337481 0.342282 0.634750 +0.000595 -0.002734 -0.006198 -1.026320 +1.300604 +1.058739 -1.129673 +0.743727 -1.446017 +0.718148 6.001676e-04 4.716205e-03 1
1776409343.269117 jaka_arm_left success 0.190401 0.291850 -0.412199 0.604882 0.337197 0.342158 0.635094 +0.000595 -0.002734 -0.006198 -1.026320 +1.300604 +1.058739 -1.129673 +0.743727 -1.446017 +0.718148 6.981983e-04 5.603419e-03 1
1776409343.277353 jaka_arm_left success 0.190415 0.291621 -0.412123 0.604271 0.336969 0.342016 0.635873 +0.000595 -0.002734 -0.006198 -1.026320 +1.300604 +1.058739 -1.129673 +0.743727 -1.446017 +0.718148 8.043673e-04 7.099455e-03 1
1776409343.285768 jaka_arm_left success 0.190380 0.291484 -0.412035 0.604199 0.336698 0.341747 0.636228 +0.000595 -0.002734 -0.006198 -1.026320 +1.300604 +1.058739 -1.129673 +0.743727 -1.446017 +0.718148 9.416374e-04 8.126417e-03 1
1776409343.294146 jaka_arm_left success 0.190378 0.291299 -0.411959 0.603893 0.336412 0.341529 0.636788 +0.000595 -0.002734 -0.006198 -1.029376 +1.295263 +1.065889 -1.119673 +0.737444 -1.456017 +0.723108 2.623125e-05 7.100475e-05 2
1776409343.302460 jaka_arm_left success 0.190400 0.291265 -0.411830 0.604560 0.335277 0.341604 0.636713 +0.000595 -0.002734 -0.006198 -1.029376 +1.295263 +1.065889 -1.119673 +0.737444 -1.456017 +0.723108 1.320154e-04 2.660348e-03 1
1776409343.310687 jaka_arm_left success 0.190361 0.291222 -0.411719 0.604887 0.334842 0.341677 0.636592 +0.000595 -0.002734 -0.006198 -1.029376 +1.295263 +1.065889 -1.119673 +0.737444 -1.456017 +0.723108 2.482734e-04 3.763456e-03 1
1776409343.319128 jaka_arm_left success 0.190222 0.290915 -0.411633 0.604288 0.335412 0.341660 0.636870 +0.000595 -0.002734 -0.006198 -1.029376 +1.295263 +1.065889 -1.119673 +0.737444 -1.456017 +0.723108 5.347160e-04 2.196709e-03 1
1776409343.327430 jaka_arm_left success 0.190143 0.290810 -0.411515 0.604438 0.335312 0.341954 0.636622 +0.000595 -0.002734 -0.006198 -1.029376 +1.295263 +1.065889 -1.119673 +0.737444 -1.456017 +0.723108 7.072299e-04 2.622379e-03 1
1776409343.335756 jaka_arm_left success 0.190081 0.290692 -0.411412 0.604454 0.335126 0.341855 0.636758 +0.000595 -0.002734 -0.006198 -1.029376 +1.295263 +1.065889 -1.119673 +0.737444 -1.456017 +0.723108 8.755229e-04 2.895353e-03 1
1776409343.344021 jaka_arm_left success 0.190138 0.290448 -0.411302 0.604105 0.334252 0.341762 0.637598 +0.000595 -0.002734 -0.006198 -1.029751 +1.295312 +1.066546 -1.120112 +0.737761 -1.459059 +0.725475 1.373094e-06 4.661601e-06 2
1776409343.352516 jaka_arm_left success 0.190110 0.290346 -0.411198 0.604066 0.333809 0.341501 0.638007 +0.000595 -0.002734 -0.006198 -1.029751 +1.295312 +1.066546 -1.120112 +0.737761 -1.459059 +0.725475 1.486275e-04 1.316716e-03 1
1776409343.360830 jaka_arm_left success 0.190075 0.290207 -0.411095 0.603919 0.333429 0.341016 0.638604 +0.000595 -0.002734 -0.006198 -1.029751 +1.295312 +1.066546 -1.120112 +0.737761 -1.459059 +0.725475 3.242751e-04 3.020540e-03 1
1776409343.369107 jaka_arm_left success 0.190063 0.289958 -0.411007 0.603354 0.333190 0.340217 0.639688 +0.000595 -0.002734 -0.006198 -1.029751 +1.295312 +1.066546 -1.120112 +0.737761 -1.459059 +0.725475 5.774077e-04 5.812466e-03 1
1776409343.377384 jaka_arm_left success 0.189968 0.289701 -0.410943 0.602942 0.333188 0.339330 0.640548 +0.000595 -0.002734 -0.006198 -1.029751 +1.295312 +1.066546 -1.120112 +0.737761 -1.459059 +0.725475 8.467440e-04 8.270609e-03 1
1776409343.385800 jaka_arm_left success 0.189896 0.289658 -0.410837 0.603385 0.332402 0.339036 0.640695 +0.000595 -0.002734 -0.006198 -1.029751 +1.295312 +1.066546 -1.120112 +0.737761 -1.459059 +0.725475 9.487269e-04 9.157503e-03 1
1776409343.394087 jaka_arm_left success 0.189848 0.289582 -0.410710 0.603783 0.331745 0.338846 0.640761 +0.000595 -0.002734 -0.006198 -1.033341 +1.290925 +1.070226 -1.113829 +0.737180 -1.468033 +0.723950 1.280796e-05 2.324231e-05 2
1776409343.402548 jaka_arm_left success 0.189770 0.289396 -0.410563 0.603952 0.331483 0.338493 0.640924 +0.000595 -0.002734 -0.006198 -1.033341 +1.290925 +1.070226 -1.113829 +0.737180 -1.468033 +0.723950 2.552435e-04 1.005145e-03 1
1776409343.410656 jaka_arm_left success 0.189720 0.289249 -0.410427 0.604050 0.331154 0.338417 0.641042 +0.000595 -0.002734 -0.006198 -1.033341 +1.290925 +1.070226 -1.113829 +0.737180 -1.468033 +0.723950 4.608601e-04 1.664848e-03 1
1776409343.419307 jaka_arm_left success 0.189682 0.289001 -0.410287 0.603942 0.330923 0.338055 0.641453 +0.000595 -0.002734 -0.006198 -1.033341 +1.290925 +1.070226 -1.113829 +0.737180 -1.468033 +0.723950 7.440773e-04 2.702127e-03 1
1776409343.427521 jaka_arm_left success 0.189707 0.288602 -0.410132 0.603561 0.330025 0.337078 0.642788 +0.000595 -0.002734 -0.006198 -1.035052 +1.289136 +1.072727 -1.112093 +0.737137 -1.472611 +0.722774 3.222700e-06 7.296765e-06 2
1776409343.435820 jaka_arm_left success 0.189625 0.288611 -0.409988 0.604549 0.329141 0.337302 0.642195 +0.000595 -0.002734 -0.006198 -1.035052 +1.289136 +1.072727 -1.112093 +0.737137 -1.472611 +0.722774 1.659826e-04 2.937027e-03 1
1776409343.444062 jaka_arm_left success 0.189497 0.288415 -0.409796 0.604923 0.328887 0.336941 0.642162 +0.000595 -0.002734 -0.006198 -1.035052 +1.289136 +1.072727 -1.112093 +0.737137 -1.472611 +0.722774 4.393647e-04 3.771355e-03 1
1776409343.452567 jaka_arm_left success 0.189533 0.288322 -0.409602 0.605844 0.327353 0.337193 0.641945 +0.000595 -0.002734 -0.006198 -1.035052 +1.289136 +1.072727 -1.112093 +0.737137 -1.472611 +0.722774 6.258156e-04 7.230933e-03 1
1776409343.460777 jaka_arm_left success 0.189436 0.288074 -0.409453 0.605925 0.326824 0.337169 0.642150 +0.000595 -0.002734 -0.006198 -1.035052 +1.289136 +1.072727 -1.112093 +0.737137 -1.472611 +0.722774 9.037090e-04 8.061847e-03 1
1776409343.469213 jaka_arm_left success 0.189380 0.288008 -0.409270 0.606808 0.325210 0.337217 0.642112 +0.000595 -0.002734 -0.006198 -1.034098 +1.285626 +1.073048 -1.116647 +0.740542 -1.474029 +0.726304 3.365244e-06 1.144191e-05 2
1776409343.477476 jaka_arm_left success 0.189295 0.287471 -0.409121 0.605576 0.325518 0.337242 0.643105 +0.000595 -0.002734 -0.006198 -1.034098 +1.285626 +1.073048 -1.116647 +0.740542 -1.474029 +0.726304 5.650593e-04 3.216284e-03 1
1776409343.485830 jaka_arm_left success 0.189231 0.287244 -0.408950 0.605706 0.324773 0.337597 0.643173 +0.000595 -0.002734 -0.006198 -1.034098 +1.285626 +1.073048 -1.116647 +0.740542 -1.474029 +0.726304 8.430959e-04 3.262810e-03 1
1776409343.494224 jaka_arm_left success 0.189084 0.286971 -0.408805 0.605707 0.324265 0.337286 0.643591 +0.000595 -0.002734 -0.006198 -1.034929 +1.287248 +1.073992 -1.115266 +0.739636 -1.477722 +0.728066 1.634712e-06 7.059049e-06 2
1776409343.502455 jaka_arm_left success 0.189048 0.286587 -0.408649 0.605010 0.323493 0.337326 0.644613 +0.000595 -0.002734 -0.006198 -1.034929 +1.287248 +1.073992 -1.115266 +0.739636 -1.477722 +0.728066 4.166862e-04 2.915851e-03 1
1776409343.510677 jaka_arm_left success 0.188839 0.286546 -0.408424 0.606097 0.322773 0.337651 0.643783 +0.000595 -0.002734 -0.006198 -1.034929 +1.287248 +1.073992 -1.115266 +0.739636 -1.477722 +0.728066 6.216236e-04 3.191622e-03 1
1776409343.519172 jaka_arm_left success 0.188802 0.286395 -0.408214 0.606459 0.321952 0.337699 0.643828 +0.000595 -0.002734 -0.006198 -1.034929 +1.287248 +1.073992 -1.115266 +0.739636 -1.477722 +0.728066 8.724512e-04 4.956233e-03 1
1776409343.527467 jaka_arm_left success 0.188725 0.286301 -0.408052 0.606806 0.321020 0.337575 0.644031 +0.000595 -0.002734 -0.006198 -1.035122 +1.285875 +1.074430 -1.116130 +0.740703 -1.481205 +0.731330 1.352114e-06 6.594904e-06 2
1776409343.535913 jaka_arm_left success 0.188740 0.286081 -0.407877 0.606680 0.320084 0.337030 0.644900 +0.000595 -0.002734 -0.006198 -1.035122 +1.285875 +1.074430 -1.116130 +0.740703 -1.481205 +0.731330 2.823599e-04 2.786402e-03 1
1776409343.544054 jaka_arm_left success 0.188701 0.285787 -0.407707 0.606561 0.319129 0.335948 0.646050 +0.000595 -0.002734 -0.006198 -1.035122 +1.285875 +1.074430 -1.116130 +0.740703 -1.481205 +0.731330 6.204230e-04 6.434937e-03 1
1776409343.552345 jaka_arm_left success 0.188566 0.285543 -0.407501 0.606265 0.319060 0.335356 0.646668 +0.000595 -0.002734 -0.006198 -1.035122 +1.285875 +1.074430 -1.116130 +0.740703 -1.481205 +0.731330 9.513337e-04 8.000226e-03 1
1776409343.560775 jaka_arm_left success 0.188427 0.285400 -0.407310 0.606313 0.318558 0.334888 0.647113 +0.000595 -0.002734 -0.006198 -1.038402 +1.282088 +1.077903 -1.110913 +0.740009 -1.489599 +0.729778 1.022423e-05 1.935402e-05 2
1776409343.569135 jaka_arm_left success 0.188376 0.285196 -0.407127 0.606088 0.317961 0.334447 0.647846 +0.000595 -0.002734 -0.006198 -1.038402 +1.282088 +1.077903 -1.110913 +0.740009 -1.489599 +0.729778 2.841377e-04 2.150239e-03 1
1776409343.577340 jaka_arm_left success 0.188301 0.285221 -0.406909 0.606935 0.316525 0.334352 0.647804 +0.000595 -0.002734 -0.006198 -1.038402 +1.282088 +1.077903 -1.110913 +0.740009 -1.489599 +0.729778 4.584862e-04 4.607425e-03 1
1776409343.585773 jaka_arm_left success 0.188234 0.285168 -0.406690 0.607483 0.315181 0.334124 0.648064 +0.000595 -0.002734 -0.006198 -1.038402 +1.282088 +1.077903 -1.110913 +0.740009 -1.489599 +0.729778 6.905958e-04 7.561610e-03 1
1776409343.594141 jaka_arm_left success 0.188182 0.284707 -0.406506 0.606090 0.314957 0.333452 0.649820 +0.000595 -0.002734 -0.006198 -1.042612 +1.278307 +1.080639 -1.104207 +0.739486 -1.499482 +0.731648 1.304878e-05 1.680579e-05 2
1776409343.602404 jaka_arm_left success 0.188056 0.284386 -0.406303 0.605777 0.314491 0.333444 0.650342 +0.000595 -0.002734 -0.006198 -1.042612 +1.278307 +1.080639 -1.104207 +0.739486 -1.499482 +0.731648 4.059991e-04 1.542707e-03 1
1776409343.610644 jaka_arm_left success 0.187860 0.284124 -0.406081 0.605379 0.314589 0.333448 0.650663 +0.000595 -0.002734 -0.006198 -1.042612 +1.278307 +1.080639 -1.104207 +0.739486 -1.499482 +0.731648 7.945797e-04 2.331473e-03 1
1776409343.619139 jaka_arm_left success 0.187748 0.284159 -0.405877 0.606334 0.313540 0.334151 0.649919 +0.000595 -0.002734 -0.006198 -1.042612 +1.278307 +1.080639 -1.104207 +0.739486 -1.499482 +0.731648 9.422738e-04 3.208076e-03 1
1776409343.627521 jaka_arm_left success 0.187603 0.283894 -0.405700 0.606302 0.312890 0.334279 0.650197 +0.000595 -0.002734 -0.006198 -1.041349 +1.279326 +1.080334 -1.106672 +0.739615 -1.501594 +0.734650 2.531625e-06 4.443606e-06 2
1776409343.635824 jaka_arm_left success 0.187501 0.283675 -0.405532 0.606403 0.311971 0.334383 0.650491 +0.000595 -0.002734 -0.006198 -1.041349 +1.279326 +1.080334 -1.106672 +0.739615 -1.501594 +0.734650 2.943251e-04 1.952333e-03 1
1776409343.644103 jaka_arm_left success 0.187363 0.283670 -0.405347 0.607480 0.311355 0.335346 0.649284 +0.000595 -0.002734 -0.006198 -1.041349 +1.279326 +1.080334 -1.106672 +0.739615 -1.501594 +0.734650 4.817247e-04 4.782015e-03 1
1776409343.652443 jaka_arm_left success 0.187354 0.283547 -0.405178 0.607992 0.310370 0.335698 0.649094 +0.000595 -0.002734 -0.006198 -1.041349 +1.279326 +1.080334 -1.106672 +0.739615 -1.501594 +0.734650 6.739230e-04 7.053728e-03 1
1776409343.660854 jaka_arm_left success 0.187296 0.283305 -0.405034 0.608092 0.310054 0.335613 0.649195 +0.000595 -0.002734 -0.006198 -1.041349 +1.279326 +1.080334 -1.106672 +0.739615 -1.501594 +0.734650 9.402479e-04 7.492276e-03 1
1776409343.669123 jaka_arm_left success 0.187265 0.283082 -0.404935 0.608117 0.309590 0.335405 0.649501 +0.000595 -0.002734 -0.006198 -1.039674 +1.279250 +1.079829 -1.111957 +0.741788 -1.501516 +0.738609 2.801511e-06 5.678826e-06 2
1776409343.677343 jaka_arm_left success 0.187185 0.282920 -0.404846 0.608256 0.309500 0.335238 0.649500 +0.000595 -0.002734 -0.006198 -1.039674 +1.279250 +1.079829 -1.111957 +0.741788 -1.501516 +0.738609 2.021403e-04 4.730521e-04 1
1776409343.685711 jaka_arm_left success 0.187065 0.282874 -0.404723 0.609115 0.309229 0.335120 0.648884 +0.000595 -0.002734 -0.006198 -1.039674 +1.279250 +1.079829 -1.111957 +0.741788 -1.501516 +0.738609 3.583243e-04 2.523931e-03 1
1776409343.694158 jaka_arm_left success 0.187052 0.282732 -0.404688 0.609161 0.308957 0.335290 0.648882 +0.000595 -0.002734 -0.006198 -1.039674 +1.279250 +1.079829 -1.111957 +0.741788 -1.501516 +0.738609 4.789255e-04 2.749682e-03 1
1776409343.702452 jaka_arm_left success 0.187004 0.282603 -0.404681 0.609101 0.308863 0.335400 0.648927 +0.000595 -0.002734 -0.006198 -1.039674 +1.279250 +1.079829 -1.111957 +0.741788 -1.501516 +0.738609 6.025203e-04 2.704498e-03 1
1776409343.710665 jaka_arm_left success 0.186974 0.282585 -0.404669 0.609375 0.308591 0.335557 0.648718 +0.000595 -0.002734 -0.006198 -1.039674 +1.279250 +1.079829 -1.111957 +0.741788 -1.501516 +0.738609 6.351927e-04 3.588403e-03 1
1776409343.719188 jaka_arm_left success 0.186984 0.282633 -0.404675 0.610007 0.307878 0.335938 0.648266 +0.000595 -0.002734 -0.006198 -1.039674 +1.279250 +1.079829 -1.111957 +0.741788 -1.501516 +0.738609 5.908017e-04 5.767019e-03 1
1776409343.727599 jaka_arm_left success 0.186975 0.282532 -0.404695 0.610033 0.307834 0.335577 0.648449 +0.000595 -0.002734 -0.006198 -1.039674 +1.279250 +1.079829 -1.111957 +0.741788 -1.501516 +0.738609 6.674488e-04 5.619128e-03 1
1776409343.735800 jaka_arm_left success 0.186988 0.282469 -0.404740 0.609946 0.307872 0.335471 0.648568 +0.000595 -0.002734 -0.006198 -1.039674 +1.279250 +1.079829 -1.111957 +0.741788 -1.501516 +0.738609 7.015386e-04 5.356949e-03 1
1776409343.744104 jaka_arm_left success 0.187035 0.282374 -0.404787 0.609758 0.308014 0.335178 0.648829 +0.000595 -0.002734 -0.006198 -1.039674 +1.279250 +1.079829 -1.111957 +0.741788 -1.501516 +0.738609 7.603112e-04 4.767557e-03 1
1776409343.752413 jaka_arm_left success 0.187115 0.282422 -0.404851 0.609860 0.308047 0.335129 0.648742 +0.000595 -0.002734 -0.006198 -1.039674 +1.279250 +1.079829 -1.111957 +0.741788 -1.501516 +0.738609 6.834515e-04 4.929322e-03 1
1776409343.760811 jaka_arm_left success 0.187143 0.282479 -0.404905 0.610030 0.308278 0.334760 0.648663 +0.000595 -0.002734 -0.006198 -1.039674 +1.279250 +1.079829 -1.111957 +0.741788 -1.501516 +0.738609 6.175248e-04 5.100987e-03 1
1776409343.769127 jaka_arm_left success 0.187209 0.282575 -0.404962 0.610309 0.308439 0.334524 0.648446 +0.000595 -0.002734 -0.006198 -1.039674 +1.279250 +1.079829 -1.111957 +0.741788 -1.501516 +0.738609 5.125065e-04 5.666471e-03 1
1776409343.781786 jaka_arm_left success 0.187324 0.282626 -0.405064 0.609936 0.309459 0.333844 0.648661 +0.000595 -0.002734 -0.006198 -1.039674 +1.279250 +1.079829 -1.111957 +0.741788 -1.501516 +0.738609 4.793983e-04 5.091123e-03 1
1776409343.794185 jaka_arm_left success 0.187430 0.282720 -0.405137 0.609927 0.309310 0.333506 0.648915 +0.000595 -0.002734 -0.006198 -1.039674 +1.279250 +1.079829 -1.111957 +0.741788 -1.501516 +0.738609 4.479124e-04 5.409464e-03 1
1776409343.802418 jaka_arm_left success 0.187500 0.282795 -0.405192 0.609341 0.309942 0.333843 0.648990 +0.000595 -0.002734 -0.006198 -1.039674 +1.279250 +1.079829 -1.111957 +0.741788 -1.501516 +0.738609 4.528193e-04 4.163407e-03 1
1776409343.810651 jaka_arm_left success 0.187582 0.282828 -0.405230 0.609038 0.309995 0.333507 0.649422 +0.000595 -0.002734 -0.006198 -1.039674 +1.279250 +1.079829 -1.111957 +0.741788 -1.501516 +0.738609 5.032975e-04 4.303695e-03 1
1776409343.819256 jaka_arm_left success 0.187588 0.283079 -0.405248 0.609640 0.309762 0.333661 0.648890 +0.000595 -0.002734 -0.006198 -1.039674 +1.279250 +1.079829 -1.111957 +0.741788 -1.501516 +0.738609 4.504487e-04 4.806473e-03 1
1776409343.827514 jaka_arm_left success 0.187567 0.283307 -0.405242 0.610037 0.309725 0.333697 0.648515 +0.000595 -0.002734 -0.006198 -1.039674 +1.279250 +1.079829 -1.111957 +0.741788 -1.501516 +0.738609 4.858212e-04 5.516377e-03 1
1776409343.835846 jaka_arm_left success 0.187522 0.283360 -0.405288 0.609405 0.310397 0.333598 0.648838 +0.000595 -0.002734 -0.006198 -1.039674 +1.279250 +1.079829 -1.111957 +0.741788 -1.501516 +0.738609 5.177101e-04 4.910428e-03 1
1776409343.844052 jaka_arm_left success 0.187472 0.283605 -0.405314 0.609546 0.310560 0.334039 0.648401 +0.000595 -0.002734 -0.006198 -1.039674 +1.279250 +1.079829 -1.111957 +0.741788 -1.501516 +0.738609 6.779360e-04 4.928585e-03 1
1776409343.852379 jaka_arm_left success 0.187430 0.283708 -0.405340 0.609267 0.310434 0.333753 0.648871 +0.000595 -0.002734 -0.006198 -1.039674 +1.279250 +1.079829 -1.111957 +0.741788 -1.501516 +0.738609 7.632844e-04 4.548879e-03 1
1776409343.860811 jaka_arm_left success 0.187372 0.283758 -0.405411 0.608439 0.310785 0.333506 0.649606 +0.000595 -0.002734 -0.006198 -1.039674 +1.279250 +1.079829 -1.111957 +0.741788 -1.501516 +0.738609 8.335218e-04 4.542486e-03 1
1776409343.869066 jaka_arm_left success 0.187364 0.283934 -0.405419 0.608430 0.310653 0.333260 0.649804 +0.000595 -0.002734 -0.006198 -1.039674 +1.279250 +1.079829 -1.111957 +0.741788 -1.501516 +0.738609 9.845046e-04 4.870382e-03 1
1776409343.877388 jaka_arm_left success 0.187311 0.284140 -0.405431 0.608446 0.310865 0.333251 0.649693 +0.000595 -0.002734 -0.006198 -1.040492 +1.275407 +1.080668 -1.108676 +0.741476 -1.501996 +0.734082 4.552012e-06 1.251458e-05 2
1776409343.885742 jaka_arm_left success 0.187256 0.284419 -0.405452 0.608929 0.310455 0.333276 0.649423 +0.000595 -0.002734 -0.006198 -1.040492 +1.275407 +1.080668 -1.108676 +0.741476 -1.501996 +0.734082 2.825619e-04 1.377962e-03 1
1776409343.894253 jaka_arm_left success 0.187210 0.284760 -0.405436 0.609484 0.310236 0.333589 0.648845 +0.000595 -0.002734 -0.006198 -1.040492 +1.275407 +1.080668 -1.108676 +0.741476 -1.501996 +0.734082 6.253312e-04 3.033263e-03 1
1776409343.902464 jaka_arm_left success 0.187041 0.284891 -0.405455 0.609069 0.310915 0.333749 0.648829 +0.000595 -0.002734 -0.006198 -1.040492 +1.275407 +1.080668 -1.108676 +0.741476 -1.501996 +0.734082 7.958899e-04 2.344080e-03 1
1776409343.910675 jaka_arm_left success 0.186965 0.285162 -0.405464 0.609221 0.310431 0.333714 0.648936 +0.000595 -0.002734 -0.006198 -1.039944 +1.273363 +1.079316 -1.107143 +0.741264 -1.503237 +0.735360 8.213523e-07 1.931991e-06 2
1776409343.919234 jaka_arm_left success 0.186847 0.285274 -0.405479 0.608834 0.310774 0.333858 0.649061 +0.000595 -0.002734 -0.006198 -1.039944 +1.273363 +1.079316 -1.107143 +0.741264 -1.503237 +0.735360 1.638996e-04 1.102502e-03 1
1776409343.927558 jaka_arm_left success 0.186810 0.285433 -0.405468 0.608526 0.310821 0.334369 0.649064 +0.000595 -0.002734 -0.006198 -1.039944 +1.273363 +1.079316 -1.107143 +0.741264 -1.503237 +0.735360 3.125877e-04 2.078713e-03 1
1776409343.935795 jaka_arm_left success 0.186747 0.285543 -0.405482 0.607970 0.310924 0.334582 0.649425 +0.000595 -0.002734 -0.006198 -1.039944 +1.273363 +1.079316 -1.107143 +0.741264 -1.503237 +0.735360 4.397113e-04 3.346464e-03 1
1776409343.944017 jaka_arm_left success 0.186669 0.285737 -0.405527 0.607438 0.311178 0.334552 0.649817 +0.000595 -0.002734 -0.006198 -1.039944 +1.273363 +1.079316 -1.107143 +0.741264 -1.503237 +0.735360 6.501739e-04 4.566982e-03 1
1776409343.952446 jaka_arm_left success 0.186536 0.285822 -0.405587 0.606467 0.312268 0.334387 0.650286 +0.000595 -0.002734 -0.006198 -1.039944 +1.273363 +1.079316 -1.107143 +0.741264 -1.503237 +0.735360 7.971969e-04 7.275730e-03 1
1776409343.960864 jaka_arm_left success 0.186483 0.285953 -0.405650 0.606226 0.311943 0.333529 0.651107 +0.000595 -0.002734 -0.006198 -1.039944 +1.273363 +1.079316 -1.107143 +0.741264 -1.503237 +0.735360 9.452598e-04 8.000555e-03 1
1776409343.969126 jaka_arm_left success 0.186422 0.286059 -0.405696 0.605704 0.312379 0.333359 0.651470 +0.000595 -0.002734 -0.006198 -1.041132 +1.271568 +1.084313 -1.097143 +0.731264 -1.508637 +0.737316 4.098322e-04 1.705622e-04 2
1776409343.977351 jaka_arm_left success 0.186386 0.286342 -0.405738 0.605770 0.312471 0.333524 0.651280 +0.000595 -0.002734 -0.006198 -1.041132 +1.271568 +1.084313 -1.097143 +0.731264 -1.508637 +0.737316 6.193420e-04 4.028819e-04 1
1776409343.985696 jaka_arm_left success 0.186207 0.286780 -0.405742 0.606569 0.312817 0.333514 0.650375 +0.000595 -0.002734 -0.006198 -1.040317 +1.270138 +1.083265 -1.096201 +0.731550 -1.508061 +0.737684 4.618227e-07 1.250882e-06 2
1776409343.994295 jaka_arm_left success 0.186096 0.287021 -0.405786 0.606678 0.313009 0.333262 0.650311 +0.000595 -0.002734 -0.006198 -1.040317 +1.270138 +1.083265 -1.096201 +0.731550 -1.508061 +0.737684 2.690034e-04 6.832439e-04 1
1776409344.002524 jaka_arm_left success 0.186127 0.287312 -0.405827 0.606691 0.312614 0.333429 0.650402 +0.000595 -0.002734 -0.006198 -1.040317 +1.270138 +1.083265 -1.096201 +0.731550 -1.508061 +0.737684 5.445739e-04 5.054420e-04 1
1776409344.010659 jaka_arm_left success 0.186111 0.287574 -0.405857 0.606734 0.312740 0.333459 0.650286 +0.000595 -0.002734 -0.006198 -1.040317 +1.270138 +1.083265 -1.096201 +0.731550 -1.508061 +0.737684 8.079146e-04 4.199871e-04 1
1776409344.019120 jaka_arm_left success 0.186135 0.287883 -0.405878 0.606972 0.312531 0.333664 0.650060 +0.000595 -0.002734 -0.006198 -1.041258 +1.267590 +1.082516 -1.092531 +0.731050 -1.510269 +0.738463 2.355870e-06 4.762501e-06 2
1776409344.027549 jaka_arm_left success 0.186014 0.287970 -0.405954 0.605856 0.313974 0.333716 0.650379 +0.000595 -0.002734 -0.006198 -1.041258 +1.267590 +1.082516 -1.092531 +0.731050 -1.510269 +0.738463 1.681809e-04 3.703589e-03 1
1776409344.035733 jaka_arm_left success 0.186007 0.288154 -0.406002 0.605635 0.313903 0.333620 0.650668 +0.000595 -0.002734 -0.006198 -1.041258 +1.267590 +1.082516 -1.092531 +0.731050 -1.510269 +0.738463 3.246225e-04 4.019298e-03 1
1776409344.044008 jaka_arm_left success 0.186011 0.288359 -0.406048 0.605381 0.313886 0.333659 0.650892 +0.000595 -0.002734 -0.006198 -1.041258 +1.267590 +1.082516 -1.092531 +0.731050 -1.510269 +0.738463 5.204355e-04 4.497177e-03 1
1776409344.052507 jaka_arm_left success 0.185947 0.288530 -0.406120 0.604857 0.314746 0.333919 0.650831 +0.000595 -0.002734 -0.006198 -1.041258 +1.267590 +1.082516 -1.092531 +0.731050 -1.510269 +0.738463 7.159500e-04 6.334944e-03 1
1776409344.060836 jaka_arm_left success 0.185882 0.288718 -0.406178 0.604632 0.315227 0.334107 0.650711 +0.000595 -0.002734 -0.006198 -1.041258 +1.267590 +1.082516 -1.092531 +0.731050 -1.510269 +0.738463 9.226483e-04 7.309299e-03 1
1776409344.069121 jaka_arm_left success 0.185841 0.289021 -0.406168 0.604986 0.315139 0.334253 0.650349 +0.000595 -0.002734 -0.006198 -1.041305 +1.268679 +1.080996 -1.087590 +0.727765 -1.512066 +0.737853 2.612868e-06 1.038813e-05 2
1776409344.077408 jaka_arm_left success 0.185807 0.289228 -0.406196 0.604937 0.315202 0.334238 0.650372 +0.000595 -0.002734 -0.006198 -1.041305 +1.268679 +1.080996 -1.087590 +0.727765 -1.512066 +0.737853 2.097816e-04 1.728830e-04 1
1776409344.085805 jaka_arm_left success 0.185873 0.289061 -0.406263 0.603152 0.315728 0.333443 0.652181 +0.000595 -0.002734 -0.006198 -1.041305 +1.268679 +1.080996 -1.087590 +0.727765 -1.512066 +0.737853 1.087258e-04 5.562111e-03 1
1776409344.094205 jaka_arm_left success 0.185828 0.289222 -0.406310 0.602873 0.316225 0.333359 0.652241 +0.000595 -0.002734 -0.006198 -1.041305 +1.268679 +1.080996 -1.087590 +0.727765 -1.512066 +0.737853 2.456730e-04 6.336117e-03 1
1776409344.102448 jaka_arm_left success 0.185797 0.289342 -0.406345 0.602626 0.316512 0.333185 0.652418 +0.000595 -0.002734 -0.006198 -1.041305 +1.268679 +1.080996 -1.087590 +0.727765 -1.512066 +0.737853 3.681292e-04 7.181162e-03 1
1776409344.110676 jaka_arm_left success 0.185823 0.289456 -0.406360 0.602325 0.316710 0.333120 0.652634 +0.000595 -0.002734 -0.006198 -1.041305 +1.268679 +1.080996 -1.087590 +0.727765 -1.512066 +0.737853 4.745887e-04 8.017820e-03 1
1776409344.119255 jaka_arm_left success 0.185785 0.289625 -0.406352 0.602508 0.316827 0.333274 0.652329 +0.000595 -0.002734 -0.006198 -1.041305 +1.268679 +1.080996 -1.087590 +0.727765 -1.512066 +0.737853 6.323612e-04 7.452395e-03 1
1776409344.127393 jaka_arm_left success 0.185779 0.289724 -0.406363 0.602500 0.316841 0.333322 0.652305 +0.000595 -0.002734 -0.006198 -1.041305 +1.268679 +1.080996 -1.087590 +0.727765 -1.512066 +0.737853 7.306004e-04 7.425655e-03 1
1776409344.135757 jaka_arm_left success 0.185794 0.289825 -0.406354 0.602492 0.316648 0.333558 0.652286 +0.000595 -0.002734 -0.006198 -1.041305 +1.268679 +1.080996 -1.087590 +0.727765 -1.512066 +0.737853 8.249214e-04 7.139918e-03 1
1776409344.144058 jaka_arm_left success 0.185783 0.289901 -0.406346 0.602476 0.316635 0.333620 0.652275 +0.000595 -0.002734 -0.006198 -1.041305 +1.268679 +1.080996 -1.087590 +0.727765 -1.512066 +0.737853 8.979854e-04 7.116207e-03 1
1776409344.152600 jaka_arm_left success 0.185726 0.289986 -0.406318 0.602588 0.316630 0.333758 0.652103 +0.000595 -0.002734 -0.006198 -1.041305 +1.268679 +1.080996 -1.087590 +0.727765 -1.512066 +0.737853 9.815252e-04 6.724655e-03 1
1776409344.160797 jaka_arm_left success 0.185676 0.289929 -0.406330 0.601999 0.316761 0.333703 0.652612 +0.000595 -0.002734 -0.006198 -1.041305 +1.268679 +1.080996 -1.087590 +0.727765 -1.512066 +0.737853 9.351994e-04 8.243373e-03 1
1776409344.169098 jaka_arm_left success 0.185626 0.290063 -0.406306 0.602361 0.316575 0.333873 0.652281 +0.000595 -0.002733 -0.006198 -1.043897 +1.266782 +1.083319 -1.077590 +0.721625 -1.518089 +0.738387 1.176550e-04 6.256600e-05 2
1776409344.177393 jaka_arm_left success 0.185580 0.290217 -0.406280 0.602947 0.316259 0.334166 0.651742 +0.000595 -0.002733 -0.006198 -1.043897 +1.266782 +1.083319 -1.077590 +0.721625 -1.518089 +0.738387 2.220265e-04 1.764261e-03 1
1776409344.185731 jaka_arm_left success 0.185551 0.290214 -0.406271 0.602752 0.316370 0.334300 0.651800 +0.000595 -0.002733 -0.006198 -1.043897 +1.266782 +1.083319 -1.077590 +0.721625 -1.518089 +0.738387 2.254731e-04 1.507233e-03 1
1776409344.194095 jaka_arm_left success 0.185540 0.290276 -0.406262 0.602889 0.316264 0.334354 0.651697 +0.000595 -0.002733 -0.006198 -1.043897 +1.266782 +1.083319 -1.077590 +0.721625 -1.518089 +0.738387 2.822192e-04 1.896700e-03 1
1776409344.202443 jaka_arm_left success 0.185538 0.290295 -0.406269 0.602826 0.316285 0.334354 0.651746 +0.000595 -0.002733 -0.006198 -1.043897 +1.266782 +1.083319 -1.077590 +0.721625 -1.518089 +0.738387 3.018684e-04 1.758028e-03 1
1776409344.210673 jaka_arm_left success 0.185545 0.290294 -0.406286 0.602732 0.316384 0.334391 0.651765 +0.000595 -0.002733 -0.006198 -1.043897 +1.266782 +1.083319 -1.077590 +0.721625 -1.518089 +0.738387 3.032520e-04 1.629298e-03 1
1776409344.219135 jaka_arm_left success 0.185594 0.290290 -0.406317 0.602637 0.316230 0.334256 0.651997 +0.000595 -0.002733 -0.006198 -1.043897 +1.266782 +1.083319 -1.077590 +0.721625 -1.518089 +0.738387 2.994074e-04 1.260236e-03 1
1776409344.227501 jaka_arm_left success 0.185567 0.290238 -0.406365 0.602230 0.316876 0.334009 0.652186 +0.000595 -0.002733 -0.006198 -1.043897 +1.266782 +1.083319 -1.077590 +0.721625 -1.518089 +0.738387 2.845280e-04 7.090082e-04 1
1776409344.235738 jaka_arm_left success 0.185633 0.290191 -0.406398 0.601826 0.317039 0.333904 0.652533 +0.000595 -0.002733 -0.006198 -1.043897 +1.266782 +1.083319 -1.077590 +0.721625 -1.518089 +0.738387 2.643282e-04 1.525966e-03 1
1776409344.244016 jaka_arm_left success 0.185645 0.290198 -0.406405 0.602128 0.316961 0.333904 0.652293 +0.000595 -0.002733 -0.006198 -1.043897 +1.266782 +1.083319 -1.077590 +0.721625 -1.518089 +0.738387 2.743020e-04 9.035487e-04 1
1776409344.252371 jaka_arm_left success 0.185677 0.290205 -0.406408 0.602341 0.316947 0.333896 0.652107 +0.000595 -0.002733 -0.006198 -1.043897 +1.266782 +1.083319 -1.077590 +0.721625 -1.518089 +0.738387 2.839217e-04 7.913754e-04 1
1776409344.260893 jaka_arm_left success 0.185720 0.290162 -0.406414 0.602383 0.317107 0.333975 0.651950 +0.000595 -0.002733 -0.006198 -1.043897 +1.266782 +1.083319 -1.077590 +0.721625 -1.518089 +0.738387 2.726353e-04 1.228439e-03 1
1776409344.269117 jaka_arm_left success 0.185754 0.290181 -0.406385 0.602886 0.316745 0.334131 0.651581 +0.000595 -0.002733 -0.006198 -1.043897 +1.266782 +1.083319 -1.077590 +0.721625 -1.518089 +0.738387 2.742959e-04 1.796988e-03 1
1776409344.277481 jaka_arm_left success 0.185804 0.290100 -0.406403 0.602734 0.316748 0.333979 0.651798 +0.000595 -0.002733 -0.006198 -1.043897 +1.266782 +1.083319 -1.077590 +0.721625 -1.518089 +0.738387 2.771917e-04 1.229731e-03 1
1776409344.285718 jaka_arm_left success 0.185802 0.290020 -0.406434 0.602585 0.316893 0.333682 0.652017 +0.000595 -0.002733 -0.006198 -1.043897 +1.266782 +1.083319 -1.077590 +0.721625 -1.518089 +0.738387 2.885898e-04 9.856499e-04 1
1776409344.294178 jaka_arm_left success 0.185818 0.290000 -0.406459 0.602663 0.316876 0.333548 0.652023 +0.000595 -0.002733 -0.006198 -1.043897 +1.266782 +1.083319 -1.077590 +0.721625 -1.518089 +0.738387 3.188025e-04 1.170722e-03 1
1776409344.302466 jaka_arm_left success 0.185852 0.289987 -0.406491 0.602677 0.316770 0.333380 0.652147 +0.000595 -0.002733 -0.006198 -1.043897 +1.266782 +1.083319 -1.077590 +0.721625 -1.518089 +0.738387 3.654345e-04 1.265071e-03 1
1776409344.310647 jaka_arm_left success 0.185873 0.289963 -0.406513 0.602665 0.316699 0.333152 0.652309 +0.000595 -0.002733 -0.006198 -1.043897 +1.266782 +1.083319 -1.077590 +0.721625 -1.518089 +0.738387 3.981585e-04 1.607428e-03 1
1776409344.319085 jaka_arm_left success 0.185921 0.289938 -0.406542 0.602607 0.316459 0.332805 0.652656 +0.000595 -0.002733 -0.006198 -1.043897 +1.266782 +1.083319 -1.077590 +0.721625 -1.518089 +0.738387 4.539612e-04 2.370743e-03 1
1776409344.327495 jaka_arm_left success 0.185955 0.289916 -0.406553 0.602624 0.316317 0.332513 0.652858 +0.000595 -0.002733 -0.006198 -1.043897 +1.266782 +1.083319 -1.077590 +0.721625 -1.518089 +0.738387 4.881731e-04 3.091196e-03 1
1776409344.335808 jaka_arm_left success 0.185957 0.289882 -0.406561 0.602701 0.316247 0.332265 0.652946 +0.000595 -0.002733 -0.006198 -1.043897 +1.266782 +1.083319 -1.077590 +0.721625 -1.518089 +0.738387 5.034783e-04 3.651470e-03 1
1776409344.343997 jaka_arm_left success 0.185942 0.289837 -0.406574 0.602806 0.316127 0.332164 0.652959 +0.000595 -0.002733 -0.006198 -1.043897 +1.266782 +1.083319 -1.077590 +0.721625 -1.518089 +0.738387 5.177491e-04 3.931818e-03 1
1776409344.352372 jaka_arm_left success 0.185885 0.289917 -0.406555 0.603567 0.315993 0.332464 0.652168 +0.000595 -0.002733 -0.006198 -1.043897 +1.266782 +1.083319 -1.077590 +0.721625 -1.518089 +0.738387 4.470634e-04 3.906940e-03 1
1776409344.360841 jaka_arm_left success 0.185860 0.289869 -0.406566 0.603694 0.316001 0.332629 0.651962 +0.000595 -0.002733 -0.006198 -1.043897 +1.266782 +1.083319 -1.077590 +0.721625 -1.518089 +0.738387 4.562218e-04 3.879525e-03 1
1776409344.369128 jaka_arm_left success 0.185843 0.289809 -0.406582 0.603748 0.316020 0.332663 0.651886 +0.000595 -0.002733 -0.006198 -1.043897 +1.266782 +1.083319 -1.077590 +0.721625 -1.518089 +0.738387 4.842112e-04 3.925734e-03 1
1776409344.377412 jaka_arm_left success 0.185807 0.289730 -0.406617 0.603756 0.316120 0.332704 0.651809 +0.000595 -0.002733 -0.006198 -1.043897 +1.266782 +1.083319 -1.077590 +0.721625 -1.518089 +0.738387 5.370599e-04 3.866124e-03 1
1776409344.385809 jaka_arm_left success 0.185815 0.289696 -0.406620 0.603907 0.316145 0.332714 0.651652 +0.000595 -0.002733 -0.006198 -1.043897 +1.266782 +1.083319 -1.077590 +0.721625 -1.518089 +0.738387 5.608428e-04 4.145861e-03 1
1776409344.394145 jaka_arm_left success 0.185796 0.289667 -0.406633 0.604047 0.316001 0.332683 0.651607 +0.000595 -0.002733 -0.006198 -1.043897 +1.266782 +1.083319 -1.077590 +0.721625 -1.518089 +0.738387 5.821062e-04 4.482698e-03 1
1776409344.402496 jaka_arm_left success 0.185794 0.289644 -0.406644 0.604102 0.315954 0.332747 0.651547 +0.000595 -0.002733 -0.006198 -1.043897 +1.266782 +1.083319 -1.077590 +0.721625 -1.518089 +0.738387 6.038455e-04 4.560347e-03 1
1776409344.410665 jaka_arm_left success 0.185807 0.289644 -0.406649 0.604140 0.315928 0.332693 0.651552 +0.000595 -0.002733 -0.006198 -1.043897 +1.266782 +1.083319 -1.077590 +0.721625 -1.518089 +0.738387 6.110480e-04 4.683891e-03 1
1776409344.419094 jaka_arm_left success 0.185801 0.289643 -0.406659 0.604181 0.315938 0.332625 0.651544 +0.000595 -0.002733 -0.006198 -1.043897 +1.266782 +1.083319 -1.077590 +0.721625 -1.518089 +0.738387 6.174566e-04 4.815428e-03 1
1776409344.427647 jaka_arm_left success 0.185809 0.289652 -0.406677 0.604199 0.315924 0.332478 0.651609 +0.000595 -0.002733 -0.006198 -1.043897 +1.266782 +1.083319 -1.077590 +0.721625 -1.518089 +0.738387 6.278546e-04 4.974159e-03 1
1776409344.435750 jaka_arm_left success 0.185824 0.289711 -0.406690 0.604326 0.315906 0.332499 0.651489 +0.000595 -0.002733 -0.006198 -1.043897 +1.266782 +1.083319 -1.077590 +0.721625 -1.518089 +0.738387 6.102703e-04 5.215793e-03 1
1776409344.444079 jaka_arm_left success 0.185837 0.289740 -0.406710 0.604371 0.315861 0.332121 0.651662 +0.000595 -0.002733 -0.006198 -1.043897 +1.266782 +1.083319 -1.077590 +0.721625 -1.518089 +0.738387 6.168942e-04 5.656820e-03 1
1776409344.452517 jaka_arm_left success 0.185857 0.289760 -0.406731 0.604273 0.316008 0.332212 0.651635 +0.000595 -0.002733 -0.006198 -1.043897 +1.266782 +1.083319 -1.077590 +0.721625 -1.518089 +0.738387 6.326030e-04 5.346574e-03 1
1776409344.460861 jaka_arm_left success 0.185873 0.289701 -0.406764 0.603955 0.316003 0.331922 0.652080 +0.000595 -0.002733 -0.006198 -1.043897 +1.266782 +1.083319 -1.077590 +0.721625 -1.518089 +0.738387 6.912429e-04 5.194182e-03 1
1776409344.469114 jaka_arm_left success 0.185901 0.289710 -0.406794 0.603849 0.316005 0.331814 0.652232 +0.000595 -0.002733 -0.006198 -1.043897 +1.266782 +1.083319 -1.077590 +0.721625 -1.518089 +0.738387 7.218641e-04 5.224491e-03 1
1776409344.477365 jaka_arm_left success 0.185935 0.289773 -0.406817 0.603897 0.315858 0.331918 0.652206 +0.000595 -0.002733 -0.006198 -1.043897 +1.266782 +1.083319 -1.077590 +0.721625 -1.518089 +0.738387 7.302372e-04 5.192494e-03 1
1776409344.485713 jaka_arm_left success 0.185990 0.289790 -0.406882 0.603697 0.315873 0.331633 0.652528 +0.000595 -0.002733 -0.006198 -1.043897 +1.266782 +1.083319 -1.077590 +0.721625 -1.518089 +0.738387 8.036068e-04 5.449455e-03 1
1776409344.494146 jaka_arm_left success 0.186017 0.289956 -0.406890 0.604164 0.315846 0.331630 0.652111 +0.000595 -0.002733 -0.006198 -1.043897 +1.266782 +1.083319 -1.077590 +0.721625 -1.518089 +0.738387 7.925896e-04 5.960254e-03 1
1776409344.502420 jaka_arm_left success 0.186112 0.290077 -0.406901 0.604410 0.315469 0.331454 0.652155 +0.000595 -0.002733 -0.006198 -1.043897 +1.266782 +1.083319 -1.077590 +0.721625 -1.518089 +0.738387 8.510492e-04 6.733869e-03 1
1776409344.510643 jaka_arm_left success 0.186169 0.290136 -0.406945 0.604387 0.315393 0.331390 0.652245 +0.000595 -0.002733 -0.006198 -1.043897 +1.266782 +1.083319 -1.077590 +0.721625 -1.518089 +0.738387 9.251572e-04 6.847913e-03 1
1776409344.519080 jaka_arm_left success 0.186239 0.290283 -0.406945 0.604780 0.315227 0.331339 0.651987 +0.000595 -0.002733 -0.006198 -1.043897 +1.266782 +1.083319 -1.077590 +0.721625 -1.518089 +0.738387 9.956932e-04 7.540589e-03 1
1776409344.527542 jaka_arm_left success 0.186223 0.290267 -0.406997 0.604278 0.316197 0.331247 0.652030 +0.000595 -0.002733 -0.006198 -1.046127 +1.262088 +1.085832 -1.075880 +0.724404 -1.517004 +0.734949 6.951831e-06 2.606326e-05 2
1776409344.535754 jaka_arm_left success 0.186262 0.290329 -0.407020 0.604295 0.316321 0.331208 0.651974 +0.000595 -0.002733 -0.006198 -1.046127 +1.262088 +1.085832 -1.075880 +0.724404 -1.517004 +0.734949 7.301888e-05 2.713079e-04 1
1776409344.544031 jaka_arm_left success 0.186340 0.290376 -0.407050 0.604257 0.316354 0.331115 0.652041 +0.000595 -0.002733 -0.006198 -1.046127 +1.262088 +1.085832 -1.075880 +0.724404 -1.517004 +0.734949 1.660446e-04 4.148227e-04 1
1776409344.552500 jaka_arm_left success 0.186400 0.290415 -0.407074 0.604127 0.316479 0.330969 0.652174 +0.000595 -0.002733 -0.006198 -1.046127 +1.262088 +1.085832 -1.075880 +0.724404 -1.517004 +0.734949 2.411002e-04 9.051732e-04 1
1776409344.560828 jaka_arm_left success 0.186428 0.290401 -0.407083 0.603773 0.316860 0.330755 0.652425 +0.000595 -0.002733 -0.006198 -1.046127 +1.262088 +1.085832 -1.075880 +0.724404 -1.517004 +0.734949 2.581818e-04 2.101310e-03 1
1776409344.569103 jaka_arm_left success 0.186493 0.290487 -0.407093 0.603899 0.316905 0.330770 0.652279 +0.000595 -0.002733 -0.006198 -1.046127 +1.262088 +1.085832 -1.075880 +0.724404 -1.517004 +0.734949 3.590838e-04 1.940069e-03 1
1776409344.577392 jaka_arm_left success 0.186528 0.290588 -0.407099 0.604098 0.316899 0.330696 0.652135 +0.000595 -0.002733 -0.006198 -1.046127 +1.262088 +1.085832 -1.075880 +0.724404 -1.517004 +0.734949 4.513499e-04 1.835723e-03 1
1776409344.585720 jaka_arm_left success 0.186560 0.290593 -0.407111 0.604072 0.317018 0.330339 0.652283 +0.000595 -0.002733 -0.006198 -1.046127 +1.262088 +1.085832 -1.075880 +0.724404 -1.517004 +0.734949 4.797645e-04 2.540263e-03 1
1776409344.594161 jaka_arm_left success 0.186628 0.290575 -0.407122 0.603875 0.317085 0.329994 0.652608 +0.000595 -0.002733 -0.006198 -1.046127 +1.262088 +1.085832 -1.075880 +0.724404 -1.517004 +0.734949 5.218935e-04 3.390847e-03 1
1776409344.602515 jaka_arm_left success 0.186668 0.290597 -0.407111 0.603852 0.317207 0.329756 0.652689 +0.000595 -0.002733 -0.006198 -1.046127 +1.262088 +1.085832 -1.075880 +0.724404 -1.517004 +0.734949 5.635779e-04 3.940256e-03 1
1776409344.610639 jaka_arm_left success 0.186704 0.290684 -0.407078 0.604231 0.316993 0.329525 0.652560 +0.000595 -0.002733 -0.006198 -1.046127 +1.262088 +1.085832 -1.075880 +0.724404 -1.517004 +0.734949 6.390844e-04 3.951125e-03 1
1776409344.619133 jaka_arm_left success 0.186794 0.290630 -0.407113 0.603917 0.316961 0.329612 0.652822 +0.000595 -0.002733 -0.006198 -1.046127 +1.262088 +1.085832 -1.075880 +0.724404 -1.517004 +0.734949 6.848534e-04 4.021386e-03 1
