DieofAo/pink_ethanqjiang/xiyiye/left_umi_20260417_150221.pink.txt
# ts arm pink_status x y z qx qy qz qw base_x base_y base_yaw j1 j2 j3 j4 j5 j6 j7 pos_err ori_err iters
1776409341.019133 jaka_arm_left success 0.186093 0.298311 -0.410390 0.590932 0.342347 0.364701 0.632922 +0.000000 -0.000083 +0.000000 -1.029612 +1.325724 +1.037373 -1.107933 +0.728387 -1.470736 +0.751247 4.142599e-04 2.759474e-04 3
1776409341.027394 jaka_arm_left success 0.186114 0.298316 -0.410396 0.590842 0.342360 0.364545 0.633089 +0.000000 -0.000083 +0.000000 -1.029612 +1.325724 +1.037373 -1.107933 +0.728387 -1.470736 +0.751247 4.110034e-04 3.785637e-04 1
1776409341.035721 jaka_arm_left success 0.186143 0.298324 -0.410412 0.590815 0.342278 0.364421 0.633230 +0.000000 -0.000083 +0.000000 -1.029612 +1.325724 +1.037373 -1.107933 +0.728387 -1.470736 +0.751247 4.158246e-04 6.978905e-04 1
1776409341.044033 jaka_arm_left success 0.186164 0.298406 -0.410424 0.591150 0.342173 0.364422 0.632973 +0.000000 -0.000083 +0.000000 -1.029612 +1.325724 +1.037373 -1.107933 +0.728387 -1.470736 +0.751247 4.371477e-04 5.531471e-04 1
1776409341.052383 jaka_arm_left success 0.186192 0.298421 -0.410442 0.591357 0.342078 0.364257 0.632927 +0.000000 -0.000083 +0.000000 -1.029612 +1.325724 +1.037373 -1.107933 +0.728387 -1.470736 +0.751247 4.517841e-04 1.112778e-03 1
1776409341.060760 jaka_arm_left success 0.186263 0.298387 -0.410460 0.591398 0.341951 0.364159 0.633013 +0.000000 -0.000083 +0.000000 -1.029612 +1.325724 +1.037373 -1.107933 +0.728387 -1.470736 +0.751247 4.509746e-04 1.403717e-03 1
1776409341.069067 jaka_arm_left success 0.186281 0.298327 -0.410529 0.591490 0.341871 0.363762 0.633199 +0.000000 -0.000083 +0.000000 -1.029612 +1.325724 +1.037373 -1.107933 +0.728387 -1.470736 +0.751247 5.087590e-04 2.180599e-03 1
1776409341.077378 jaka_arm_left success 0.186338 0.298309 -0.410557 0.591813 0.341789 0.363679 0.632989 +0.000000 -0.000083 +0.000000 -1.029612 +1.325724 +1.037373 -1.107933 +0.728387 -1.470736 +0.751247 5.383098e-04 2.679822e-03 1
1776409341.085648 jaka_arm_left success 0.186434 0.298324 -0.410575 0.592134 0.341529 0.364011 0.632638 +0.000000 -0.000083 +0.000000 -1.029612 +1.325724 +1.037373 -1.107933 +0.728387 -1.470736 +0.751247 5.749123e-04 3.095819e-03 1
1776409341.094162 jaka_arm_left success 0.186521 0.298180 -0.410623 0.592020 0.341654 0.363917 0.632731 +0.000000 -0.000083 +0.000000 -1.029612 +1.325724 +1.037373 -1.107933 +0.728387 -1.470736 +0.751247 6.540656e-04 2.847833e-03 1
1776409341.102440 jaka_arm_left success 0.186565 0.298002 -0.410693 0.591899 0.342064 0.363817 0.632682 +0.000000 -0.000083 +0.000000 -1.029612 +1.325724 +1.037373 -1.107933 +0.728387 -1.470736 +0.751247 7.789610e-04 2.517375e-03 1
1776409341.110734 jaka_arm_left success 0.186620 0.297848 -0.410759 0.591818 0.342359 0.363571 0.632738 +0.000000 -0.000083 +0.000000 -1.029612 +1.325724 +1.037373 -1.107933 +0.728387 -1.470736 +0.751247 9.181193e-04 2.674713e-03 1
1776409341.119176 jaka_arm_left success 0.186577 0.297900 -0.410784 0.592937 0.342470 0.363742 0.631531 +0.000000 -0.000083 +0.000000 -1.029612 +1.325724 +1.037373 -1.107933 +0.728387 -1.470736 +0.751247 9.005520e-04 5.155357e-03 1
1776409341.127403 jaka_arm_left success 0.186626 0.297892 -0.410815 0.593405 0.342271 0.363890 0.631114 +0.000000 -0.000083 +0.000000 -1.029612 +1.325724 +1.037373 -1.107933 +0.728387 -1.470736 +0.751247 9.469209e-04 6.268336e-03 1
1776409341.135756 jaka_arm_left success 0.186634 0.297837 -0.410867 0.593643 0.342455 0.363864 0.630806 +0.001139 -0.001767 -0.000227 -1.026737 +1.322304 +1.036047 -1.108565 +0.730359 -1.468629 +0.751200 5.666642e-06 6.098714e-06 2
1776409341.144072 jaka_arm_left success 0.186714 0.297876 -0.410917 0.594064 0.342178 0.364127 0.630408 +0.001139 -0.001767 -0.000227 -1.026737 +1.322304 +1.036047 -1.108565 +0.730359 -1.468629 +0.751200 1.035025e-04 1.385864e-03 1
1776409341.152484 jaka_arm_left success 0.186775 0.297857 -0.410953 0.594097 0.342233 0.364097 0.630364 +0.001139 -0.001767 -0.000227 -1.026737 +1.322304 +1.036047 -1.108565 +0.730359 -1.468629 +0.751200 1.678110e-04 1.419961e-03 1
1776409341.160834 jaka_arm_left success 0.186837 0.297848 -0.411002 0.594164 0.342100 0.363842 0.630520 +0.001139 -0.001767 -0.000227 -1.026737 +1.322304 +1.036047 -1.108565 +0.730359 -1.468629 +0.751200 2.456912e-04 1.382720e-03 1
1776409341.169182 jaka_arm_left success 0.186875 0.297846 -0.411037 0.594337 0.342031 0.363548 0.630563 +0.001139 -0.001767 -0.000227 -1.026737 +1.322304 +1.036047 -1.108565 +0.730359 -1.468629 +0.751200 2.968557e-04 1.809214e-03 1
1776409341.177397 jaka_arm_left success 0.186934 0.297872 -0.411060 0.594436 0.341824 0.363543 0.630586 +0.001139 -0.001767 -0.000227 -1.026737 +1.322304 +1.036047 -1.108565 +0.730359 -1.468629 +0.751200 3.599689e-04 2.168114e-03 1
1776409341.185744 jaka_arm_left success 0.186901 0.297848 -0.411100 0.594220 0.342393 0.363267 0.630640 +0.001139 -0.001767 -0.000227 -1.026737 +1.322304 +1.036047 -1.108565 +0.730359 -1.468629 +0.751200 3.568673e-04 1.698283e-03 1
1776409341.194162 jaka_arm_left success 0.186912 0.297857 -0.411139 0.594263 0.342371 0.363163 0.630671 +0.001139 -0.001767 -0.000227 -1.026737 +1.322304 +1.036047 -1.108565 +0.730359 -1.468629 +0.751200 3.920527e-04 1.898734e-03 1
1776409341.202411 jaka_arm_left success 0.186965 0.297866 -0.411167 0.594255 0.342155 0.362857 0.630972 +0.001139 -0.001767 -0.000227 -1.026737 +1.322304 +1.036047 -1.108565 +0.730359 -1.468629 +0.751200 4.500686e-04 2.453525e-03 1
1776409341.210680 jaka_arm_left success 0.186983 0.297866 -0.411182 0.594233 0.342170 0.362739 0.631052 +0.001139 -0.001767 -0.000227 -1.026737 +1.322304 +1.036047 -1.108565 +0.730359 -1.468629 +0.751200 4.734224e-04 2.649038e-03 1
1776409341.219249 jaka_arm_left success 0.186991 0.297868 -0.411202 0.594223 0.342165 0.362743 0.631062 +0.001139 -0.001767 -0.000227 -1.026737 +1.322304 +1.036047 -1.108565 +0.730359 -1.468629 +0.751200 4.930373e-04 2.639331e-03 1
1776409341.227478 jaka_arm_left success 0.186994 0.297897 -0.411203 0.594351 0.342143 0.362533 0.631074 +0.001139 -0.001767 -0.000227 -1.026737 +1.322304 +1.036047 -1.108565 +0.730359 -1.468629 +0.751200 4.985354e-04 3.124645e-03 1
1776409341.235870 jaka_arm_left success 0.187018 0.297926 -0.411213 0.594433 0.342032 0.362301 0.631191 +0.001139 -0.001767 -0.000227 -1.026737 +1.322304 +1.036047 -1.108565 +0.730359 -1.468629 +0.751200 5.268325e-04 3.683723e-03 1
1776409341.244147 jaka_arm_left success 0.187069 0.297961 -0.411224 0.594443 0.341887 0.361959 0.631456 +0.001139 -0.001767 -0.000227 -1.026737 +1.322304 +1.036047 -1.108565 +0.730359 -1.468629 +0.751200 5.783129e-04 4.477259e-03 1
1776409341.252497 jaka_arm_left success 0.187087 0.297945 -0.411245 0.594300 0.342073 0.362039 0.631444 +0.001139 -0.001767 -0.000227 -1.026737 +1.322304 +1.036047 -1.108565 +0.730359 -1.468629 +0.751200 6.019346e-04 4.153854e-03 1
1776409341.260761 jaka_arm_left success 0.187090 0.297992 -0.411270 0.594379 0.341959 0.361820 0.631556 +0.001139 -0.001767 -0.000227 -1.026737 +1.322304 +1.036047 -1.108565 +0.730359 -1.468629 +0.751200 6.302244e-04 4.701441e-03 1
1776409341.269143 jaka_arm_left success 0.187099 0.298015 -0.411296 0.594317 0.342013 0.361794 0.631601 +0.001139 -0.001767 -0.000227 -1.026737 +1.322304 +1.036047 -1.108565 +0.730359 -1.468629 +0.751200 6.595499e-04 4.717878e-03 1
1776409341.277372 jaka_arm_left success 0.187123 0.298015 -0.411341 0.594136 0.342026 0.361866 0.631723 +0.001139 -0.001767 -0.000227 -1.026737 +1.322304 +1.036047 -1.108565 +0.730359 -1.468629 +0.751200 7.063595e-04 4.586016e-03 1
1776409341.285783 jaka_arm_left success 0.187149 0.298038 -0.411372 0.594035 0.342029 0.361698 0.631912 +0.001139 -0.001767 -0.000227 -1.026737 +1.322304 +1.036047 -1.108565 +0.730359 -1.468629 +0.751200 7.512353e-04 4.999105e-03 1
1776409341.294159 jaka_arm_left success 0.187166 0.298063 -0.411409 0.593974 0.341989 0.361551 0.632076 +0.001139 -0.001767 -0.000227 -1.026737 +1.322304 +1.036047 -1.108565 +0.730359 -1.468629 +0.751200 7.949231e-04 5.398923e-03 1
1776409341.302485 jaka_arm_left success 0.187186 0.298101 -0.411431 0.594044 0.341959 0.361089 0.632290 +0.001139 -0.001767 -0.000227 -1.026737 +1.322304 +1.036047 -1.108565 +0.730359 -1.468629 +0.751200 8.346816e-04 6.420946e-03 1
1776409341.310693 jaka_arm_left success 0.187259 0.298051 -0.411466 0.593693 0.341988 0.360790 0.632774 +0.001139 -0.001767 -0.000227 -1.026737 +1.322304 +1.036047 -1.108565 +0.730359 -1.468629 +0.751200 8.941880e-04 7.359449e-03 1
1776409341.319099 jaka_arm_left success 0.187273 0.298179 -0.411477 0.593997 0.342067 0.360896 0.632386 +0.001139 -0.001767 -0.000227 -1.026737 +1.322304 +1.036047 -1.108565 +0.730359 -1.468629 +0.751200 9.496120e-04 6.805707e-03 1
1776409341.327475 jaka_arm_left success 0.187288 0.298238 -0.411493 0.594144 0.342073 0.360862 0.632264 +0.001139 -0.001767 -0.000227 -1.026737 +1.322304 +1.036047 -1.108565 +0.730359 -1.468629 +0.751200 9.924080e-04 6.792063e-03 1
1776409341.335733 jaka_arm_left success 0.187296 0.298224 -0.411514 0.594078 0.342315 0.360611 0.632338 +0.001797 +0.000369 -0.002529 -1.026207 +1.322542 +1.038765 -1.107537 +0.731490 -1.469810 +0.749254 8.221079e-06 6.466946e-06 2
1776409341.344037 jaka_arm_left success 0.187313 0.298218 -0.411548 0.593981 0.342456 0.360483 0.632426 +0.001797 +0.000369 -0.002529 -1.026207 +1.322542 +1.038765 -1.107537 +0.731490 -1.469810 +0.749254 4.543934e-05 4.627121e-04 1
1776409341.352571 jaka_arm_left success 0.187334 0.298237 -0.411572 0.594007 0.342490 0.360447 0.632403 +0.001797 +0.000369 -0.002529 -1.026207 +1.322542 +1.038765 -1.107537 +0.731490 -1.469810 +0.749254 7.650532e-05 5.159115e-04 1
1776409341.360857 jaka_arm_left success 0.187359 0.298239 -0.411609 0.593992 0.342565 0.360405 0.632401 +0.001797 +0.000369 -0.002529 -1.026207 +1.322542 +1.038765 -1.107537 +0.731490 -1.469810 +0.749254 1.211175e-04 6.806510e-04 1
1776409341.369198 jaka_arm_left success 0.187409 0.298226 -0.411646 0.593920 0.342551 0.360389 0.632485 +0.001797 +0.000369 -0.002529 -1.026207 +1.322542 +1.038765 -1.107537 +0.731490 -1.469810 +0.749254 1.806810e-04 7.789562e-04 1
1776409341.377368 jaka_arm_left success 0.187433 0.298222 -0.411677 0.593892 0.342669 0.360425 0.632427 +0.001797 +0.000369 -0.002529 -1.026207 +1.322542 +1.038765 -1.107537 +0.731490 -1.469810 +0.749254 2.198949e-04 8.993264e-04 1
1776409341.385826 jaka_arm_left success 0.187466 0.298238 -0.411697 0.593987 0.342750 0.360370 0.632326 +0.001797 +0.000369 -0.002529 -1.026207 +1.322542 +1.038765 -1.107537 +0.731490 -1.469810 +0.749254 2.569609e-04 1.008770e-03 1
1776409341.394038 jaka_arm_left success 0.187469 0.298314 -0.411713 0.594342 0.342861 0.360520 0.631846 +0.001797 +0.000369 -0.002529 -1.026207 +1.322542 +1.038765 -1.107537 +0.731490 -1.469810 +0.749254 2.839673e-04 1.566572e-03 1
1776409341.402458 jaka_arm_left success 0.187509 0.298282 -0.411744 0.594252 0.343003 0.360475 0.631879 +0.001797 +0.000369 -0.002529 -1.026207 +1.322542 +1.038765 -1.107537 +0.731490 -1.469810 +0.749254 3.249909e-04 1.706676e-03 1
1776409341.410674 jaka_arm_left success 0.187521 0.298438 -0.411736 0.595140 0.342846 0.360587 0.631065 +0.001797 +0.000369 -0.002529 -1.026207 +1.322542 +1.038765 -1.107537 +0.731490 -1.469810 +0.749254 3.854261e-04 3.475782e-03 1
1776409341.419151 jaka_arm_left success 0.187526 0.298579 -0.411740 0.595764 0.342820 0.360689 0.630431 +0.001797 +0.000369 -0.002529 -1.026207 +1.322542 +1.038765 -1.107537 +0.731490 -1.469810 +0.749254 4.814931e-04 5.186538e-03 1
1776409341.427455 jaka_arm_left success 0.187558 0.298575 -0.411755 0.595836 0.342952 0.360552 0.630370 +0.001797 +0.000369 -0.002529 -1.026207 +1.322542 +1.038765 -1.107537 +0.731490 -1.469810 +0.749254 5.022937e-04 5.424531e-03 1
1776409341.435823 jaka_arm_left success 0.187584 0.298566 -0.411777 0.595825 0.343059 0.360414 0.630400 +0.001797 +0.000369 -0.002529 -1.026207 +1.322542 +1.038765 -1.107537 +0.731490 -1.469810 +0.749254 5.215437e-04 5.434466e-03 1
1776409341.444108 jaka_arm_left success 0.187537 0.298551 -0.411831 0.595519 0.343820 0.360267 0.630359 +0.001797 +0.000369 -0.002529 -1.026207 +1.322542 +1.038765 -1.107537 +0.731490 -1.469810 +0.749254 5.180604e-04 5.782082e-03 1
1776409341.452517 jaka_arm_left success 0.187549 0.298580 -0.411845 0.595612 0.343884 0.360025 0.630374 +0.001797 +0.000369 -0.002529 -1.026207 +1.322542 +1.038765 -1.107537 +0.731490 -1.469810 +0.749254 5.506546e-04 5.998836e-03 1
1776409341.460775 jaka_arm_left success 0.187569 0.298609 -0.411859 0.595647 0.343908 0.359846 0.630431 +0.001797 +0.000369 -0.002529 -1.026207 +1.322542 +1.038765 -1.107537 +0.731490 -1.469810 +0.749254 5.872125e-04 6.066914e-03 1
1776409341.469118 jaka_arm_left success 0.187587 0.298633 -0.411868 0.595620 0.343932 0.359611 0.630578 +0.001797 +0.000369 -0.002529 -1.026207 +1.322542 +1.038765 -1.107537 +0.731490 -1.469810 +0.749254 6.167810e-04 6.023553e-03 1
1776409341.477383 jaka_arm_left success 0.187693 0.298568 -0.411925 0.594983 0.343791 0.359081 0.631557 +0.001797 +0.000369 -0.002529 -1.026207 +1.322542 +1.038765 -1.107537 +0.731490 -1.469810 +0.749254 6.710082e-04 4.872340e-03 1
1776409341.485802 jaka_arm_left success 0.187723 0.298644 -0.411937 0.595143 0.343610 0.358758 0.631688 +0.001797 +0.000369 -0.002529 -1.026207 +1.322542 +1.038765 -1.107537 +0.731490 -1.469810 +0.749254 7.368225e-04 5.158912e-03 1
1776409341.494102 jaka_arm_left success 0.187710 0.298637 -0.411961 0.594975 0.343706 0.358560 0.631907 +0.001797 +0.000369 -0.002529 -1.026207 +1.322542 +1.038765 -1.107537 +0.731490 -1.469810 +0.749254 7.396645e-04 5.336277e-03 1
1776409341.502437 jaka_arm_left success 0.187732 0.298555 -0.411971 0.594387 0.343904 0.358166 0.632575 +0.001797 +0.000369 -0.002529 -1.026207 +1.322542 +1.038765 -1.107537 +0.731490 -1.469810 +0.749254 7.175132e-04 5.880595e-03 1
1776409341.510686 jaka_arm_left success 0.187713 0.298564 -0.411968 0.594424 0.343788 0.357874 0.632769 +0.001797 +0.000369 -0.002529 -1.026207 +1.322542 +1.038765 -1.107537 +0.731490 -1.469810 +0.749254 7.082359e-04 6.311104e-03 1
1776409341.519135 jaka_arm_left success 0.187704 0.298593 -0.411961 0.594428 0.343755 0.357821 0.632813 +0.001797 +0.000369 -0.002529 -1.026207 +1.322542 +1.038765 -1.107537 +0.731490 -1.469810 +0.749254 7.127663e-04 6.386582e-03 1
1776409341.527503 jaka_arm_left success 0.187673 0.298589 -0.411951 0.594329 0.343854 0.357943 0.632783 +0.001797 +0.000369 -0.002529 -1.026207 +1.322542 +1.038765 -1.107537 +0.731490 -1.469810 +0.749254 6.866583e-04 6.241565e-03 1
1776409341.535741 jaka_arm_left success 0.187669 0.298583 -0.411951 0.594171 0.343753 0.357997 0.632956 +0.001797 +0.000369 -0.002529 -1.026207 +1.322542 +1.038765 -1.107537 +0.731490 -1.469810 +0.749254 6.812882e-04 6.094128e-03 1
1776409341.544076 jaka_arm_left success 0.187631 0.298464 -0.411944 0.593458 0.344109 0.357953 0.633456 +0.001797 +0.000369 -0.002529 -1.026207 +1.322542 +1.038765 -1.107537 +0.731490 -1.469810 +0.749254 6.002616e-04 6.903511e-03 1
1776409341.552496 jaka_arm_left success 0.187609 0.298371 -0.411932 0.593058 0.344112 0.357842 0.633891 +0.001797 +0.000369 -0.002529 -1.026207 +1.322542 +1.038765 -1.107537 +0.731490 -1.469810 +0.749254 5.479587e-04 7.575945e-03 1
1776409341.560868 jaka_arm_left success 0.187582 0.298350 -0.411915 0.592891 0.344156 0.357902 0.633990 +0.001797 +0.000369 -0.002529 -1.026207 +1.322542 +1.038765 -1.107537 +0.731490 -1.469810 +0.749254 5.139389e-04 7.711556e-03 1
1776409341.569121 jaka_arm_left success 0.187556 0.298348 -0.411900 0.592803 0.344175 0.357891 0.634068 +0.001797 +0.000369 -0.002529 -1.026207 +1.322542 +1.038765 -1.107537 +0.731490 -1.469810 +0.749254 4.870466e-04 7.868442e-03 1
1776409341.577364 jaka_arm_left success 0.187529 0.298351 -0.411892 0.592730 0.344176 0.357875 0.634145 +0.001797 +0.000369 -0.002529 -1.026207 +1.322542 +1.038765 -1.107537 +0.731490 -1.469810 +0.749254 4.670426e-04 8.008369e-03 1
1776409341.585815 jaka_arm_left success 0.187506 0.298354 -0.411876 0.592674 0.344223 0.357940 0.634135 +0.001797 +0.000369 -0.002529 -1.026207 +1.322542 +1.038765 -1.107537 +0.731490 -1.469810 +0.749254 4.432186e-04 7.994356e-03 1
1776409341.594195 jaka_arm_left success 0.187484 0.298359 -0.411861 0.592655 0.344265 0.357895 0.634155 +0.001797 +0.000369 -0.002529 -1.026207 +1.322542 +1.038765 -1.107537 +0.731490 -1.469810 +0.749254 4.218447e-04 8.125967e-03 1
1776409341.602469 jaka_arm_left success 0.187449 0.298412 -0.411827 0.592862 0.344275 0.357670 0.634084 +0.001797 +0.000369 -0.002529 -1.026207 +1.322542 +1.038765 -1.107537 +0.731490 -1.469810 +0.749254 3.994893e-04 8.250808e-03 1
1776409341.610692 jaka_arm_left success 0.187432 0.298420 -0.411821 0.592835 0.344302 0.357680 0.634088 +0.001797 +0.000369 -0.002529 -1.026207 +1.322542 +1.038765 -1.107537 +0.731490 -1.469810 +0.749254 3.920634e-04 8.281851e-03 1
1776409341.619077 jaka_arm_left success 0.187430 0.298435 -0.411830 0.592831 0.344186 0.357600 0.634200 +0.001797 +0.000369 -0.002529 -1.026207 +1.322542 +1.038765 -1.107537 +0.731490 -1.469810 +0.749254 4.059713e-04 8.388139e-03 1
1776409341.627479 jaka_arm_left success 0.187420 0.298422 -0.411839 0.592718 0.344221 0.357591 0.634291 +0.001797 +0.000369 -0.002529 -1.026207 +1.322542 +1.038765 -1.107537 +0.731490 -1.469810 +0.749254 4.034022e-04 8.583507e-03 1
1776409341.635794 jaka_arm_left success 0.187408 0.298407 -0.411848 0.592680 0.344242 0.357416 0.634414 +0.001797 +0.000369 -0.002529 -1.026207 +1.322542 +1.038765 -1.107537 +0.731490 -1.469810 +0.749254 4.001964e-04 8.986185e-03 1
1776409341.644008 jaka_arm_left success 0.187398 0.298397 -0.411855 0.592688 0.344320 0.357377 0.634386 +0.001797 +0.000369 -0.002529 -1.026207 +1.322542 +1.038765 -1.107537 +0.731490 -1.469810 +0.749254 3.989885e-04 9.079010e-03 1
1776409341.652412 jaka_arm_left success 0.187427 0.298376 -0.411881 0.592704 0.344162 0.357045 0.634644 +0.001797 +0.000369 -0.002529 -1.026207 +1.322542 +1.038765 -1.107537 +0.731490 -1.469810 +0.749254 4.221984e-04 9.661461e-03 1
1776409341.660757 jaka_arm_left success 0.187449 0.298362 -0.411899 0.592803 0.344088 0.356792 0.634734 +0.001797 +0.000369 -0.002529 -1.026207 +1.322542 +1.038765 -1.107537 +0.731490 -1.469810 +0.749254 4.410137e-04 1.001940e-02 1
1776409341.669136 jaka_arm_left success 0.187457 0.298309 -0.411914 0.592861 0.344191 0.356535 0.634769 +0.001797 +0.000369 -0.002529 -1.026207 +1.322542 +1.038765 -1.107537 +0.731490 -1.469810 +0.749254 4.445109e-04 1.049295e-02 1
1776409341.677442 jaka_arm_left success 0.187487 0.298264 -0.411927 0.593030 0.344132 0.356296 0.634778 +0.001797 +0.000369 -0.002529 -1.026207 +1.322542 +1.038765 -1.107537 +0.731490 -1.469810 +0.749254 4.625087e-04 1.076535e-02 1
1776409341.685816 jaka_arm_left success 0.187538 0.298179 -0.411956 0.592995 0.344133 0.356397 0.634752 +0.001797 +0.000369 -0.002529 -1.026207 +1.322542 +1.038765 -1.107537 +0.731490 -1.469810 +0.749254 5.125732e-04 1.059510e-02 1
1776409341.694074 jaka_arm_left success 0.187492 0.298185 -0.411974 0.593817 0.343935 0.356065 0.634277 +0.001797 +0.000369 -0.002529 -1.026207 +1.322542 +1.038765 -1.107537 +0.731490 -1.469810 +0.749254 5.077824e-04 1.041422e-02 1
1776409341.702411 jaka_arm_left success 0.187461 0.298265 -0.411980 0.594706 0.343676 0.356375 0.633410 +0.001797 +0.000369 -0.002529 -1.026207 +1.322542 +1.038765 -1.107537 +0.731490 -1.469810 +0.749254 5.014042e-04 9.236802e-03 1
1776409341.710648 jaka_arm_left success 0.187531 0.298339 -0.411969 0.595597 0.342817 0.356658 0.632879 +0.001797 +0.000369 -0.002529 -1.026207 +1.322542 +1.038765 -1.107537 +0.731490 -1.469810 +0.749254 5.301049e-04 8.594322e-03 1
1776409341.719086 jaka_arm_left success 0.187509 0.298267 -0.411962 0.595804 0.342903 0.356900 0.632501 +0.001797 +0.000369 -0.002529 -1.026207 +1.322542 +1.038765 -1.107537 +0.731490 -1.469810 +0.749254 5.036860e-04 8.272406e-03 1
1776409341.727465 jaka_arm_left success 0.187487 0.298131 -0.411964 0.595770 0.342953 0.356764 0.632583 +0.001797 +0.000369 -0.002529 -1.026207 +1.322542 +1.038765 -1.107537 +0.731490 -1.469810 +0.749254 5.042028e-04 8.512265e-03 1
1776409341.735755 jaka_arm_left success 0.187453 0.298051 -0.411990 0.595779 0.342819 0.356848 0.632599 +0.001797 +0.000369 -0.002529 -1.026207 +1.322542 +1.038765 -1.107537 +0.731490 -1.469810 +0.749254 5.368009e-04 8.333448e-03 1
1776409341.744058 jaka_arm_left success 0.187429 0.298012 -0.411997 0.595977 0.342691 0.356849 0.632482 +0.001797 +0.000369 -0.002529 -1.026207 +1.322542 +1.038765 -1.107537 +0.731490 -1.469810 +0.749254 5.504444e-04 8.463085e-03 1
1776409341.752595 jaka_arm_left success 0.187422 0.297803 -0.412022 0.595429 0.342702 0.356480 0.633199 +0.001797 +0.000369 -0.002529 -1.026207 +1.322542 +1.038765 -1.107537 +0.731490 -1.469810 +0.749254 6.782290e-04 8.892849e-03 1
1776409341.760951 jaka_arm_left success 0.187414 0.297766 -0.412022 0.595524 0.342644 0.356376 0.633200 +0.001797 +0.000369 -0.002529 -1.026207 +1.322542 +1.038765 -1.107537 +0.731490 -1.469810 +0.749254 7.005414e-04 9.135920e-03 1
1776409341.769167 jaka_arm_left success 0.187425 0.297671 -0.412029 0.595447 0.342618 0.356254 0.633355 +0.001797 +0.000369 -0.002529 -1.026207 +1.322542 +1.038765 -1.107537 +0.731490 -1.469810 +0.749254 7.730560e-04 9.375136e-03 1
1776409341.777390 jaka_arm_left success 0.187401 0.297593 -0.412049 0.595429 0.342734 0.355999 0.633453 +0.001797 +0.000369 -0.002529 -1.026207 +1.322542 +1.038765 -1.107537 +0.731490 -1.469810 +0.749254 8.401335e-04 9.900258e-03 1
1776409341.785820 jaka_arm_left success 0.187375 0.297623 -0.412058 0.595757 0.342739 0.356255 0.632998 +0.001797 +0.000369 -0.002529 -1.026207 +1.322542 +1.038765 -1.107537 +0.731490 -1.469810 +0.749254 8.205522e-04 9.464838e-03 1
1776409341.794133 jaka_arm_left success 0.187373 0.297600 -0.412075 0.595843 0.342726 0.356364 0.632863 +0.001797 +0.000369 -0.002529 -1.026207 +1.322542 +1.038765 -1.107537 +0.731490 -1.469810 +0.749254 8.486698e-04 9.291455e-03 1
1776409341.802460 jaka_arm_left success 0.187378 0.297584 -0.412092 0.595927 0.342690 0.356370 0.632799 +0.001797 +0.000369 -0.002529 -1.026207 +1.322542 +1.038765 -1.107537 +0.731490 -1.469810 +0.749254 8.723187e-04 9.326002e-03 1
1776409341.810689 jaka_arm_left success 0.187368 0.297562 -0.412119 0.595966 0.342689 0.356340 0.632780 +0.001797 +0.000369 -0.002529 -1.026207 +1.322542 +1.038765 -1.107537 +0.731490 -1.469810 +0.749254 9.056725e-04 9.407760e-03 1
1776409341.819178 jaka_arm_left success 0.187340 0.297548 -0.412142 0.596016 0.342780 0.356330 0.632690 +0.001797 +0.000369 -0.002529 -1.026207 +1.322542 +1.038765 -1.107537 +0.731490 -1.469810 +0.749254 9.295319e-04 9.467285e-03 1
1776409341.827496 jaka_arm_left success 0.187325 0.297533 -0.412163 0.596003 0.342853 0.356392 0.632627 +0.001797 +0.000369 -0.002529 -1.026207 +1.322542 +1.038765 -1.107537 +0.731490 -1.469810 +0.749254 9.541236e-04 9.351517e-03 1
1776409341.835800 jaka_arm_left success 0.187286 0.297524 -0.412171 0.595917 0.343028 0.356513 0.632545 +0.001797 +0.000369 -0.002529 -1.026207 +1.322542 +1.038765 -1.107537 +0.731490 -1.469810 +0.749254 9.655216e-04 9.101796e-03 1
1776409341.844046 jaka_arm_left success 0.187227 0.297527 -0.412172 0.595782 0.343303 0.356538 0.632509 +0.001797 +0.000369 -0.002529 -1.026207 +1.322542 +1.038765 -1.107537 +0.731490 -1.469810 +0.749254 9.660634e-04 9.051396e-03 1
1776409341.852594 jaka_arm_left success 0.187169 0.297450 -0.412182 0.595293 0.343571 0.356386 0.632910 +0.002945 +0.000002 -0.004200 -1.021832 +1.320221 +1.040107 -1.108210 +0.732019 -1.469977 +0.743843 3.985878e-06 1.474635e-05 2
1776409341.860862 jaka_arm_left success 0.187122 0.297504 -0.412196 0.595116 0.343677 0.356367 0.633029 +0.002945 +0.000002 -0.004200 -1.021832 +1.320221 +1.040107 -1.108210 +0.732019 -1.469977 +0.743843 7.214873e-05 4.791216e-04 1
1776409341.869141 jaka_arm_left success 0.187030 0.297596 -0.412205 0.595033 0.343869 0.356404 0.632982 +0.002945 +0.000002 -0.004200 -1.021832 +1.320221 +1.040107 -1.108210 +0.732019 -1.469977 +0.743843 2.020363e-04 7.995103e-04 1
1776409341.877376 jaka_arm_left success 0.186978 0.297739 -0.412196 0.595102 0.343888 0.356313 0.632958 +0.002945 +0.000002 -0.004200 -1.021832 +1.320221 +1.040107 -1.108210 +0.732019 -1.469977 +0.743843 3.451024e-04 7.532510e-04 1
1776409341.885769 jaka_arm_left success 0.186940 0.297835 -0.412208 0.594847 0.343833 0.356136 0.633327 +0.002945 +0.000002 -0.004200 -1.021832 +1.320221 +1.040107 -1.108210 +0.732019 -1.469977 +0.743843 4.469941e-04 1.422130e-03 1
1776409341.894120 jaka_arm_left success 0.186917 0.297876 -0.412255 0.594309 0.343946 0.356018 0.633837 +0.002945 +0.000002 -0.004200 -1.021832 +1.320221 +1.040107 -1.108210 +0.732019 -1.469977 +0.743843 4.987464e-04 2.904992e-03 1
1776409341.902461 jaka_arm_left success 0.186860 0.297911 -0.412295 0.593602 0.344417 0.355713 0.634414 +0.002945 +0.000002 -0.004200 -1.021832 +1.320221 +1.040107 -1.108210 +0.732019 -1.469977 +0.743843 5.650850e-04 5.018953e-03 1
1776409341.910697 jaka_arm_left success 0.186719 0.298179 -0.412294 0.594162 0.344046 0.355826 0.634028 +0.002945 +0.000002 -0.004200 -1.021832 +1.320221 +1.040107 -1.108210 +0.732019 -1.469977 +0.743843 8.624530e-04 3.507255e-03 1
1776409341.919069 jaka_arm_left success 0.186667 0.298321 -0.412275 0.594287 0.343832 0.355998 0.633931 +0.002222 +0.001785 -0.004436 -1.023003 +1.322034 +1.041349 -1.107056 +0.731710 -1.470896 +0.743876 2.732328e-06 1.944059e-06 2
1776409341.927480 jaka_arm_left success 0.186556 0.298397 -0.412246 0.594230 0.344106 0.356309 0.633660 +0.002222 +0.001785 -0.004436 -1.023003 +1.322034 +1.041349 -1.107056 +0.731710 -1.470896 +0.743876 1.375390e-04 9.987510e-04 1
1776409341.935794 jaka_arm_left success 0.186510 0.298443 -0.412230 0.594068 0.344171 0.356379 0.633737 +0.002222 +0.001785 -0.004436 -1.023003 +1.322034 +1.041349 -1.107056 +0.731710 -1.470896 +0.743876 2.037587e-04 1.177561e-03 1
1776409341.943985 jaka_arm_left success 0.186441 0.298573 -0.412192 0.594315 0.343982 0.356466 0.633560 +0.002222 +0.001785 -0.004436 -1.023003 +1.322034 +1.041349 -1.107056 +0.731710 -1.470896 +0.743876 3.483999e-04 1.234216e-03 1
1776409341.952524 jaka_arm_left success 0.186411 0.298671 -0.412162 0.594520 0.343831 0.356258 0.633567 +0.002222 +0.001785 -0.004436 -1.023003 +1.322034 +1.041349 -1.107056 +0.731710 -1.470896 +0.743876 4.479572e-04 1.009669e-03 1
1776409341.960757 jaka_arm_left success 0.186440 0.298498 -0.412169 0.593544 0.343983 0.355624 0.634755 +0.002222 +0.001785 -0.004436 -1.023003 +1.322034 +1.041349 -1.107056 +0.731710 -1.470896 +0.743876 3.062899e-04 2.360535e-03 1
1776409341.969167 jaka_arm_left success 0.186414 0.298565 -0.412150 0.593588 0.343840 0.355445 0.634890 +0.002222 +0.001785 -0.004436 -1.023003 +1.322034 +1.041349 -1.107056 +0.731710 -1.470896 +0.743876 3.726449e-04 2.617645e-03 1
1776409341.977345 jaka_arm_left success 0.186462 0.298557 -0.412149 0.592944 0.343854 0.355609 0.635393 +0.002222 +0.001785 -0.004436 -1.023003 +1.322034 +1.041349 -1.107056 +0.731710 -1.470896 +0.743876 3.365333e-04 4.045488e-03 1
1776409341.985867 jaka_arm_left success 0.186438 0.298675 -0.412161 0.593097 0.343612 0.355768 0.635292 +0.002222 +0.001785 -0.004436 -1.023003 +1.322034 +1.041349 -1.107056 +0.731710 -1.470896 +0.743876 4.365764e-04 3.670481e-03 1
1776409341.994109 jaka_arm_left success 0.186430 0.298747 -0.412164 0.593152 0.343448 0.355889 0.635262 +0.002222 +0.001785 -0.004436 -1.023003 +1.322034 +1.041349 -1.107056 +0.731710 -1.470896 +0.743876 4.999004e-04 3.587391e-03 1
1776409342.002474 jaka_arm_left success 0.186467 0.298852 -0.412193 0.593240 0.343119 0.356143 0.635215 +0.002222 +0.001785 -0.004436 -1.023003 +1.322034 +1.041349 -1.107056 +0.731710 -1.470896 +0.743876 5.734600e-04 3.617817e-03 1
1776409342.019105 jaka_arm_left success 0.186545 0.298852 -0.412228 0.592634 0.343156 0.356814 0.635384 +0.002222 +0.001785 -0.004436 -1.023003 +1.322034 +1.041349 -1.107056 +0.731710 -1.470896 +0.743876 5.471513e-04 4.884562e-03 1
1776409342.027434 jaka_arm_left success 0.186489 0.299296 -0.412219 0.594126 0.342576 0.357029 0.634181 +0.002222 +0.001785 -0.004436 -1.023003 +1.322034 +1.041349 -1.107056 +0.731710 -1.470896 +0.743876 9.930591e-04 3.302942e-03 1
1776409342.035809 jaka_arm_left success 0.186542 0.299316 -0.412238 0.593883 0.342750 0.356902 0.634387 +0.001302 +0.003571 -0.004644 -1.025617 +1.323623 +1.042104 -1.105952 +0.732234 -1.471588 +0.746650 1.992409e-06 1.455313e-06 2
1776409342.044059 jaka_arm_left success 0.186556 0.299368 -0.412257 0.593693 0.343315 0.356593 0.634433 +0.001302 +0.003571 -0.004644 -1.025617 +1.323623 +1.042104 -1.105952 +0.732234 -1.471588 +0.746650 5.849118e-05 1.345949e-03 1
1776409342.052946 jaka_arm_left success 0.186647 0.299456 -0.412261 0.593689 0.343350 0.356376 0.634540 +0.001302 +0.003571 -0.004644 -1.025617 +1.323623 +1.042104 -1.105952 +0.732234 -1.471588 +0.746650 1.772675e-04 1.670482e-03 1
1776409342.060822 jaka_arm_left success 0.186738 0.299566 -0.412241 0.593867 0.343398 0.356086 0.634510 +0.001302 +0.003571 -0.004644 -1.025617 +1.323623 +1.042104 -1.105952 +0.732234 -1.471588 +0.746650 3.182304e-04 2.098876e-03 1
1776409342.069148 jaka_arm_left success 0.186821 0.299589 -0.412233 0.593679 0.343646 0.355903 0.634654 +0.001302 +0.003571 -0.004644 -1.025617 +1.323623 +1.042104 -1.105952 +0.732234 -1.471588 +0.746650 3.907489e-04 2.766705e-03 1
1776409342.077383 jaka_arm_left success 0.186887 0.299664 -0.412227 0.593659 0.343903 0.356003 0.634477 +0.001302 +0.003571 -0.004644 -1.025617 +1.323623 +1.042104 -1.105952 +0.732234 -1.471588 +0.746650 4.905231e-04 2.963810e-03 1
1776409342.085877 jaka_arm_left success 0.186942 0.299729 -0.412209 0.593666 0.344030 0.356157 0.634316 +0.001302 +0.003571 -0.004644 -1.025617 +1.323623 +1.042104 -1.105952 +0.732234 -1.471588 +0.746650 5.760176e-04 2.997258e-03 1
1776409342.094134 jaka_arm_left success 0.187007 0.299807 -0.412175 0.593727 0.344110 0.356332 0.634117 +0.001302 +0.003571 -0.004644 -1.025617 +1.323623 +1.042104 -1.105952 +0.732234 -1.471588 +0.746650 6.794480e-04 3.014847e-03 1
1776409342.102465 jaka_arm_left success 0.187054 0.299868 -0.412143 0.593704 0.344141 0.356531 0.634010 +0.001302 +0.003571 -0.004644 -1.025617 +1.323623 +1.042104 -1.105952 +0.732234 -1.471588 +0.746650 7.590943e-04 2.998228e-03 1
1776409342.110689 jaka_arm_left success 0.187138 0.299837 -0.412149 0.593193 0.344367 0.356587 0.634334 +0.001302 +0.003571 -0.004644 -1.025617 +1.323623 +1.042104 -1.105952 +0.732234 -1.471588 +0.746650 7.967482e-04 3.573620e-03 1
1776409342.119160 jaka_arm_left success 0.187184 0.299970 -0.412108 0.593445 0.344144 0.356678 0.634168 +0.001302 +0.003571 -0.004644 -1.025617 +1.323623 +1.042104 -1.105952 +0.732234 -1.471588 +0.746650 9.257998e-04 2.988930e-03 1
1776409342.127484 jaka_arm_left success 0.187287 0.299930 -0.412123 0.592956 0.344181 0.356838 0.634514 +0.001302 +0.003571 -0.004644 -1.025617 +1.323623 +1.042104 -1.105952 +0.732234 -1.471588 +0.746650 9.723391e-04 3.421504e-03 1
1776409342.135751 jaka_arm_left success 0.187319 0.300012 -0.412089 0.593195 0.344231 0.356524 0.634441 +0.002515 +0.003582 -0.004221 -1.024208 +1.323253 +1.041447 -1.106371 +0.730769 -1.471155 +0.743794 2.181823e-06 2.825049e-06 2
1776409342.144038 jaka_arm_left success 0.187366 0.300125 -0.412064 0.593488 0.344168 0.356290 0.634333 +0.002515 +0.003582 -0.004221 -1.024208 +1.323253 +1.041447 -1.106371 +0.730769 -1.471155 +0.743794 1.254692e-04 7.925534e-04 1
1776409342.152516 jaka_arm_left success 0.187464 0.300191 -0.412060 0.593621 0.343886 0.356284 0.634365 +0.002515 +0.003582 -0.004221 -1.024208 +1.323253 +1.041447 -1.106371 +0.730769 -1.471155 +0.743794 2.327020e-04 1.207368e-03 1
1776409342.160789 jaka_arm_left success 0.187533 0.300245 -0.412048 0.593747 0.343795 0.356596 0.634121 +0.002515 +0.003582 -0.004221 -1.024208 +1.323253 +1.041447 -1.106371 +0.730769 -1.471155 +0.743794 3.194734e-04 1.553057e-03 1
1776409342.169143 jaka_arm_left success 0.187594 0.300196 -0.412051 0.593417 0.344072 0.356445 0.634364 +0.002515 +0.003582 -0.004221 -1.024208 +1.323253 +1.041447 -1.106371 +0.730769 -1.471155 +0.743794 3.333411e-04 5.901090e-04 1
1776409342.177383 jaka_arm_left success 0.187618 0.300284 -0.412053 0.594013 0.343858 0.356482 0.633902 +0.002515 +0.003582 -0.004221 -1.024208 +1.323253 +1.041447 -1.106371 +0.730769 -1.471155 +0.743794 4.062778e-04 2.099626e-03 1
1776409342.185834 jaka_arm_left success 0.187632 0.300355 -0.412074 0.594472 0.343707 0.356521 0.633531 +0.002515 +0.003582 -0.004221 -1.024208 +1.323253 +1.041447 -1.106371 +0.730769 -1.471155 +0.743794 4.652434e-04 3.308156e-03 1
1776409342.194114 jaka_arm_left success 0.187678 0.300320 -0.412113 0.594417 0.343845 0.356679 0.633418 +0.002515 +0.003582 -0.004221 -1.024208 +1.323253 +1.041447 -1.106371 +0.730769 -1.471155 +0.743794 4.743347e-04 3.295748e-03 1
1776409342.202498 jaka_arm_left success 0.187758 0.300249 -0.412189 0.594239 0.343855 0.357005 0.633396 +0.002515 +0.003582 -0.004221 -1.024208 +1.323253 +1.041447 -1.106371 +0.730769 -1.471155 +0.743794 5.095913e-04 3.197963e-03 1
1776409342.210730 jaka_arm_left success 0.187766 0.300191 -0.412242 0.594296 0.344017 0.356799 0.633371 +0.002515 +0.003582 -0.004221 -1.024208 +1.323253 +1.041447 -1.106371 +0.730769 -1.471155 +0.743794 5.060918e-04 3.150343e-03 1
1776409342.219115 jaka_arm_left success 0.187804 0.300162 -0.412286 0.594426 0.344075 0.356809 0.633212 +0.002515 +0.003582 -0.004221 -1.024208 +1.323253 +1.041447 -1.106371 +0.730769 -1.471155 +0.743794 5.454370e-04 3.540911e-03 1
1776409342.227483 jaka_arm_left success 0.187832 0.300124 -0.412331 0.594596 0.344171 0.356694 0.633065 +0.002515 +0.003582 -0.004221 -1.024208 +1.323253 +1.041447 -1.106371 +0.730769 -1.471155 +0.743794 5.790759e-04 3.945923e-03 1
1776409342.235747 jaka_arm_left success 0.187844 0.300177 -0.412368 0.595197 0.344279 0.356663 0.632458 +0.002515 +0.003582 -0.004221 -1.024208 +1.323253 +1.041447 -1.106371 +0.730769 -1.471155 +0.743794 6.180565e-04 5.645471e-03 1
1776409342.244107 jaka_arm_left success 0.187888 0.300148 -0.412401 0.595422 0.344378 0.356525 0.632271 +0.002515 +0.003582 -0.004221 -1.024208 +1.323253 +1.041447 -1.106371 +0.730769 -1.471155 +0.743794 6.640470e-04 6.227963e-03 1
1776409342.252530 jaka_arm_left success 0.187994 0.299990 -0.412440 0.595140 0.344474 0.356316 0.632601 +0.002515 +0.003582 -0.004221 -1.024208 +1.323253 +1.041447 -1.106371 +0.730769 -1.471155 +0.743794 7.618774e-04 5.395274e-03 1
1776409342.261000 jaka_arm_left success 0.188081 0.299879 -0.412460 0.595078 0.344645 0.356198 0.632634 +0.002515 +0.003582 -0.004221 -1.024208 +1.323253 +1.041447 -1.106371 +0.730769 -1.471155 +0.743794 8.584538e-04 5.327345e-03 1
1776409342.269118 jaka_arm_left success 0.188132 0.299840 -0.412470 0.595330 0.344532 0.356160 0.632479 +0.002515 +0.003582 -0.004221 -1.024208 +1.323253 +1.041447 -1.106371 +0.730769 -1.471155 +0.743794 9.146734e-04 5.878031e-03 1
1776409342.277393 jaka_arm_left success 0.188162 0.299770 -0.412484 0.595434 0.344579 0.356152 0.632361 +0.002515 +0.003582 -0.004221 -1.024208 +1.323253 +1.041447 -1.106371 +0.730769 -1.471155 +0.743794 9.623149e-04 6.198858e-03 1
1776409342.285779 jaka_arm_left success 0.188188 0.299738 -0.412502 0.595650 0.344511 0.356193 0.632171 +0.004224 +0.001469 -0.004115 -1.020830 +1.319163 +1.039303 -1.107902 +0.731862 -1.468919 +0.742746 8.817169e-06 7.518231e-06 2
1776409342.294154 jaka_arm_left success 0.188217 0.299689 -0.412543 0.595738 0.344500 0.356164 0.632110 +0.004224 +0.001469 -0.004115 -1.020830 +1.319163 +1.039303 -1.107902 +0.731862 -1.468919 +0.742746 7.366892e-05 2.248693e-04 1
1776409342.302469 jaka_arm_left success 0.188235 0.299645 -0.412571 0.595877 0.344414 0.356024 0.632104 +0.004224 +0.001469 -0.004115 -1.020830 +1.319163 +1.039303 -1.107902 +0.731862 -1.468919 +0.742746 1.280501e-04 6.124399e-04 1
1776409342.310648 jaka_arm_left success 0.188227 0.299611 -0.412575 0.596157 0.344377 0.355856 0.631956 +0.004224 +0.001469 -0.004115 -1.020830 +1.319163 +1.039303 -1.107902 +0.731862 -1.468919 +0.742746 1.542015e-04 1.319187e-03 1
1776409342.319184 jaka_arm_left success 0.188268 0.299527 -0.412599 0.596091 0.344385 0.355850 0.632016 +0.004224 +0.001469 -0.004115 -1.020830 +1.319163 +1.039303 -1.107902 +0.731862 -1.468919 +0.742746 2.472356e-04 1.186761e-03 1
1776409342.327446 jaka_arm_left success 0.188278 0.299402 -0.412630 0.595979 0.344507 0.355632 0.632178 +0.004224 +0.001469 -0.004115 -1.020830 +1.319163 +1.039303 -1.107902 +0.731862 -1.468919 +0.742746 3.719367e-04 1.301268e-03 1
1776409342.335843 jaka_arm_left success 0.188294 0.299330 -0.412655 0.596038 0.344519 0.355515 0.632182 +0.004224 +0.001469 -0.004115 -1.020830 +1.319163 +1.039303 -1.107902 +0.731862 -1.468919 +0.742746 4.496992e-04 1.563126e-03 1
1776409342.344056 jaka_arm_left success 0.188305 0.299332 -0.412671 0.596561 0.344287 0.355463 0.631845 +0.004224 +0.001469 -0.004115 -1.020830 +1.319163 +1.039303 -1.107902 +0.731862 -1.468919 +0.742746 4.565379e-04 2.465496e-03 1
1776409342.352525 jaka_arm_left success 0.188393 0.299328 -0.412680 0.596871 0.343907 0.355538 0.631717 +0.004224 +0.001469 -0.004115 -1.020830 +1.319163 +1.039303 -1.107902 +0.731862 -1.468919 +0.742746 4.928149e-04 3.155495e-03 1
1776409342.360741 jaka_arm_left success 0.188497 0.299239 -0.412689 0.597090 0.343522 0.355131 0.631948 +0.004224 +0.001469 -0.004115 -1.020830 +1.319163 +1.039303 -1.107902 +0.731862 -1.468919 +0.742746 6.163905e-04 4.110793e-03 1
1776409342.369133 jaka_arm_left success 0.188556 0.299110 -0.412719 0.597048 0.343615 0.354775 0.632137 +0.004224 +0.001469 -0.004115 -1.020830 +1.319163 +1.039303 -1.107902 +0.731862 -1.468919 +0.742746 7.597908e-04 4.365537e-03 1
1776409342.377348 jaka_arm_left success 0.188526 0.299109 -0.412732 0.597942 0.343512 0.354493 0.631506 +0.004224 +0.001469 -0.004115 -1.020830 +1.319163 +1.039303 -1.107902 +0.731862 -1.468919 +0.742746 7.506872e-04 6.190639e-03 1
1776409342.385763 jaka_arm_left success 0.188540 0.299008 -0.412765 0.598125 0.343583 0.354499 0.631291 +0.004224 +0.001469 -0.004115 -1.020830 +1.319163 +1.039303 -1.107902 +0.731862 -1.468919 +0.742746 8.526168e-04 6.520641e-03 1
1776409342.394157 jaka_arm_left success 0.188586 0.298910 -0.412803 0.598343 0.343478 0.354661 0.631050 +0.004224 +0.001469 -0.004115 -1.020830 +1.319163 +1.039303 -1.107902 +0.731862 -1.468919 +0.742746 9.673391e-04 6.905676e-03 1
1776409342.402442 jaka_arm_left success 0.188667 0.298785 -0.412832 0.598405 0.343373 0.354845 0.630945 +0.005154 -0.000041 -0.005241 -1.018306 +1.315435 +1.038756 -1.109382 +0.733866 -1.468068 +0.742366 5.629985e-06 4.643357e-06 2
1776409342.410668 jaka_arm_left success 0.188715 0.298684 -0.412865 0.598664 0.343292 0.354852 0.630739 +0.005154 -0.000041 -0.005241 -1.018306 +1.315435 +1.038756 -1.109382 +0.733866 -1.468068 +0.742366 1.175063e-04 6.816223e-04 1
1776409342.419245 jaka_arm_left success 0.188761 0.298569 -0.412941 0.598788 0.343250 0.354695 0.630733 +0.005154 -0.000041 -0.005241 -1.018306 +1.315435 +1.038756 -1.109382 +0.733866 -1.468068 +0.742366 2.611299e-04 9.570421e-04 1
1776409342.427688 jaka_arm_left success 0.188812 0.298431 -0.413020 0.598941 0.343327 0.354547 0.630628 +0.005154 -0.000041 -0.005241 -1.018306 +1.315435 +1.038756 -1.109382 +0.733866 -1.468068 +0.742366 4.279543e-04 1.383921e-03 1
1776409342.435757 jaka_arm_left success 0.188927 0.298306 -0.413121 0.598906 0.343026 0.354222 0.631009 +0.005154 -0.000041 -0.005241 -1.018306 +1.315435 +1.038756 -1.109382 +0.733866 -1.468068 +0.742366 6.183842e-04 1.745289e-03 1
1776409342.444063 jaka_arm_left success 0.189036 0.298177 -0.413192 0.598819 0.343097 0.354210 0.631059 +0.005154 -0.000041 -0.005241 -1.018306 +1.315435 +1.038756 -1.109382 +0.733866 -1.468068 +0.742366 7.983893e-04 1.627111e-03 1
1776409342.452475 jaka_arm_left success 0.189090 0.298142 -0.413247 0.599331 0.343186 0.354260 0.630496 +0.005154 -0.000041 -0.005241 -1.018306 +1.315435 +1.038756 -1.109382 +0.733866 -1.468068 +0.742366 8.756690e-04 2.396461e-03 1
1776409342.460877 jaka_arm_left success 0.189166 0.298156 -0.413311 0.599996 0.342823 0.354429 0.629966 +0.005154 -0.000041 -0.005241 -1.018306 +1.315435 +1.038756 -1.109382 +0.733866 -1.468068 +0.742366 9.361061e-04 3.982103e-03 1
1776409342.469138 jaka_arm_left success 0.189276 0.298167 -0.413369 0.600499 0.342636 0.354533 0.629529 +0.005941 -0.001200 -0.005786 -1.017158 +1.313197 +1.038122 -1.109750 +0.735776 -1.466825 +0.743508 3.028845e-06 4.183096e-06 2
1776409342.477371 jaka_arm_left success 0.189379 0.298028 -0.413435 0.600554 0.342677 0.354173 0.629657 +0.005941 -0.001200 -0.005786 -1.017158 +1.313197 +1.038122 -1.109750 +0.735776 -1.466825 +0.743508 1.861876e-04 7.771790e-04 1
1776409342.485902 jaka_arm_left success 0.189525 0.297848 -0.413494 0.600315 0.342845 0.354196 0.629781 +0.005941 -0.001200 -0.005786 -1.017158 +1.313197 +1.038122 -1.109750 +0.735776 -1.466825 +0.743508 4.243530e-04 1.010899e-03 1
1776409342.494209 jaka_arm_left success 0.189569 0.297743 -0.413539 0.600467 0.343241 0.354042 0.629508 +0.005941 -0.001200 -0.005786 -1.017158 +1.313197 +1.038122 -1.109750 +0.735776 -1.466825 +0.743508 5.436287e-04 1.563842e-03 1
1776409342.502489 jaka_arm_left success 0.189639 0.297616 -0.413611 0.600468 0.343494 0.354061 0.629357 +0.005941 -0.001200 -0.005786 -1.017158 +1.313197 +1.038122 -1.109750 +0.735776 -1.466825 +0.743508 7.038405e-04 1.993465e-03 1
1776409342.510681 jaka_arm_left success 0.189667 0.297616 -0.413660 0.601307 0.343411 0.353693 0.628808 +0.005941 -0.001200 -0.005786 -1.017158 +1.313197 +1.038122 -1.109750 +0.735776 -1.466825 +0.743508 7.367755e-04 3.151712e-03 1
1776409342.519054 jaka_arm_left success 0.189737 0.297605 -0.413713 0.601932 0.343367 0.353688 0.628237 +0.005941 -0.001200 -0.005786 -1.017158 +1.313197 +1.038122 -1.109750 +0.735776 -1.466825 +0.743508 8.053266e-04 4.461329e-03 1
1776409342.527399 jaka_arm_left success 0.189885 0.297430 -0.413762 0.601763 0.343633 0.353559 0.628326 +0.007417 -0.003046 -0.005755 -1.014151 +1.310753 +1.037023 -1.110627 +0.736100 -1.465387 +0.741325 4.796379e-06 2.264344e-06 2
1776409342.535741 jaka_arm_left success 0.189993 0.297326 -0.413786 0.601955 0.343769 0.352973 0.628397 +0.007417 -0.003046 -0.005755 -1.014151 +1.310753 +1.037023 -1.110627 +0.736100 -1.465387 +0.741325 1.514219e-04 1.272613e-03 1
1776409342.544146 jaka_arm_left success 0.190095 0.297200 -0.413829 0.601988 0.343780 0.352662 0.628534 +0.007417 -0.003046 -0.005755 -1.014151 +1.310753 +1.037023 -1.110627 +0.736100 -1.465387 +0.741325 3.183968e-04 1.919938e-03 1
1776409342.552529 jaka_arm_left success 0.190232 0.297177 -0.413858 0.602326 0.343345 0.352496 0.628541 +0.007417 -0.003046 -0.005755 -1.014151 +1.310753 +1.037023 -1.110627 +0.736100 -1.465387 +0.741325 4.398157e-04 2.512031e-03 1
1776409342.560863 jaka_arm_left success 0.190332 0.297104 -0.413898 0.602494 0.343150 0.352307 0.628592 +0.007417 -0.003046 -0.005755 -1.014151 +1.310753 +1.037023 -1.110627 +0.736100 -1.465387 +0.741325 5.695924e-04 3.103238e-03 1
1776409342.569212 jaka_arm_left success 0.190411 0.297021 -0.413933 0.602690 0.343032 0.351927 0.628681 +0.007417 -0.003046 -0.005755 -1.014151 +1.310753 +1.037023 -1.110627 +0.736100 -1.465387 +0.741325 6.878199e-04 4.006037e-03 1
1776409342.577380 jaka_arm_left success 0.190548 0.296844 -0.413996 0.602409 0.342984 0.351808 0.629044 +0.007417 -0.003046 -0.005755 -1.014151 +1.310753 +1.037023 -1.110627 +0.736100 -1.465387 +0.741325 9.152484e-04 4.205537e-03 1
1776409342.585919 jaka_arm_left success 0.190667 0.296734 -0.414038 0.602511 0.342601 0.351584 0.629281 +0.007947 -0.002435 -0.007610 -1.014201 +1.310556 +1.038869 -1.110434 +0.737369 -1.466309 +0.740957 3.168996e-06 1.128457e-06 2
1776409342.594107 jaka_arm_left success 0.190724 0.296633 -0.414055 0.602732 0.342469 0.351375 0.629258 +0.007947 -0.002435 -0.007610 -1.014201 +1.310556 +1.038869 -1.110434 +0.737369 -1.466309 +0.740957 1.203603e-04 6.640130e-04 1
1776409342.602418 jaka_arm_left success 0.190771 0.296506 -0.414066 0.602810 0.342564 0.351295 0.629176 +0.007947 -0.002435 -0.007610 -1.014201 +1.310556 +1.038869 -1.110434 +0.737369 -1.466309 +0.740957 2.552595e-04 8.599835e-04 1
1776409342.610670 jaka_arm_left success 0.190787 0.296435 -0.414079 0.603176 0.342588 0.351158 0.628888 +0.007947 -0.002435 -0.007610 -1.014201 +1.310556 +1.038869 -1.110434 +0.737369 -1.466309 +0.740957 3.278574e-04 1.763371e-03 1
1776409342.619096 jaka_arm_left success 0.190758 0.296358 -0.414090 0.603692 0.342705 0.351311 0.628244 +0.007947 -0.002435 -0.007610 -1.014201 +1.310556 +1.038869 -1.110434 +0.737369 -1.466309 +0.740957 3.932854e-04 3.196114e-03 1
1776409342.627474 jaka_arm_left success 0.190767 0.296284 -0.414088 0.604181 0.342602 0.351276 0.627849 +0.007947 -0.002435 -0.007610 -1.014201 +1.310556 +1.038869 -1.110434 +0.737369 -1.466309 +0.740957 4.666018e-04 4.441669e-03 1
1776409342.635724 jaka_arm_left success 0.190798 0.296151 -0.414107 0.604319 0.342605 0.351490 0.627595 +0.007947 -0.002435 -0.007610 -1.014201 +1.310556 +1.038869 -1.110434 +0.737369 -1.466309 +0.740957 6.044333e-04 4.946868e-03 1
1776409342.644093 jaka_arm_left success 0.190872 0.295941 -0.414114 0.604255 0.342576 0.351373 0.627737 +0.007947 -0.002435 -0.007610 -1.014201 +1.310556 +1.038869 -1.110434 +0.737369 -1.466309 +0.740957 8.255397e-04 4.676866e-03 1
1776409342.652490 jaka_arm_left success 0.190957 0.295695 -0.414139 0.603791 0.342836 0.351349 0.628056 +0.008834 -0.004572 -0.007408 -1.011944 +1.308182 +1.037566 -1.111658 +0.737757 -1.465146 +0.739942 4.059909e-06 2.762039e-06 2
1776409342.660851 jaka_arm_left success 0.191078 0.295607 -0.414142 0.604142 0.342343 0.351537 0.627882 +0.008834 -0.004572 -0.007408 -1.011944 +1.308182 +1.037566 -1.111658 +0.737757 -1.465146 +0.739942 1.485802e-04 1.313426e-03 1
1776409342.669096 jaka_arm_left success 0.191105 0.295605 -0.414135 0.604820 0.341937 0.351380 0.627538 +0.008834 -0.004572 -0.007408 -1.011944 +1.308182 +1.037566 -1.111658 +0.737757 -1.465146 +0.739942 1.720457e-04 2.922621e-03 1
1776409342.677346 jaka_arm_left success 0.191179 0.295481 -0.414161 0.604985 0.341740 0.351338 0.627510 +0.008834 -0.004572 -0.007408 -1.011944 +1.308182 +1.037566 -1.111658 +0.737757 -1.465146 +0.739942 3.082215e-04 3.419833e-03 1
1776409342.685807 jaka_arm_left success 0.191236 0.295342 -0.414174 0.605192 0.341623 0.351303 0.627394 +0.008834 -0.004572 -0.007408 -1.011944 +1.308182 +1.037566 -1.111658 +0.737757 -1.465146 +0.739942 4.504096e-04 3.936091e-03 1
1776409342.694244 jaka_arm_left success 0.191247 0.295161 -0.414197 0.605270 0.341622 0.351183 0.627385 +0.008834 -0.004572 -0.007408 -1.011944 +1.308182 +1.037566 -1.111658 +0.737757 -1.465146 +0.739942 6.096304e-04 4.068248e-03 1
1776409342.702412 jaka_arm_left success 0.191279 0.295047 -0.414206 0.605704 0.341481 0.351100 0.627090 +0.008834 -0.004572 -0.007408 -1.011944 +1.308182 +1.037566 -1.111658 +0.737757 -1.465146 +0.739942 7.258920e-04 5.094928e-03 1
1776409342.710665 jaka_arm_left success 0.191283 0.294886 -0.414224 0.606016 0.341521 0.350518 0.627092 +0.008834 -0.004572 -0.007408 -1.011944 +1.308182 +1.037566 -1.111658 +0.737757 -1.465146 +0.739942 8.755965e-04 5.761355e-03 1
1776409342.719152 jaka_arm_left success 0.191316 0.294845 -0.414216 0.606862 0.340962 0.350562 0.626553 +0.008834 -0.004572 -0.007408 -1.011944 +1.308182 +1.037566 -1.111658 +0.737757 -1.465146 +0.739942 9.250997e-04 7.954810e-03 1
1776409342.727613 jaka_arm_left success 0.191317 0.294806 -0.414226 0.607470 0.340734 0.350683 0.626020 +0.008834 -0.004572 -0.007408 -1.011944 +1.308182 +1.037566 -1.111658 +0.737757 -1.465146 +0.739942 9.622877e-04 9.495541e-03 1
1776409342.735760 jaka_arm_left success 0.191337 0.294616 -0.414242 0.607437 0.341046 0.351071 0.625665 +0.009711 -0.007207 -0.007990 -1.008947 +1.302842 +1.035540 -1.114124 +0.740081 -1.463556 +0.740607 1.146104e-05 1.368106e-05 2
1776409342.744004 jaka_arm_left success 0.191372 0.294512 -0.414252 0.607768 0.340958 0.351100 0.625376 +0.009711 -0.007207 -0.007990 -1.008947 +1.302842 +1.035540 -1.114124 +0.740081 -1.463556 +0.740607 1.090938e-04 9.004324e-04 1
1776409342.752579 jaka_arm_left success 0.191377 0.294344 -0.414277 0.607682 0.341286 0.351668 0.624961 +0.009711 -0.007207 -0.007990 -1.008947 +1.302842 +1.035540 -1.114124 +0.740081 -1.463556 +0.740607 2.770496e-04 1.978915e-03 1
1776409342.760761 jaka_arm_left success 0.191392 0.294174 -0.414281 0.607735 0.341440 0.351716 0.624798 +0.009711 -0.007207 -0.007990 -1.008947 +1.302842 +1.035540 -1.114124 +0.740081 -1.463556 +0.740607 4.466680e-04 2.386751e-03 1
1776409342.769037 jaka_arm_left success 0.191386 0.294048 -0.414292 0.607736 0.341653 0.352077 0.624478 +0.009711 -0.007207 -0.007990 -1.008947 +1.302842 +1.035540 -1.114124 +0.740081 -1.463556 +0.740607 5.720423e-04 3.404100e-03 1
1776409342.777313 jaka_arm_left success 0.191369 0.294016 -0.414278 0.608263 0.341627 0.352135 0.623946 +0.009711 -0.007207 -0.007990 -1.008947 +1.302842 +1.035540 -1.114124 +0.740081 -1.463556 +0.740607 6.015898e-04 4.529200e-03 1
1776409342.785838 jaka_arm_left success 0.191341 0.294007 -0.414264 0.608683 0.341558 0.352106 0.623590 +0.009711 -0.007207 -0.007990 -1.008947 +1.302842 +1.035540 -1.114124 +0.740081 -1.463556 +0.740607 6.091127e-04 5.371963e-03 1
1776409342.794190 jaka_arm_left success 0.191356 0.293977 -0.414245 0.609020 0.341276 0.352074 0.623434 +0.009711 -0.007207 -0.007990 -1.008947 +1.302842 +1.035540 -1.114124 +0.740081 -1.463556 +0.740607 6.385418e-04 5.852454e-03 1
1776409342.802420 jaka_arm_left success 0.191365 0.293910 -0.414235 0.609101 0.341125 0.351633 0.623686 +0.009711 -0.007207 -0.007990 -1.008947 +1.302842 +1.035540 -1.114124 +0.740081 -1.463556 +0.740607 7.056306e-04 5.300283e-03 1
1776409342.810670 jaka_arm_left success 0.191334 0.293781 -0.414239 0.608824 0.341309 0.351410 0.623982 +0.009711 -0.007207 -0.007990 -1.008947 +1.302842 +1.035540 -1.114124 +0.740081 -1.463556 +0.740607 8.343558e-04 4.452253e-03 1
1776409342.819168 jaka_arm_left success 0.191297 0.293726 -0.414222 0.608790 0.341353 0.351243 0.624085 +0.009711 -0.007207 -0.007990 -1.008947 +1.302842 +1.035540 -1.114124 +0.740081 -1.463556 +0.740607 8.905254e-04 4.226314e-03 1
1776409342.827463 jaka_arm_left success 0.191262 0.293681 -0.414208 0.608730 0.341307 0.351185 0.624201 +0.009711 -0.007207 -0.007990 -1.008947 +1.302842 +1.035540 -1.114124 +0.740081 -1.463556 +0.740607 9.380936e-04 3.954425e-03 1
1776409342.835794 jaka_arm_left success 0.191231 0.293653 -0.414174 0.608701 0.341130 0.351308 0.624256 +0.009711 -0.007207 -0.007990 -1.008947 +1.302842 +1.035540 -1.114124 +0.740081 -1.463556 +0.740607 9.705189e-04 3.824807e-03 1
1776409342.844113 jaka_arm_left success 0.191192 0.293619 -0.414159 0.608539 0.341133 0.351329 0.624400 +0.010102 -0.009406 -0.007454 -1.006988 +1.300608 +1.033990 -1.115464 +0.740268 -1.462510 +0.740020 3.610513e-06 3.261009e-06 2
1776409342.852473 jaka_arm_left success 0.191135 0.293580 -0.414122 0.608468 0.341191 0.351228 0.624495 +0.010102 -0.009406 -0.007454 -1.006988 +1.300608 +1.033990 -1.115464 +0.740268 -1.462510 +0.740020 7.629807e-05 3.314582e-04 1
1776409342.860811 jaka_arm_left success 0.191106 0.293552 -0.414100 0.608365 0.341138 0.351091 0.624702 +0.010102 -0.009406 -0.007454 -1.006988 +1.300608 +1.033990 -1.115464 +0.740268 -1.462510 +0.740020 1.218241e-04 8.421672e-04 1
1776409342.869112 jaka_arm_left success 0.191088 0.293542 -0.414082 0.608398 0.340935 0.350738 0.624979 +0.010102 -0.009406 -0.007454 -1.006988 +1.300608 +1.033990 -1.115464 +0.740268 -1.462510 +0.740020 1.483440e-04 1.721972e-03 1
1776409342.877410 jaka_arm_left success 0.191055 0.293530 -0.414058 0.608432 0.340820 0.350444 0.625173 +0.010102 -0.009406 -0.007454 -1.006988 +1.300608 +1.033990 -1.115464 +0.740268 -1.462510 +0.740020 1.898313e-04 2.438711e-03 1
1776409342.885807 jaka_arm_left success 0.191033 0.293495 -0.414042 0.608412 0.340778 0.350164 0.625372 +0.010102 -0.009406 -0.007454 -1.006988 +1.300608 +1.033990 -1.115464 +0.740268 -1.462510 +0.740020 2.308887e-04 3.124082e-03 1
1776409342.894191 jaka_arm_left success 0.191004 0.293522 -0.414022 0.608588 0.340682 0.350103 0.625287 +0.010102 -0.009406 -0.007454 -1.006988 +1.300608 +1.033990 -1.115464 +0.740268 -1.462510 +0.740020 2.498150e-04 3.156754e-03 1
1776409342.902425 jaka_arm_left success 0.190990 0.293499 -0.414009 0.608631 0.340618 0.350028 0.625323 +0.010102 -0.009406 -0.007454 -1.006988 +1.300608 +1.033990 -1.115464 +0.740268 -1.462510 +0.740020 2.765016e-04 3.354708e-03 1
1776409342.910720 jaka_arm_left success 0.190946 0.293504 -0.413987 0.608934 0.340410 0.349896 0.625214 +0.010102 -0.009406 -0.007454 -1.006988 +1.300608 +1.033990 -1.115464 +0.740268 -1.462510 +0.740020 3.192772e-04 3.682184e-03 1
1776409342.919167 jaka_arm_left success 0.190916 0.293470 -0.413967 0.608969 0.340405 0.349835 0.625217 +0.010102 -0.009406 -0.007454 -1.006988 +1.300608 +1.033990 -1.115464 +0.740268 -1.462510 +0.740020 3.655791e-04 3.799516e-03 1
1776409342.927456 jaka_arm_left success 0.190881 0.293443 -0.413947 0.609006 0.340410 0.349919 0.625132 +0.010102 -0.009406 -0.007454 -1.006988 +1.300608 +1.033990 -1.115464 +0.740268 -1.462510 +0.740020 4.133490e-04 3.610921e-03 1
1776409342.935819 jaka_arm_left success 0.190848 0.293408 -0.413927 0.608952 0.340462 0.349984 0.625119 +0.010102 -0.009406 -0.007454 -1.006988 +1.300608 +1.033990 -1.115464 +0.740268 -1.462510 +0.740020 4.633463e-04 3.430445e-03 1
1776409342.944020 jaka_arm_left success 0.190792 0.293418 -0.413887 0.609110 0.340439 0.349985 0.624978 +0.010102 -0.009406 -0.007454 -1.006988 +1.300608 +1.033990 -1.115464 +0.740268 -1.462510 +0.740020 5.216753e-04 3.431305e-03 1
1776409342.952573 jaka_arm_left success 0.190784 0.293304 -0.413876 0.608698 0.340562 0.350019 0.625293 +0.010102 -0.009406 -0.007454 -1.006988 +1.300608 +1.033990 -1.115464 +0.740268 -1.462510 +0.740020 5.858532e-04 3.382349e-03 1
1776409342.960815 jaka_arm_left success 0.190746 0.293245 -0.413848 0.608553 0.340638 0.349809 0.625510 +0.010102 -0.009406 -0.007454 -1.006988 +1.300608 +1.033990 -1.115464 +0.740268 -1.462510 +0.740020 6.577587e-04 3.889697e-03 1
1776409342.969062 jaka_arm_left success 0.190739 0.293229 -0.413830 0.608502 0.340609 0.349682 0.625647 +0.010102 -0.009406 -0.007454 -1.006988 +1.300608 +1.033990 -1.115464 +0.740268 -1.462510 +0.740020 6.800931e-04 4.260418e-03 1
1776409342.977348 jaka_arm_left success 0.190775 0.293173 -0.413837 0.608178 0.340629 0.349590 0.626002 +0.010102 -0.009406 -0.007454 -1.006988 +1.300608 +1.033990 -1.115464 +0.740268 -1.462510 +0.740020 6.880352e-04 4.886072e-03 1
1776409342.985816 jaka_arm_left success 0.190787 0.293194 -0.413816 0.608273 0.340495 0.349212 0.626194 +0.010102 -0.009406 -0.007454 -1.006988 +1.300608 +1.033990 -1.115464 +0.740268 -1.462510 +0.740020 6.775694e-04 5.716741e-03 1
1776409342.994230 jaka_arm_left success 0.190819 0.293200 -0.413794 0.608291 0.340439 0.348725 0.626478 +0.010102 -0.009406 -0.007454 -1.006988 +1.300608 +1.033990 -1.115464 +0.740268 -1.462510 +0.740020 6.667635e-04 6.821459e-03 1
1776409343.002416 jaka_arm_left success 0.190841 0.293179 -0.413788 0.608213 0.340496 0.348406 0.626700 +0.010102 -0.009406 -0.007454 -1.006988 +1.300608 +1.033990 -1.115464 +0.740268 -1.462510 +0.740020 6.715748e-04 7.572665e-03 1
1776409343.019270 jaka_arm_left success 0.190933 0.293058 -0.413808 0.607547 0.340910 0.347561 0.627590 +0.010102 -0.009406 -0.007454 -1.006988 +1.300608 +1.033990 -1.115464 +0.740268 -1.462510 +0.740020 7.081307e-04 1.007896e-02 1
1776409343.027541 jaka_arm_left success 0.190949 0.293044 -0.413794 0.607584 0.340956 0.347255 0.627698 +0.010102 -0.009406 -0.007454 -1.006988 +1.300608 +1.033990 -1.115464 +0.740268 -1.462510 +0.740020 7.205676e-04 1.065942e-02 1
1776409343.035814 jaka_arm_left success 0.190976 0.293026 -0.413789 0.607566 0.340912 0.347209 0.627765 +0.010102 -0.009406 -0.007454 -1.006988 +1.300608 +1.033990 -1.115464 +0.740268 -1.462510 +0.740020 7.290050e-04 1.082240e-02 1
1776409343.044139 jaka_arm_left success 0.190984 0.293018 -0.413777 0.607645 0.340888 0.347252 0.627678 +0.010102 -0.009406 -0.007454 -1.006988 +1.300608 +1.033990 -1.115464 +0.740268 -1.462510 +0.740020 7.392777e-04 1.062346e-02 1
1776409343.052519 jaka_arm_left success 0.190992 0.292957 -0.413771 0.607473 0.340979 0.347373 0.627727 +0.010102 -0.009406 -0.007454 -1.006988 +1.300608 +1.033990 -1.115464 +0.740268 -1.462510 +0.740020 7.904182e-04 1.055789e-02 1
1776409343.060822 jaka_arm_left success 0.190981 0.292923 -0.413760 0.607492 0.341026 0.347597 0.627560 +0.010102 -0.009406 -0.007454 -1.006988 +1.300608 +1.033990 -1.115464 +0.740268 -1.462510 +0.740020 8.270216e-04 1.000202e-02 1
1776409343.069125 jaka_arm_left success 0.190936 0.292979 -0.413709 0.608158 0.340984 0.347805 0.626821 +0.010102 -0.009406 -0.007454 -1.006988 +1.300608 +1.033990 -1.115464 +0.740268 -1.462510 +0.740020 8.205069e-04 8.587810e-03 1
1776409343.077374 jaka_arm_left success 0.190929 0.292966 -0.413681 0.608315 0.341008 0.347768 0.626677 +0.010102 -0.009406 -0.007454 -1.006988 +1.300608 +1.033990 -1.115464 +0.740268 -1.462510 +0.740020 8.481967e-04 8.466857e-03 1
1776409343.085817 jaka_arm_left success 0.190900 0.292836 -0.413656 0.607794 0.341497 0.347547 0.627039 +0.010102 -0.009406 -0.007454 -1.006988 +1.300608 +1.033990 -1.115464 +0.740268 -1.462510 +0.740020 9.727786e-04 9.369376e-03 1
1776409343.094262 jaka_arm_left success 0.190968 0.292688 -0.413662 0.607030 0.341532 0.346961 0.628083 +0.010206 -0.007980 -0.009692 -1.005539 +1.301617 +1.037545 -1.116073 +0.738714 -1.465945 +0.733905 5.358328e-06 1.822741e-05 2
1776409343.102515 jaka_arm_left success 0.190958 0.292692 -0.413623 0.607105 0.341426 0.346450 0.628350 +0.010206 -0.007980 -0.009692 -1.005539 +1.301617 +1.037545 -1.116073 +0.738714 -1.465945 +0.733905 3.947197e-05 1.176557e-03 1
1776409343.110701 jaka_arm_left success 0.191007 0.292715 -0.413570 0.607380 0.340650 0.346088 0.628705 +0.010206 -0.007980 -0.009692 -1.005539 +1.301617 +1.037545 -1.116073 +0.738714 -1.465945 +0.733905 1.048754e-04 2.863203e-03 1
1776409343.119078 jaka_arm_left success 0.191029 0.292707 -0.413554 0.607229 0.340225 0.345582 0.629359 +0.010206 -0.007980 -0.009692 -1.005539 +1.301617 +1.037545 -1.116073 +0.738714 -1.465945 +0.733905 1.276034e-04 4.596619e-03 1
1776409343.127549 jaka_arm_left success 0.191002 0.292711 -0.413509 0.607160 0.340106 0.345288 0.629651 +0.010206 -0.007980 -0.009692 -1.005539 +1.301617 +1.037545 -1.116073 +0.738714 -1.465945 +0.733905 1.592549e-04 5.408565e-03 1
1776409343.135765 jaka_arm_left success 0.190994 0.292615 -0.413471 0.606725 0.339971 0.344858 0.630379 +0.010206 -0.007980 -0.009692 -1.005539 +1.301617 +1.037545 -1.116073 +0.738714 -1.465945 +0.733905 2.077397e-04 6.995708e-03 1
1776409343.144079 jaka_arm_left success 0.190982 0.292541 -0.413433 0.606241 0.339952 0.344587 0.631002 +0.010206 -0.007980 -0.009692 -1.005539 +1.301617 +1.037545 -1.116073 +0.738714 -1.465945 +0.733905 2.741745e-04 8.316855e-03 1
1776409343.152461 jaka_arm_left success 0.190964 0.292494 -0.413383 0.605956 0.339799 0.344355 0.631485 +0.010206 -0.007980 -0.009692 -1.005539 +1.301617 +1.037545 -1.116073 +0.738714 -1.465945 +0.733905 3.413023e-04 9.496050e-03 1
1776409343.160827 jaka_arm_left success 0.190954 0.292481 -0.413328 0.605818 0.339610 0.344208 0.631800 +0.010206 -0.007980 -0.009692 -1.005539 +1.301617 +1.037545 -1.116073 +0.738714 -1.465945 +0.733905 3.944291e-04 1.031192e-02 1
1776409343.169084 jaka_arm_left success 0.190967 0.292438 -0.413245 0.605509 0.339457 0.344448 0.632047 +0.010206 -0.007980 -0.009692 -1.005539 +1.301617 +1.037545 -1.116073 +0.738714 -1.465945 +0.733905 4.875594e-04 1.071110e-02 1
1776409343.177374 jaka_arm_left success 0.190910 0.292490 -0.413172 0.605664 0.339244 0.344273 0.632108 +0.010206 -0.007980 -0.009692 -1.005539 +1.301617 +1.037545 -1.116073 +0.738714 -1.465945 +0.733905 5.321729e-04 1.105628e-02 1
1776409343.185868 jaka_arm_left success 0.190827 0.292505 -0.413116 0.605706 0.339193 0.343964 0.632263 +0.010206 -0.007980 -0.009692 -1.005539 +1.301617 +1.037545 -1.116073 +0.738714 -1.465945 +0.733905 5.925985e-04 1.161201e-02 1
1776409343.194162 jaka_arm_left success 0.190788 0.292448 -0.413045 0.605451 0.339033 0.343533 0.632827 +0.010206 -0.007980 -0.009692 -1.005539 +1.301617 +1.037545 -1.116073 +0.738714 -1.465945 +0.733905 6.857839e-04 1.311939e-02 1
1776409343.202452 jaka_arm_left success 0.190733 0.292278 -0.412979 0.604774 0.339152 0.343131 0.633629 +0.010206 -0.007980 -0.009692 -1.005539 +1.301617 +1.037545 -1.116073 +0.738714 -1.465945 +0.733905 8.305138e-04 1.499629e-02 1
1776409343.210686 jaka_arm_left success 0.190666 0.292321 -0.412885 0.605127 0.338929 0.342996 0.633484 +0.010206 -0.007980 -0.009692 -1.005539 +1.301617 +1.037545 -1.116073 +0.738714 -1.465945 +0.733905 9.103467e-04 1.487637e-02 1
1776409343.219167 jaka_arm_left success 0.190637 0.292313 -0.412795 0.605234 0.338714 0.342677 0.633669 +0.008637 -0.003622 -0.013700 -1.008450 +1.304870 +1.043752 -1.115848 +0.738497 -1.471884 +0.731708 2.686720e-05 1.323127e-05 2
1776409343.227525 jaka_arm_left success 0.190580 0.292228 -0.412704 0.605040 0.338851 0.342519 0.633867 +0.008637 -0.003622 -0.013700 -1.008450 +1.304870 +1.043752 -1.115848 +0.738497 -1.471884 +0.731708 1.192399e-04 6.909128e-04 1
1776409343.235783 jaka_arm_left success 0.190563 0.292051 -0.412628 0.604522 0.338545 0.341990 0.634809 +0.008637 -0.003622 -0.013700 -1.008450 +1.304870 +1.043752 -1.115848 +0.738497 -1.471884 +0.731708 3.073712e-04 3.032800e-03 1
1776409343.244075 jaka_arm_left success 0.190497 0.292008 -0.412514 0.604587 0.338530 0.341987 0.634757 +0.008637 -0.003622 -0.013700 -1.008450 +1.304870 +1.043752 -1.115848 +0.738497 -1.471884 +0.731708 4.215230e-04 2.901349e-03 1
1776409343.252427 jaka_arm_left success 0.190499 0.292016 -0.412383 0.604943 0.337746 0.342194 0.634724 +0.008637 -0.003622 -0.013700 -1.008450 +1.304870 +1.043752 -1.115848 +0.738497 -1.471884 +0.731708 5.091147e-04 3.072573e-03 1
1776409343.260776 jaka_arm_left success 0.190455 0.291968 -0.412281 0.605014 0.337481 0.342282 0.634750 +0.008637 -0.003622 -0.013700 -1.008450 +1.304870 +1.043752 -1.115848 +0.738497 -1.471884 +0.731708 6.273077e-04 3.397531e-03 1
1776409343.269117 jaka_arm_left success 0.190401 0.291850 -0.412199 0.604882 0.337197 0.342158 0.635094 +0.008637 -0.003622 -0.013700 -1.008450 +1.304870 +1.043752 -1.115848 +0.738497 -1.471884 +0.731708 7.730536e-04 4.343157e-03 1
1776409343.277353 jaka_arm_left success 0.190415 0.291621 -0.412123 0.604271 0.336969 0.342016 0.635873 +0.008637 -0.003622 -0.013700 -1.008450 +1.304870 +1.043752 -1.115848 +0.738497 -1.471884 +0.731708 9.749171e-04 6.084968e-03 1
1776409343.285768 jaka_arm_left success 0.190380 0.291484 -0.412035 0.604199 0.336698 0.341747 0.636228 +0.007482 -0.002272 -0.015228 -1.010878 +1.306797 +1.046323 -1.116046 +0.738319 -1.474786 +0.732107 3.727612e-06 3.287641e-06 2
1776409343.294146 jaka_arm_left success 0.190378 0.291299 -0.411959 0.603893 0.336412 0.341529 0.636788 +0.007482 -0.002272 -0.015228 -1.010878 +1.306797 +1.046323 -1.116046 +0.738319 -1.474786 +0.732107 1.981773e-04 1.462109e-03 1
1776409343.302460 jaka_arm_left success 0.190400 0.291265 -0.411830 0.604560 0.335277 0.341604 0.636713 +0.007482 -0.002272 -0.015228 -1.010878 +1.306797 +1.046323 -1.116046 +0.738319 -1.474786 +0.732107 2.981811e-04 3.099675e-03 1
1776409343.310687 jaka_arm_left success 0.190361 0.291222 -0.411719 0.604887 0.334842 0.341677 0.636592 +0.007482 -0.002272 -0.015228 -1.010878 +1.306797 +1.046323 -1.116046 +0.738319 -1.474786 +0.732107 4.080332e-04 4.025961e-03 1
1776409343.319128 jaka_arm_left success 0.190222 0.290915 -0.411633 0.604288 0.335412 0.341660 0.636870 +0.007482 -0.002272 -0.015228 -1.010878 +1.306797 +1.046323 -1.116046 +0.738319 -1.474786 +0.732107 7.116279e-04 2.882857e-03 1
1776409343.327430 jaka_arm_left success 0.190143 0.290810 -0.411515 0.604438 0.335312 0.341954 0.636622 +0.007482 -0.002272 -0.015228 -1.010878 +1.306797 +1.046323 -1.116046 +0.738319 -1.474786 +0.732107 8.807592e-04 2.948150e-03 1
1776409343.335756 jaka_arm_left success 0.190081 0.290692 -0.411412 0.604454 0.335126 0.341855 0.636758 +0.006828 -0.002687 -0.015690 -1.011410 +1.306267 +1.046549 -1.117226 +0.738428 -1.475823 +0.732664 7.156039e-07 5.335391e-07 2
1776409343.344021 jaka_arm_left success 0.190138 0.290448 -0.411302 0.604105 0.334252 0.341762 0.637598 +0.006828 -0.002687 -0.015690 -1.011410 +1.306267 +1.046549 -1.117226 +0.738428 -1.475823 +0.732664 2.730516e-04 2.529520e-03 1
1776409343.352516 jaka_arm_left success 0.190110 0.290346 -0.411198 0.604066 0.333809 0.341501 0.638007 +0.006828 -0.002687 -0.015690 -1.011410 +1.306267 +1.046549 -1.117226 +0.738428 -1.475823 +0.732664 4.072814e-04 3.778848e-03 1
1776409343.360830 jaka_arm_left success 0.190075 0.290207 -0.411095 0.603919 0.333429 0.341016 0.638604 +0.006828 -0.002687 -0.015690 -1.011410 +1.306267 +1.046549 -1.117226 +0.738428 -1.475823 +0.732664 5.788847e-04 5.395182e-03 1
1776409343.369107 jaka_arm_left success 0.190063 0.289958 -0.411007 0.603354 0.333190 0.340217 0.639688 +0.006828 -0.002687 -0.015690 -1.011410 +1.306267 +1.046549 -1.117226 +0.738428 -1.475823 +0.732664 8.379797e-04 8.055995e-03 1
1776409343.377384 jaka_arm_left success 0.189968 0.289701 -0.410943 0.602942 0.333188 0.339330 0.640548 +0.005730 -0.000208 -0.018311 -1.014252 +1.309461 +1.051014 -1.116498 +0.738509 -1.479740 +0.732240 9.532425e-06 7.250679e-06 2
1776409343.385800 jaka_arm_left success 0.189896 0.289658 -0.410837 0.603385 0.332402 0.339036 0.640695 +0.005730 -0.000208 -0.018311 -1.014252 +1.309461 +1.051014 -1.116498 +0.738509 -1.479740 +0.732240 1.260442e-04 1.914854e-03 1
1776409343.394087 jaka_arm_left success 0.189848 0.289582 -0.410710 0.603783 0.331745 0.338846 0.640761 +0.005730 -0.000208 -0.018311 -1.014252 +1.309461 +1.051014 -1.116498 +0.738509 -1.479740 +0.732240 2.792015e-04 3.498348e-03 1
1776409343.402548 jaka_arm_left success 0.189770 0.289396 -0.410563 0.603952 0.331483 0.338493 0.640924 +0.005730 -0.000208 -0.018311 -1.014252 +1.309461 +1.051014 -1.116498 +0.738509 -1.479740 +0.732240 5.180969e-04 4.361839e-03 1
1776409343.410656 jaka_arm_left success 0.189720 0.289249 -0.410427 0.604050 0.331154 0.338417 0.641042 +0.005730 -0.000208 -0.018311 -1.014252 +1.309461 +1.051014 -1.116498 +0.738509 -1.479740 +0.732240 7.218765e-04 5.070464e-03 1
1776409343.419307 jaka_arm_left success 0.189682 0.289001 -0.410287 0.603942 0.330923 0.338055 0.641453 +0.005730 -0.000208 -0.018311 -1.014252 +1.309461 +1.051014 -1.116498 +0.738509 -1.479740 +0.732240 9.941789e-04 5.850065e-03 1
1776409343.427521 jaka_arm_left success 0.189707 0.288602 -0.410132 0.603561 0.330025 0.337078 0.642788 +0.004856 +0.000759 -0.020893 -1.014983 +1.308757 +1.053559 -1.118037 +0.739408 -1.482819 +0.731784 4.956399e-06 5.930901e-06 2
1776409343.435820 jaka_arm_left success 0.189625 0.288611 -0.409988 0.604549 0.329141 0.337302 0.642195 +0.004856 +0.000759 -0.020893 -1.014983 +1.308757 +1.053559 -1.118037 +0.739408 -1.482819 +0.731784 1.640613e-04 2.943153e-03 1
1776409343.444062 jaka_arm_left success 0.189497 0.288415 -0.409796 0.604923 0.328887 0.336941 0.642162 +0.004856 +0.000759 -0.020893 -1.014983 +1.308757 +1.053559 -1.118037 +0.739408 -1.482819 +0.731784 4.362464e-04 3.777143e-03 1
1776409343.452567 jaka_arm_left success 0.189533 0.288322 -0.409602 0.605844 0.327353 0.337193 0.641945 +0.004856 +0.000759 -0.020893 -1.014983 +1.308757 +1.053559 -1.118037 +0.739408 -1.482819 +0.731784 6.232987e-04 7.235920e-03 1
1776409343.460777 jaka_arm_left success 0.189436 0.288074 -0.409453 0.605925 0.326824 0.337169 0.642150 +0.004856 +0.000759 -0.020893 -1.014983 +1.308757 +1.053559 -1.118037 +0.739408 -1.482819 +0.731784 9.007925e-04 8.066232e-03 1
1776409343.469213 jaka_arm_left success 0.189380 0.288008 -0.409270 0.606808 0.325210 0.337217 0.642112 +0.003870 +0.000130 -0.022557 -1.015026 +1.304291 +1.052973 -1.121188 +0.741965 -1.483804 +0.734698 1.797923e-06 1.153861e-05 2
1776409343.477476 jaka_arm_left success 0.189295 0.287471 -0.409121 0.605576 0.325518 0.337242 0.643105 +0.003870 +0.000130 -0.022557 -1.015026 +1.304291 +1.052973 -1.121188 +0.741965 -1.483804 +0.734698 5.631692e-04 3.216309e-03 1
1776409343.485830 jaka_arm_left success 0.189231 0.287244 -0.408950 0.605706 0.324773 0.337597 0.643173 +0.003870 +0.000130 -0.022557 -1.015026 +1.304291 +1.052973 -1.121188 +0.741965 -1.483804 +0.734698 8.410329e-04 3.260723e-03 1
1776409343.494224 jaka_arm_left success 0.189084 0.286971 -0.408805 0.605707 0.324265 0.337286 0.643591 +0.002991 +0.000363 -0.023002 -1.016988 +1.306269 +1.054374 -1.121034 +0.741594 -1.485392 +0.735528 1.477514e-06 2.271806e-06 2
1776409343.502455 jaka_arm_left success 0.189048 0.286587 -0.408649 0.605010 0.323493 0.337326 0.644613 +0.002991 +0.000363 -0.023002 -1.016988 +1.306269 +1.054374 -1.121034 +0.741594 -1.485392 +0.735528 4.152580e-04 2.915512e-03 1
1776409343.510677 jaka_arm_left success 0.188839 0.286546 -0.408424 0.606097 0.322773 0.337651 0.643783 +0.002991 +0.000363 -0.023002 -1.016988 +1.306269 +1.054374 -1.121034 +0.741594 -1.485392 +0.735528 6.203383e-04 3.191037e-03 1
1776409343.519172 jaka_arm_left success 0.188802 0.286395 -0.408214 0.606459 0.321952 0.337699 0.643828 +0.002991 +0.000363 -0.023002 -1.016988 +1.306269 +1.054374 -1.121034 +0.741594 -1.485392 +0.735528 8.711967e-04 4.955225e-03 1
1776409343.527467 jaka_arm_left success 0.188725 0.286301 -0.408052 0.606806 0.321020 0.337575 0.644031 +0.001880 +0.000382 -0.024111 -1.018344 +1.305030 +1.054799 -1.122594 +0.742780 -1.486835 +0.737844 1.020690e-06 4.847855e-06 2
1776409343.535913 jaka_arm_left success 0.188740 0.286081 -0.407877 0.606680 0.320084 0.337030 0.644900 +0.001880 +0.000382 -0.024111 -1.018344 +1.305030 +1.054799 -1.122594 +0.742780 -1.486835 +0.737844 2.807701e-04 2.788010e-03 1
1776409343.544054 jaka_arm_left success 0.188701 0.285787 -0.407707 0.606561 0.319129 0.335948 0.646050 +0.001880 +0.000382 -0.024111 -1.018344 +1.305030 +1.054799 -1.122594 +0.742780 -1.486835 +0.737844 6.188101e-04 6.436886e-03 1
1776409343.552345 jaka_arm_left success 0.188566 0.285543 -0.407501 0.606265 0.319060 0.335356 0.646668 +0.001880 +0.000382 -0.024111 -1.018344 +1.305030 +1.054799 -1.122594 +0.742780 -1.486835 +0.737844 9.497565e-04 8.002541e-03 1
1776409343.560775 jaka_arm_left success 0.188427 0.285400 -0.407310 0.606313 0.318558 0.334888 0.647113 +0.000980 +0.002161 -0.026766 -1.019633 +1.305941 +1.058250 -1.123296 +0.743018 -1.490474 +0.736692 7.229353e-06 5.471604e-06 2
1776409343.569135 jaka_arm_left success 0.188376 0.285196 -0.407127 0.606088 0.317961 0.334447 0.647846 +0.000980 +0.002161 -0.026766 -1.019633 +1.305941 +1.058250 -1.123296 +0.743018 -1.490474 +0.736692 2.766935e-04 2.133597e-03 1
1776409343.577340 jaka_arm_left success 0.188301 0.285221 -0.406909 0.606935 0.316525 0.334352 0.647804 +0.000980 +0.002161 -0.026766 -1.019633 +1.305941 +1.058250 -1.123296 +0.743018 -1.490474 +0.736692 4.535686e-04 4.598512e-03 1
1776409343.585773 jaka_arm_left success 0.188234 0.285168 -0.406690 0.607483 0.315181 0.334124 0.648064 +0.000980 +0.002161 -0.026766 -1.019633 +1.305941 +1.058250 -1.123296 +0.743018 -1.490474 +0.736692 6.861528e-04 7.553742e-03 1
1776409343.594141 jaka_arm_left success 0.188182 0.284707 -0.406506 0.606090 0.314957 0.333452 0.649820 -0.000395 +0.004214 -0.029328 -1.022566 +1.307187 +1.061472 -1.123731 +0.743992 -1.494020 +0.738269 8.091757e-06 7.921299e-06 2
1776409343.602404 jaka_arm_left success 0.188056 0.284386 -0.406303 0.605777 0.314491 0.333444 0.650342 -0.000395 +0.004214 -0.029328 -1.022566 +1.307187 +1.061472 -1.123731 +0.743992 -1.494020 +0.738269 3.956363e-04 1.527045e-03 1
1776409343.610644 jaka_arm_left success 0.187860 0.284124 -0.406081 0.605379 0.314589 0.333448 0.650663 -0.000395 +0.004214 -0.029328 -1.022566 +1.307187 +1.061472 -1.123731 +0.743992 -1.494020 +0.738269 7.847619e-04 2.317885e-03 1
1776409343.619139 jaka_arm_left success 0.187748 0.284159 -0.405877 0.606334 0.313540 0.334151 0.649919 -0.000395 +0.004214 -0.029328 -1.022566 +1.307187 +1.061472 -1.123731 +0.743992 -1.494020 +0.738269 9.342242e-04 3.202385e-03 1
1776409343.627521 jaka_arm_left success 0.187603 0.283894 -0.405700 0.606302 0.312890 0.334279 0.650197 -0.001482 +0.003683 -0.029536 -1.023699 +1.306726 +1.061400 -1.125107 +0.744135 -1.495106 +0.739824 1.807167e-06 1.455050e-06 2
1776409343.635824 jaka_arm_left success 0.187501 0.283675 -0.405532 0.606403 0.311971 0.334383 0.650491 -0.001482 +0.003683 -0.029536 -1.023699 +1.306726 +1.061400 -1.125107 +0.744135 -1.495106 +0.739824 2.933938e-04 1.951757e-03 1
1776409343.644103 jaka_arm_left success 0.187363 0.283670 -0.405347 0.607480 0.311355 0.335346 0.649284 -0.001482 +0.003683 -0.029536 -1.023699 +1.306726 +1.061400 -1.125107 +0.744135 -1.495106 +0.739824 4.810497e-04 4.781677e-03 1
1776409343.652443 jaka_arm_left success 0.187354 0.283547 -0.405178 0.607992 0.310370 0.335698 0.649094 -0.001482 +0.003683 -0.029536 -1.023699 +1.306726 +1.061400 -1.125107 +0.744135 -1.495106 +0.739824 6.732906e-04 7.053269e-03 1
1776409343.660854 jaka_arm_left success 0.187296 0.283305 -0.405034 0.608092 0.310054 0.335613 0.649195 -0.001482 +0.003683 -0.029536 -1.023699 +1.306726 +1.061400 -1.125107 +0.744135 -1.495106 +0.739824 9.395026e-04 7.491688e-03 1
1776409343.669123 jaka_arm_left success 0.187265 0.283082 -0.404935 0.608117 0.309590 0.335405 0.649501 -0.002398 +0.002576 -0.030027 -1.024333 +1.304112 +1.060450 -1.127377 +0.745531 -1.495556 +0.742596 3.429477e-06 3.771428e-06 2
1776409343.677343 jaka_arm_left success 0.187185 0.282920 -0.404846 0.608256 0.309500 0.335238 0.649500 -0.002398 +0.002576 -0.030027 -1.024333 +1.304112 +1.060450 -1.127377 +0.745531 -1.495556 +0.742596 2.009833e-04 4.716735e-04 1
1776409343.685711 jaka_arm_left success 0.187065 0.282874 -0.404723 0.609115 0.309229 0.335120 0.648884 -0.002398 +0.002576 -0.030027 -1.024333 +1.304112 +1.060450 -1.127377 +0.745531 -1.495556 +0.742596 3.574813e-04 2.522931e-03 1
1776409343.694158 jaka_arm_left success 0.187052 0.282732 -0.404688 0.609161 0.308957 0.335290 0.648882 -0.002398 +0.002576 -0.030027 -1.024333 +1.304112 +1.060450 -1.127377 +0.745531 -1.495556 +0.742596 4.778428e-04 2.749143e-03 1
1776409343.702452 jaka_arm_left success 0.187004 0.282603 -0.404681 0.609101 0.308863 0.335400 0.648927 -0.002398 +0.002576 -0.030027 -1.024333 +1.304112 +1.060450 -1.127377 +0.745531 -1.495556 +0.742596 6.014108e-04 2.704212e-03 1
1776409343.710665 jaka_arm_left success 0.186974 0.282585 -0.404669 0.609375 0.308591 0.335557 0.648718 -0.002398 +0.002576 -0.030027 -1.024333 +1.304112 +1.060450 -1.127377 +0.745531 -1.495556 +0.742596 6.341218e-04 3.588307e-03 1
1776409343.719188 jaka_arm_left success 0.186984 0.282633 -0.404675 0.610007 0.307878 0.335938 0.648266 -0.002398 +0.002576 -0.030027 -1.024333 +1.304112 +1.060450 -1.127377 +0.745531 -1.495556 +0.742596 5.897593e-04 5.767176e-03 1
1776409343.727599 jaka_arm_left success 0.186975 0.282532 -0.404695 0.610033 0.307834 0.335577 0.648449 -0.002398 +0.002576 -0.030027 -1.024333 +1.304112 +1.060450 -1.127377 +0.745531 -1.495556 +0.742596 6.663471e-04 5.619102e-03 1
1776409343.735800 jaka_arm_left success 0.186988 0.282469 -0.404740 0.609946 0.307872 0.335471 0.648568 -0.002398 +0.002576 -0.030027 -1.024333 +1.304112 +1.060450 -1.127377 +0.745531 -1.495556 +0.742596 7.003999e-04 5.356885e-03 1
1776409343.744104 jaka_arm_left success 0.187035 0.282374 -0.404787 0.609758 0.308014 0.335178 0.648829 -0.002398 +0.002576 -0.030027 -1.024333 +1.304112 +1.060450 -1.127377 +0.745531 -1.495556 +0.742596 7.590861e-04 4.767328e-03 1
1776409343.752413 jaka_arm_left success 0.187115 0.282422 -0.404851 0.609860 0.308047 0.335129 0.648742 -0.002398 +0.002576 -0.030027 -1.024333 +1.304112 +1.060450 -1.127377 +0.745531 -1.495556 +0.742596 6.821706e-04 4.929002e-03 1
1776409343.760811 jaka_arm_left success 0.187143 0.282479 -0.404905 0.610030 0.308278 0.334760 0.648663 -0.002398 +0.002576 -0.030027 -1.024333 +1.304112 +1.060450 -1.127377 +0.745531 -1.495556 +0.742596 6.162696e-04 5.100269e-03 1
1776409343.769127 jaka_arm_left success 0.187209 0.282575 -0.404962 0.610309 0.308439 0.334524 0.648446 -0.002398 +0.002576 -0.030027 -1.024333 +1.304112 +1.060450 -1.127377 +0.745531 -1.495556 +0.742596 5.112451e-04 5.665507e-03 1
1776409343.781786 jaka_arm_left success 0.187324 0.282626 -0.405064 0.609936 0.309459 0.333844 0.648661 -0.002398 +0.002576 -0.030027 -1.024333 +1.304112 +1.060450 -1.127377 +0.745531 -1.495556 +0.742596 4.781815e-04 5.089356e-03 1
1776409343.794185 jaka_arm_left success 0.187430 0.282720 -0.405137 0.609927 0.309310 0.333506 0.648915 -0.002398 +0.002576 -0.030027 -1.024333 +1.304112 +1.060450 -1.127377 +0.745531 -1.495556 +0.742596 4.468513e-04 5.407681e-03 1
1776409343.802418 jaka_arm_left success 0.187500 0.282795 -0.405192 0.609341 0.309942 0.333843 0.648990 -0.002398 +0.002576 -0.030027 -1.024333 +1.304112 +1.060450 -1.127377 +0.745531 -1.495556 +0.742596 4.519790e-04 4.161330e-03 1
1776409343.810651 jaka_arm_left success 0.187582 0.282828 -0.405230 0.609038 0.309995 0.333507 0.649422 -0.002398 +0.002576 -0.030027 -1.024333 +1.304112 +1.060450 -1.127377 +0.745531 -1.495556 +0.742596 5.025686e-04 4.301596e-03 1
1776409343.819256 jaka_arm_left success 0.187588 0.283079 -0.405248 0.609640 0.309762 0.333661 0.648890 -0.002398 +0.002576 -0.030027 -1.024333 +1.304112 +1.060450 -1.127377 +0.745531 -1.495556 +0.742596 4.504367e-04 4.804492e-03 1
1776409343.827514 jaka_arm_left success 0.187567 0.283307 -0.405242 0.610037 0.309725 0.333697 0.648515 -0.002398 +0.002576 -0.030027 -1.024333 +1.304112 +1.060450 -1.127377 +0.745531 -1.495556 +0.742596 4.864908e-04 5.514506e-03 1
1776409343.835846 jaka_arm_left success 0.187522 0.283360 -0.405288 0.609405 0.310397 0.333598 0.648838 -0.002398 +0.002576 -0.030027 -1.024333 +1.304112 +1.060450 -1.127377 +0.745531 -1.495556 +0.742596 5.186157e-04 4.908264e-03 1
1776409343.844052 jaka_arm_left success 0.187472 0.283605 -0.405314 0.609546 0.310560 0.334039 0.648401 -0.002398 +0.002576 -0.030027 -1.024333 +1.304112 +1.060450 -1.127377 +0.745531 -1.495556 +0.742596 6.792190e-04 4.926550e-03 1
1776409343.852379 jaka_arm_left success 0.187430 0.283708 -0.405340 0.609267 0.310434 0.333753 0.648871 -0.002398 +0.002576 -0.030027 -1.024333 +1.304112 +1.060450 -1.127377 +0.745531 -1.495556 +0.742596 7.646807e-04 4.546703e-03 1
1776409343.860811 jaka_arm_left success 0.187372 0.283758 -0.405411 0.608439 0.310785 0.333506 0.649606 -0.002398 +0.002576 -0.030027 -1.024333 +1.304112 +1.060450 -1.127377 +0.745531 -1.495556 +0.742596 8.350026e-04 4.540417e-03 1
1776409343.869066 jaka_arm_left success 0.187364 0.283934 -0.405419 0.608430 0.310653 0.333260 0.649804 -0.002398 +0.002576 -0.030027 -1.024333 +1.304112 +1.060450 -1.127377 +0.745531 -1.495556 +0.742596 9.860213e-04 4.868367e-03 1
1776409343.877388 jaka_arm_left success 0.187311 0.284140 -0.405431 0.608446 0.310865 0.333251 0.649693 -0.001642 +0.003657 -0.030672 -1.022173 +1.303201 +1.061042 -1.127072 +0.745497 -1.495457 +0.739549 2.453723e-06 4.005370e-06 2
1776409343.885742 jaka_arm_left success 0.187256 0.284419 -0.405452 0.608929 0.310455 0.333276 0.649423 -0.001642 +0.003657 -0.030672 -1.022173 +1.303201 +1.061042 -1.127072 +0.745497 -1.495457 +0.739549 2.840905e-04 1.378699e-03 1
1776409343.894253 jaka_arm_left success 0.187210 0.284760 -0.405436 0.609484 0.310236 0.333589 0.648845 -0.001642 +0.003657 -0.030672 -1.022173 +1.303201 +1.061042 -1.127072 +0.745497 -1.495457 +0.739549 6.269999e-04 3.036631e-03 1
1776409343.902464 jaka_arm_left success 0.187041 0.284891 -0.405455 0.609069 0.310915 0.333749 0.648829 -0.001642 +0.003657 -0.030672 -1.022173 +1.303201 +1.061042 -1.127072 +0.745497 -1.495457 +0.739549 7.972496e-04 2.351127e-03 1
1776409343.910675 jaka_arm_left success 0.186965 0.285162 -0.405464 0.609221 0.310431 0.333714 0.648936 -0.001954 +0.004132 -0.030482 -1.021894 +1.302031 +1.060284 -1.127357 +0.746004 -1.495025 +0.740325 8.701023e-07 6.180982e-07 2
1776409343.919234 jaka_arm_left success 0.186847 0.285274 -0.405479 0.608834 0.310774 0.333858 0.649061 -0.001954 +0.004132 -0.030482 -1.021894 +1.302031 +1.060284 -1.127357 +0.746004 -1.495025 +0.740325 1.633642e-04 1.102710e-03 1
1776409343.927558 jaka_arm_left success 0.186810 0.285433 -0.405468 0.608526 0.310821 0.334369 0.649064 -0.001954 +0.004132 -0.030482 -1.021894 +1.302031 +1.060284 -1.127357 +0.746004 -1.495025 +0.740325 3.122413e-04 2.079323e-03 1
1776409343.935795 jaka_arm_left success 0.186747 0.285543 -0.405482 0.607970 0.310924 0.334582 0.649425 -0.001954 +0.004132 -0.030482 -1.021894 +1.302031 +1.060284 -1.127357 +0.746004 -1.495025 +0.740325 4.393237e-04 3.347247e-03 1
1776409343.944017 jaka_arm_left success 0.186669 0.285737 -0.405527 0.607438 0.311178 0.334552 0.649817 -0.001954 +0.004132 -0.030482 -1.021894 +1.302031 +1.060284 -1.127357 +0.746004 -1.495025 +0.740325 6.497193e-04 4.567716e-03 1
1776409343.952446 jaka_arm_left success 0.186536 0.285822 -0.405587 0.606467 0.312268 0.334387 0.650286 -0.001954 +0.004132 -0.030482 -1.021894 +1.302031 +1.060284 -1.127357 +0.746004 -1.495025 +0.740325 7.966296e-04 7.276138e-03 1
1776409343.960864 jaka_arm_left success 0.186483 0.285953 -0.405650 0.606226 0.311943 0.333529 0.651107 -0.001954 +0.004132 -0.030482 -1.021894 +1.302031 +1.060284 -1.127357 +0.746004 -1.495025 +0.740325 9.446411e-04 8.001040e-03 1
1776409343.969126 jaka_arm_left success 0.186422 0.286059 -0.405696 0.605704 0.312379 0.333359 0.651470 -0.002836 +0.007057 -0.030314 -1.024796 +1.307954 +1.063084 -1.124122 +0.744231 -1.496736 +0.739998 1.310915e-05 1.621530e-05 2
1776409343.977351 jaka_arm_left success 0.186386 0.286342 -0.405738 0.605770 0.312471 0.333524 0.651280 -0.002836 +0.007057 -0.030314 -1.024796 +1.307954 +1.063084 -1.124122 +0.744231 -1.496736 +0.739998 2.933880e-04 5.649640e-04 1
1776409343.985696 jaka_arm_left success 0.186207 0.286780 -0.405742 0.606569 0.312817 0.333514 0.650375 -0.002836 +0.007057 -0.030314 -1.024796 +1.307954 +1.063084 -1.124122 +0.744231 -1.496736 +0.739998 7.585726e-04 2.951752e-03 1
1776409343.994295 jaka_arm_left success 0.186096 0.287021 -0.405786 0.606678 0.313009 0.333262 0.650311 -0.002560 +0.006753 -0.029786 -1.022631 +1.305662 +1.061632 -1.125005 +0.744171 -1.495696 +0.738632 1.405233e-06 2.630950e-06 2
1776409344.002524 jaka_arm_left success 0.186127 0.287312 -0.405827 0.606691 0.312614 0.333429 0.650402 -0.002560 +0.006753 -0.029786 -1.022631 +1.305662 +1.061632 -1.125005 +0.744171 -1.495696 +0.738632 2.964590e-04 8.753373e-04 1
1776409344.010659 jaka_arm_left success 0.186111 0.287574 -0.405857 0.606734 0.312740 0.333459 0.650286 -0.002560 +0.006753 -0.029786 -1.022631 +1.305662 +1.061632 -1.125005 +0.744171 -1.495696 +0.738632 5.587403e-04 6.770273e-04 1
1776409344.019120 jaka_arm_left success 0.186135 0.287883 -0.405878 0.606972 0.312531 0.333664 0.650060 -0.002560 +0.006753 -0.029786 -1.022631 +1.305662 +1.061632 -1.125005 +0.744171 -1.495696 +0.738632 8.687435e-04 1.468924e-03 1
1776409344.027549 jaka_arm_left success 0.186014 0.287970 -0.405954 0.605856 0.313974 0.333716 0.650379 -0.002560 +0.006753 -0.029786 -1.022631 +1.305662 +1.061632 -1.125005 +0.744171 -1.495696 +0.738632 9.683382e-04 2.697297e-03 1
1776409344.035733 jaka_arm_left success 0.186007 0.288154 -0.406002 0.605635 0.313903 0.333620 0.650668 -0.002763 +0.008174 -0.029395 -1.023644 +1.307477 +1.062060 -1.123627 +0.743653 -1.495745 +0.738976 2.049515e-06 1.661268e-06 2
1776409344.044008 jaka_arm_left success 0.186011 0.288359 -0.406048 0.605381 0.313886 0.333659 0.650892 -0.002763 +0.008174 -0.029395 -1.023644 +1.307477 +1.062060 -1.123627 +0.743653 -1.495745 +0.738976 2.107807e-04 6.823137e-04 1
1776409344.052507 jaka_arm_left success 0.185947 0.288530 -0.406120 0.604857 0.314746 0.333919 0.650831 -0.002763 +0.008174 -0.029395 -1.023644 +1.307477 +1.062060 -1.123627 +0.743653 -1.495745 +0.738976 3.996041e-04 2.394040e-03 1
1776409344.060836 jaka_arm_left success 0.185882 0.288718 -0.406178 0.604632 0.315227 0.334107 0.650711 -0.002763 +0.008174 -0.029395 -1.023644 +1.307477 +1.062060 -1.123627 +0.743653 -1.495745 +0.738976 6.049531e-04 3.463910e-03 1
1776409344.069121 jaka_arm_left success 0.185841 0.289021 -0.406168 0.604986 0.315139 0.334253 0.650349 -0.002763 +0.008174 -0.029395 -1.023644 +1.307477 +1.062060 -1.123627 +0.743653 -1.495745 +0.738976 8.991008e-04 3.132655e-03 1
1776409344.077408 jaka_arm_left success 0.185807 0.289228 -0.406196 0.604937 0.315202 0.334238 0.650372 -0.002789 +0.008791 -0.028506 -1.023640 +1.308299 +1.061554 -1.122818 +0.742926 -1.495148 +0.738738 9.205304e-07 6.321324e-07 2
1776409344.085805 jaka_arm_left success 0.185873 0.289061 -0.406263 0.603152 0.315728 0.333443 0.652181 -0.002789 +0.008791 -0.028506 -1.023640 +1.308299 +1.061554 -1.122818 +0.742926 -1.495148 +0.738738 1.918474e-04 5.427967e-03 1
1776409344.094205 jaka_arm_left success 0.185828 0.289222 -0.406310 0.602873 0.316225 0.333359 0.652241 -0.002789 +0.008791 -0.028506 -1.023640 +1.308299 +1.061554 -1.122818 +0.742926 -1.495148 +0.738738 1.161317e-04 6.187260e-03 1
1776409344.102448 jaka_arm_left success 0.185797 0.289342 -0.406345 0.602626 0.316512 0.333185 0.652418 -0.002789 +0.008791 -0.028506 -1.023640 +1.308299 +1.061554 -1.122818 +0.742926 -1.495148 +0.738738 1.877860e-04 7.028415e-03 1
1776409344.110676 jaka_arm_left success 0.185823 0.289456 -0.406360 0.602325 0.316710 0.333120 0.652634 -0.002789 +0.008791 -0.028506 -1.023640 +1.308299 +1.061554 -1.122818 +0.742926 -1.495148 +0.738738 2.810067e-04 7.864055e-03 1
1776409344.119255 jaka_arm_left success 0.185785 0.289625 -0.406352 0.602508 0.316827 0.333274 0.652329 -0.002789 +0.008791 -0.028506 -1.023640 +1.308299 +1.061554 -1.122818 +0.742926 -1.495148 +0.738738 4.268053e-04 7.293204e-03 1
1776409344.127393 jaka_arm_left success 0.185779 0.289724 -0.406363 0.602500 0.316841 0.333322 0.652305 -0.002789 +0.008791 -0.028506 -1.023640 +1.308299 +1.061554 -1.122818 +0.742926 -1.495148 +0.738738 5.237818e-04 7.266015e-03 1
1776409344.135757 jaka_arm_left success 0.185794 0.289825 -0.406354 0.602492 0.316648 0.333558 0.652286 -0.002789 +0.008791 -0.028506 -1.023640 +1.308299 +1.061554 -1.122818 +0.742926 -1.495148 +0.738738 6.173193e-04 6.983607e-03 1
1776409344.144058 jaka_arm_left success 0.185783 0.289901 -0.406346 0.602476 0.316635 0.333620 0.652275 -0.002789 +0.008791 -0.028506 -1.023640 +1.308299 +1.061554 -1.122818 +0.742926 -1.495148 +0.738738 6.895596e-04 6.960261e-03 1
1776409344.152600 jaka_arm_left success 0.185726 0.289986 -0.406318 0.602588 0.316630 0.333758 0.652103 -0.002789 +0.008791 -0.028506 -1.023640 +1.308299 +1.061554 -1.122818 +0.742926 -1.495148 +0.738738 7.716862e-04 6.567148e-03 1
1776409344.160797 jaka_arm_left success 0.185676 0.289929 -0.406330 0.601999 0.316761 0.333703 0.652612 -0.002789 +0.008791 -0.028506 -1.023640 +1.308299 +1.061554 -1.122818 +0.742926 -1.495148 +0.738738 7.253573e-04 8.090434e-03 1
1776409344.169098 jaka_arm_left success 0.185626 0.290063 -0.406306 0.602361 0.316575 0.333873 0.652281 -0.002789 +0.008791 -0.028506 -1.023640 +1.308299 +1.061554 -1.122818 +0.742926 -1.495148 +0.738738 8.611972e-04 7.013236e-03 1
1776409344.177393 jaka_arm_left success 0.185580 0.290217 -0.406280 0.602947 0.316259 0.334166 0.651742 -0.003259 +0.010820 -0.028363 -1.025358 +1.311515 +1.062981 -1.120992 +0.741855 -1.496089 +0.738585 5.049461e-06 4.908360e-06 2
1776409344.185731 jaka_arm_left success 0.185551 0.290214 -0.406271 0.602752 0.316370 0.334300 0.651800 -0.003259 +0.010820 -0.028363 -1.025358 +1.311515 +1.062981 -1.120992 +0.741855 -1.496089 +0.738585 3.157257e-05 5.375194e-04 1
1776409344.194095 jaka_arm_left success 0.185540 0.290276 -0.406262 0.602889 0.316264 0.334354 0.651697 -0.003259 +0.010820 -0.028363 -1.025358 +1.311515 +1.062981 -1.120992 +0.741855 -1.496089 +0.738585 7.435729e-05 4.061124e-04 1
1776409344.202443 jaka_arm_left success 0.185538 0.290295 -0.406269 0.602826 0.316285 0.334354 0.651746 -0.003259 +0.010820 -0.028363 -1.025358 +1.311515 +1.062981 -1.120992 +0.741855 -1.496089 +0.738585 9.051362e-05 4.522127e-04 1
1776409344.210673 jaka_arm_left success 0.185545 0.290294 -0.406286 0.602732 0.316384 0.334391 0.651765 -0.003259 +0.010820 -0.028363 -1.025358 +1.311515 +1.062981 -1.120992 +0.741855 -1.496089 +0.738585 8.680374e-05 6.748983e-04 1
1776409344.219135 jaka_arm_left success 0.185594 0.290290 -0.406317 0.602637 0.316230 0.334256 0.651997 -0.003259 +0.010820 -0.028363 -1.025358 +1.311515 +1.062981 -1.120992 +0.741855 -1.496089 +0.738585 8.543715e-05 8.235349e-04 1
1776409344.227501 jaka_arm_left success 0.185567 0.290238 -0.406365 0.602230 0.316876 0.334009 0.652186 -0.003259 +0.010820 -0.028363 -1.025358 +1.311515 +1.062981 -1.120992 +0.741855 -1.496089 +0.738585 9.334285e-05 2.114467e-03 1
1776409344.235738 jaka_arm_left success 0.185633 0.290191 -0.406398 0.601826 0.317039 0.333904 0.652533 -0.003259 +0.010820 -0.028363 -1.025358 +1.311515 +1.062981 -1.120992 +0.741855 -1.496089 +0.738585 1.350124e-04 3.200142e-03 1
1776409344.244016 jaka_arm_left success 0.185645 0.290198 -0.406405 0.602128 0.316961 0.333904 0.652293 -0.003259 +0.010820 -0.028363 -1.025358 +1.311515 +1.062981 -1.120992 +0.741855 -1.496089 +0.738585 1.450918e-04 2.479431e-03 1
1776409344.252371 jaka_arm_left success 0.185677 0.290205 -0.406408 0.602341 0.316947 0.333896 0.652107 -0.003259 +0.010820 -0.028363 -1.025358 +1.311515 +1.062981 -1.120992 +0.741855 -1.496089 +0.738585 1.633285e-04 2.047570e-03 1
1776409344.260893 jaka_arm_left success 0.185720 0.290162 -0.406414 0.602383 0.317107 0.333975 0.651950 -0.003259 +0.010820 -0.028363 -1.025358 +1.311515 +1.062981 -1.120992 +0.741855 -1.496089 +0.738585 2.027912e-04 2.116138e-03 1
1776409344.269117 jaka_arm_left success 0.185754 0.290181 -0.406385 0.602886 0.316745 0.334131 0.651581 -0.003259 +0.010820 -0.028363 -1.025358 +1.311515 +1.062981 -1.120992 +0.741855 -1.496089 +0.738585 2.067846e-04 1.037881e-03 1
1776409344.277481 jaka_arm_left success 0.185804 0.290100 -0.406403 0.602734 0.316748 0.333979 0.651798 -0.003259 +0.010820 -0.028363 -1.025358 +1.311515 +1.062981 -1.120992 +0.741855 -1.496089 +0.738585 2.810383e-04 1.138556e-03 1
1776409344.285718 jaka_arm_left success 0.185802 0.290020 -0.406434 0.602585 0.316893 0.333682 0.652017 -0.003259 +0.010820 -0.028363 -1.025358 +1.311515 +1.062981 -1.120992 +0.741855 -1.496089 +0.738585 3.346150e-04 1.837284e-03 1
1776409344.294178 jaka_arm_left success 0.185818 0.290000 -0.406459 0.602663 0.316876 0.333548 0.652023 -0.003259 +0.010820 -0.028363 -1.025358 +1.311515 +1.062981 -1.120992 +0.741855 -1.496089 +0.738585 3.688608e-04 1.921376e-03 1
1776409344.302466 jaka_arm_left success 0.185852 0.289987 -0.406491 0.602677 0.316770 0.333380 0.652147 -0.003259 +0.010820 -0.028363 -1.025358 +1.311515 +1.062981 -1.120992 +0.741855 -1.496089 +0.738585 4.145005e-04 2.112368e-03 1
1776409344.310647 jaka_arm_left success 0.185873 0.289963 -0.406513 0.602665 0.316699 0.333152 0.652309 -0.003259 +0.010820 -0.028363 -1.025358 +1.311515 +1.062981 -1.120992 +0.741855 -1.496089 +0.738585 4.529142e-04 2.546704e-03 1
1776409344.319085 jaka_arm_left success 0.185921 0.289938 -0.406542 0.602607 0.316459 0.332805 0.652656 -0.003259 +0.010820 -0.028363 -1.025358 +1.311515 +1.062981 -1.120992 +0.741855 -1.496089 +0.738585 5.130881e-04 3.370200e-03 1
1776409344.327495 jaka_arm_left success 0.185955 0.289916 -0.406553 0.602624 0.316317 0.332513 0.652858 -0.003259 +0.010820 -0.028363 -1.025358 +1.311515 +1.062981 -1.120992 +0.741855 -1.496089 +0.738585 5.533242e-04 4.039924e-03 1
1776409344.335808 jaka_arm_left success 0.185957 0.289882 -0.406561 0.602701 0.316247 0.332265 0.652946 -0.003259 +0.010820 -0.028363 -1.025358 +1.311515 +1.062981 -1.120992 +0.741855 -1.496089 +0.738585 5.777032e-04 4.524528e-03 1
1776409344.343997 jaka_arm_left success 0.185942 0.289837 -0.406574 0.602806 0.316127 0.332164 0.652959 -0.003259 +0.010820 -0.028363 -1.025358 +1.311515 +1.062981 -1.120992 +0.741855 -1.496089 +0.738585 6.020147e-04 4.698708e-03 1
1776409344.352372 jaka_arm_left success 0.185885 0.289917 -0.406555 0.603567 0.315993 0.332464 0.652168 -0.003259 +0.010820 -0.028363 -1.025358 +1.311515 +1.062981 -1.120992 +0.741855 -1.496089 +0.738585 5.092991e-04 3.756748e-03 1
1776409344.360841 jaka_arm_left success 0.185860 0.289869 -0.406566 0.603694 0.316001 0.332629 0.651962 -0.003259 +0.010820 -0.028363 -1.025358 +1.311515 +1.062981 -1.120992 +0.741855 -1.496089 +0.738585 5.311988e-04 3.481949e-03 1
1776409344.369128 jaka_arm_left success 0.185843 0.289809 -0.406582 0.603748 0.316020 0.332663 0.651886 -0.003259 +0.010820 -0.028363 -1.025358 +1.311515 +1.062981 -1.120992 +0.741855 -1.496089 +0.738585 5.725718e-04 3.449304e-03 1
1776409344.377412 jaka_arm_left success 0.185807 0.289730 -0.406617 0.603756 0.316120 0.332704 0.651809 -0.003259 +0.010820 -0.028363 -1.025358 +1.311515 +1.062981 -1.120992 +0.741855 -1.496089 +0.738585 6.353133e-04 3.354006e-03 1
1776409344.385809 jaka_arm_left success 0.185815 0.289696 -0.406620 0.603907 0.316145 0.332714 0.651652 -0.003259 +0.010820 -0.028363 -1.025358 +1.311515 +1.062981 -1.120992 +0.741855 -1.496089 +0.738585 6.660062e-04 3.491746e-03 1
1776409344.394145 jaka_arm_left success 0.185796 0.289667 -0.406633 0.604047 0.316001 0.332683 0.651607 -0.003259 +0.010820 -0.028363 -1.025358 +1.311515 +1.062981 -1.120992 +0.741855 -1.496089 +0.738585 6.893620e-04 3.736642e-03 1
1776409344.402496 jaka_arm_left success 0.185794 0.289644 -0.406644 0.604102 0.315954 0.332747 0.651547 -0.003259 +0.010820 -0.028363 -1.025358 +1.311515 +1.062981 -1.120992 +0.741855 -1.496089 +0.738585 7.128462e-04 3.728402e-03 1
1776409344.410665 jaka_arm_left success 0.185807 0.289644 -0.406649 0.604140 0.315928 0.332693 0.651552 -0.003259 +0.010820 -0.028363 -1.025358 +1.311515 +1.062981 -1.120992 +0.741855 -1.496089 +0.738585 7.194000e-04 3.865247e-03 1
1776409344.419094 jaka_arm_left success 0.185801 0.289643 -0.406659 0.604181 0.315938 0.332625 0.651544 -0.003259 +0.010820 -0.028363 -1.025358 +1.311515 +1.062981 -1.120992 +0.741855 -1.496089 +0.738585 7.235952e-04 4.017964e-03 1
1776409344.427647 jaka_arm_left success 0.185809 0.289652 -0.406677 0.604199 0.315924 0.332478 0.651609 -0.003259 +0.010820 -0.028363 -1.025358 +1.311515 +1.062981 -1.120992 +0.741855 -1.496089 +0.738585 7.287302e-04 4.262683e-03 1
1776409344.435750 jaka_arm_left success 0.185824 0.289711 -0.406690 0.604326 0.315906 0.332499 0.651489 -0.003259 +0.010820 -0.028363 -1.025358 +1.311515 +1.062981 -1.120992 +0.741855 -1.496089 +0.738585 6.968384e-04 4.411457e-03 1
1776409344.444079 jaka_arm_left success 0.185837 0.289740 -0.406710 0.604371 0.315861 0.332121 0.651662 -0.003259 +0.010820 -0.028363 -1.025358 +1.311515 +1.062981 -1.120992 +0.741855 -1.496089 +0.738585 6.932217e-04 5.047547e-03 1
1776409344.452517 jaka_arm_left success 0.185857 0.289760 -0.406731 0.604273 0.316008 0.332212 0.651635 -0.003259 +0.010820 -0.028363 -1.025358 +1.311515 +1.062981 -1.120992 +0.741855 -1.496089 +0.738585 7.008488e-04 4.752466e-03 1
1776409344.460861 jaka_arm_left success 0.185873 0.289701 -0.406764 0.603955 0.316003 0.331922 0.652080 -0.003259 +0.010820 -0.028363 -1.025358 +1.311515 +1.062981 -1.120992 +0.741855 -1.496089 +0.738585 7.672756e-04 4.990179e-03 1
1776409344.469114 jaka_arm_left success 0.185901 0.289710 -0.406794 0.603849 0.316005 0.331814 0.652232 -0.003259 +0.010820 -0.028363 -1.025358 +1.311515 +1.062981 -1.120992 +0.741855 -1.496089 +0.738585 7.917063e-04 5.155069e-03 1
1776409344.477365 jaka_arm_left success 0.185935 0.289773 -0.406817 0.603897 0.315858 0.331918 0.652206 -0.003259 +0.010820 -0.028363 -1.025358 +1.311515 +1.062981 -1.120992 +0.741855 -1.496089 +0.738585 7.837061e-04 5.030040e-03 1
1776409344.485713 jaka_arm_left success 0.185990 0.289790 -0.406882 0.603697 0.315873 0.331633 0.652528 -0.003259 +0.010820 -0.028363 -1.025358 +1.311515 +1.062981 -1.120992 +0.741855 -1.496089 +0.738585 8.460912e-04 5.563246e-03 1
1776409344.494146 jaka_arm_left success 0.186017 0.289956 -0.406890 0.604164 0.315846 0.331630 0.652111 -0.003259 +0.010820 -0.028363 -1.025358 +1.311515 +1.062981 -1.120992 +0.741855 -1.496089 +0.738585 7.965092e-04 5.731309e-03 1
1776409344.502420 jaka_arm_left success 0.186112 0.290077 -0.406901 0.604410 0.315469 0.331454 0.652155 -0.003259 +0.010820 -0.028363 -1.025358 +1.311515 +1.062981 -1.120992 +0.741855 -1.496089 +0.738585 8.314852e-04 6.412776e-03 1
1776409344.510643 jaka_arm_left success 0.186169 0.290136 -0.406945 0.604387 0.315393 0.331390 0.652245 -0.003259 +0.010820 -0.028363 -1.025358 +1.311515 +1.062981 -1.120992 +0.741855 -1.496089 +0.738585 8.938935e-04 6.564470e-03 1
1776409344.519080 jaka_arm_left success 0.186239 0.290283 -0.406945 0.604780 0.315227 0.331339 0.651987 -0.003259 +0.010820 -0.028363 -1.025358 +1.311515 +1.062981 -1.120992 +0.741855 -1.496089 +0.738585 9.402733e-04 7.061732e-03 1
1776409344.527542 jaka_arm_left success 0.186223 0.290267 -0.406997 0.604278 0.316197 0.331247 0.652030 -0.003259 +0.010820 -0.028363 -1.025358 +1.311515 +1.062981 -1.120992 +0.741855 -1.496089 +0.738585 9.663355e-04 6.441319e-03 1
1776409344.535754 jaka_arm_left success 0.186262 0.290329 -0.407020 0.604295 0.316321 0.331208 0.651974 -0.002102 +0.011594 -0.030188 -1.023464 +1.310026 +1.064375 -1.120714 +0.743286 -1.496161 +0.736496 5.051771e-06 5.696746e-06 2
1776409344.544031 jaka_arm_left success 0.186340 0.290376 -0.407050 0.604257 0.316354 0.331115 0.652041 -0.002102 +0.011594 -0.030188 -1.023464 +1.310026 +1.064375 -1.120714 +0.743286 -1.496161 +0.736496 9.638952e-05 2.532048e-04 1
1776409344.552500 jaka_arm_left success 0.186400 0.290415 -0.407074 0.604127 0.316479 0.330969 0.652174 -0.002102 +0.011594 -0.030188 -1.023464 +1.310026 +1.064375 -1.120714 +0.743286 -1.496161 +0.736496 1.717305e-04 7.779833e-04 1
1776409344.560828 jaka_arm_left success 0.186428 0.290401 -0.407083 0.603773 0.316860 0.330755 0.652425 -0.002102 +0.011594 -0.030188 -1.023464 +1.310026 +1.064375 -1.120714 +0.743286 -1.496161 +0.736496 1.926356e-04 1.973516e-03 1
1776409344.569103 jaka_arm_left success 0.186493 0.290487 -0.407093 0.603899 0.316905 0.330770 0.652279 -0.002102 +0.011594 -0.030188 -1.023464 +1.310026 +1.064375 -1.120714 +0.743286 -1.496161 +0.736496 2.892535e-04 1.770582e-03 1
1776409344.577392 jaka_arm_left success 0.186528 0.290588 -0.407099 0.604098 0.316899 0.330696 0.652135 -0.002102 +0.011594 -0.030188 -1.023464 +1.310026 +1.064375 -1.120714 +0.743286 -1.496161 +0.736496 3.787478e-04 1.625908e-03 1
1776409344.585720 jaka_arm_left success 0.186560 0.290593 -0.407111 0.604072 0.317018 0.330339 0.652283 -0.002102 +0.011594 -0.030188 -1.023464 +1.310026 +1.064375 -1.120714 +0.743286 -1.496161 +0.736496 4.077931e-04 2.355169e-03 1
1776409344.594161 jaka_arm_left success 0.186628 0.290575 -0.407122 0.603875 0.317085 0.329994 0.652608 -0.002102 +0.011594 -0.030188 -1.023464 +1.310026 +1.064375 -1.120714 +0.743286 -1.496161 +0.736496 4.526055e-04 3.248561e-03 1
1776409344.602515 jaka_arm_left success 0.186668 0.290597 -0.407111 0.603852 0.317207 0.329756 0.652689 -0.002102 +0.011594 -0.030188 -1.023464 +1.310026 +1.064375 -1.120714 +0.743286 -1.496161 +0.736496 4.948171e-04 3.796542e-03 1
1776409344.610639 jaka_arm_left success 0.186704 0.290684 -0.407078 0.604231 0.316993 0.329525 0.652560 -0.002102 +0.011594 -0.030188 -1.023464 +1.310026 +1.064375 -1.120714 +0.743286 -1.496161 +0.736496 5.691595e-04 3.812307e-03 1
1776409344.619133 jaka_arm_left success 0.186794 0.290630 -0.407113 0.603917 0.316961 0.329612 0.652822 -0.002102 +0.011594 -0.030188 -1.023464 +1.310026 +1.064375 -1.120714 +0.743286 -1.496161 +0.736496 6.183960e-04 3.910303e-03 1
